;FLAVOR:Marlin
;TIME:4657
;Filament used: 6.97981m
;Layer height: 0.3
;MINX:77.912
;MINY:52.266
;MINZ:0.2
;MAXX:172.088
;MAXY:157.734
;MAXZ:10.7
;Generated with Cura_SteamEngine 5.2.1
M82 ;absolute extrusion mode
G21 ; set units to millimeters
G90 ; use absolute positioning
M82 ; absolute extrusion mode
M104 S210.0 ; set extruder temp
M140 S60 ; set bed temp
M190 S60 ; wait for bed temp
M109 S210.0 ; wait for extruder temp
G28 W ; home all without mesh bed level
G80 ; mesh bed leveling
G92 E0.0 ; reset extruder distance position
G1 Y-3.0 F1000.0 ; go outside print area
G1 X60.0 E9.0 F1000.0 ; intro line
G1 X100.0 E21.5 F1000.0 ; intro line
G92 E0.0 ; reset extruder distance position
G92 E0
G92 E0
G1 F2100 E-0.8
;LAYER_COUNT:36
;LAYER:0
M107
G0 F3600 X80.76 Y76.689 Z0.2
;TYPE:SKIRT
G1 F2100 E0
G1 F1800 X81.419 Y76.045 E0.03065
G1 X81.814 Y75.709 E0.04789
G1 X82.554 Y75.161 E0.07852
G1 X82.993 Y74.88 E0.09586
G1 X83.804 Y74.437 E0.12659
G1 X84.265 Y74.224 E0.14348
G1 X85.125 Y73.894 E0.17412
G1 X85.635 Y73.739 E0.19185
G1 X86.531 Y73.533 E0.22243
G1 X87.036 Y73.452 E0.23944
G1 X87.955 Y73.368 E0.27013
G1 X88.475 Y73.356 E0.28743
G1 X89.392 Y73.398 E0.31796
G1 X89.909 Y73.457 E0.33527
G1 X90.818 Y73.625 E0.36602
G1 X91.31 Y73.751 E0.38291
G1 X92.183 Y74.037 E0.41346
G1 X92.671 Y74.235 E0.43098
G1 X93.617 Y74.698 E0.46601
G1 X97.548 Y76.968 E0.61699
G1 X98.697 Y75.866 E0.66994
G1 X100.488 Y74.343 E0.74814
G1 X102.376 Y72.925 E0.82667
G1 X104.365 Y71.61 E0.90597
G1 X106.412 Y70.428 E0.98459
G1 X108.531 Y69.372 E1.06334
G1 X110.715 Y68.44 E1.14232
G1 X112.951 Y67.644 E1.22126
G1 X114.45 Y67.21 E1.27316
G1 X114.451 Y62.643 E1.42506
G1 X114.522 Y61.619 E1.4592
G1 X114.592 Y61.11 E1.47629
G1 X114.779 Y60.209 E1.5069
G1 X114.92 Y59.708 E1.52421
G1 X115.229 Y58.839 E1.55488
G1 X115.434 Y58.365 E1.57206
G1 X115.857 Y57.548 E1.60266
G1 X116.125 Y57.107 E1.61982
G1 X116.656 Y56.353 E1.6505
G1 X116.987 Y55.946 E1.66794
G1 X117.616 Y55.273 E1.69858
G1 X117.99 Y54.923 E1.71562
G1 X118.706 Y54.339 E1.74635
G1 X119.137 Y54.035 E1.76389
G1 X119.923 Y53.558 E1.79447
G1 X120.378 Y53.322 E1.81152
G1 X121.224 Y52.954 E1.84221
G1 X121.716 Y52.78 E1.85956
G1 X122.602 Y52.532 E1.89016
G1 X123.112 Y52.426 E1.90749
G1 X124.027 Y52.301 E1.9382
G1 X124.541 Y52.266 E1.95534
G1 X125.459 Y52.266 E1.98587
G1 X125.973 Y52.301 E2.00301
G1 X126.888 Y52.426 E2.03372
G1 X127.398 Y52.532 E2.05105
G1 X128.284 Y52.78 E2.08165
G1 X128.775 Y52.954 E2.09898
G1 X129.619 Y53.321 E2.12959
G1 X130.078 Y53.559 E2.14678
G1 X130.866 Y54.038 E2.17745
G1 X131.29 Y54.338 E2.19473
G1 X132.004 Y54.919 E2.22535
G1 X132.382 Y55.271 E2.24253
G1 X133.013 Y55.946 E2.27326
G1 X133.344 Y56.353 E2.29071
G1 X133.873 Y57.104 E2.32126
G1 X134.14 Y57.543 E2.33835
G1 X134.564 Y58.361 E2.36899
G1 X134.77 Y58.836 E2.38621
G1 X135.079 Y59.704 E2.41686
G1 X135.219 Y60.204 E2.43413
G1 X135.407 Y61.108 E2.46484
G1 X135.478 Y61.622 E2.4821
G1 X135.55 Y62.67 E2.51704
G1 X135.55 Y67.209 E2.668
G1 X137.048 Y67.643 E2.71988
G1 X139.284 Y68.439 E2.79882
G1 X141.468 Y69.371 E2.8778
G1 X143.587 Y70.427 E2.95654
G1 X145.634 Y71.609 E3.03516
G1 X147.623 Y72.924 E3.11446
G1 X149.529 Y74.355 E3.19374
G1 X151.333 Y75.892 E3.27256
G1 X152.453 Y76.968 E3.32422
G1 X156.383 Y74.698 E3.47517
G1 X157.329 Y74.235 E3.5102
G1 X157.817 Y74.037 E3.52772
G1 X158.69 Y73.751 E3.55827
G1 X159.182 Y73.625 E3.57516
G1 X160.091 Y73.457 E3.60591
G1 X160.608 Y73.398 E3.62322
G1 X161.525 Y73.356 E3.65375
G1 X162.041 Y73.367 E3.67091
G1 X162.96 Y73.45 E3.7016
G1 X163.477 Y73.533 E3.71902
G1 X164.373 Y73.741 E3.74961
G1 X164.872 Y73.894 E3.76697
G1 X165.732 Y74.223 E3.7976
G1 X166.196 Y74.437 E3.81459
G1 X167.007 Y74.88 E3.84533
G1 X167.446 Y75.161 E3.86267
G1 X168.186 Y75.709 E3.89329
G1 X168.581 Y76.045 E3.91054
G1 X169.238 Y76.687 E3.94109
G1 X169.583 Y77.074 E3.95834
G1 X170.15 Y77.804 E3.98908
G1 X170.441 Y78.237 E4.00643
G1 X170.9 Y79.033 E4.03699
G1 X171.127 Y79.496 E4.05414
G1 X171.476 Y80.352 E4.08489
G1 X171.638 Y80.842 E4.10205
G1 X171.866 Y81.73 E4.13255
G1 X171.961 Y82.247 E4.15003
G1 X172.065 Y83.164 E4.18073
G1 X172.088 Y83.679 E4.19787
G1 X172.067 Y84.6 E4.22851
G1 X172.02 Y85.114 E4.24568
G1 X171.874 Y86.026 E4.2764
G1 X171.757 Y86.533 E4.2937
G1 X171.489 Y87.412 E4.32427
G1 X171.304 Y87.897 E4.34153
G1 X170.918 Y88.733 E4.37216
G1 X170.668 Y89.189 E4.38946
G1 X170.17 Y89.967 E4.42018
G1 X169.862 Y90.384 E4.43742
G1 X169.266 Y91.083 E4.46798
G1 X168.906 Y91.45 E4.48507
G1 X168.219 Y92.064 E4.51572
G1 X167.807 Y92.385 E4.53309
G1 X166.936 Y92.971 E4.56801
G1 X163.002 Y95.242 E4.71909
G1 X163.381 Y96.782 E4.77184
G1 X163.806 Y99.107 E4.85045
G1 X164.092 Y101.463 E4.92939
G1 X164.234 Y103.831 E5.00829
G1 X164.234 Y106.194 E5.08688
G1 X164.093 Y108.539 E5.16502
G1 X163.804 Y110.905 E5.24429
G1 X163.382 Y113.222 E5.32263
G1 X163.003 Y114.759 E5.37528
G1 X166.936 Y117.029 E5.52632
G1 X167.807 Y117.615 E5.56123
G1 X168.219 Y117.935 E5.57858
G1 X168.904 Y118.547 E5.60913
G1 X169.263 Y118.915 E5.62623
G1 X169.861 Y119.616 E5.65688
G1 X170.17 Y120.033 E5.67414
G1 X170.668 Y120.811 E5.70487
G1 X170.918 Y121.267 E5.72216
G1 X171.303 Y122.101 E5.75271
G1 X171.487 Y122.584 E5.7699
G1 X171.756 Y123.465 E5.80054
G1 X171.874 Y123.972 E5.81786
G1 X172.02 Y124.881 E5.84848
G1 X172.067 Y125.397 E5.86571
G1 X172.088 Y126.319 E5.89638
G1 X172.065 Y126.833 E5.9135
G1 X171.961 Y127.752 E5.94426
G1 X171.865 Y128.274 E5.96191
G1 X171.636 Y129.162 E5.99241
G1 X171.478 Y129.641 E6.00919
G1 X171.131 Y130.497 E6.03991
G1 X170.899 Y130.97 E6.05743
G1 X170.439 Y131.766 E6.08801
G1 X170.151 Y132.195 E6.10519
G1 X169.586 Y132.923 E6.13585
G1 X169.24 Y133.311 E6.15314
G1 X168.581 Y133.955 E6.18378
G1 X168.186 Y134.291 E6.20103
G1 X167.446 Y134.839 E6.23166
G1 X167.005 Y135.121 E6.24907
G1 X166.193 Y135.564 E6.27983
G1 X165.736 Y135.775 E6.29657
G1 X164.877 Y136.105 E6.32718
G1 X164.365 Y136.261 E6.34498
G1 X163.469 Y136.467 E6.37556
G1 X162.964 Y136.548 E6.39257
G1 X162.045 Y136.632 E6.42327
G1 X161.525 Y136.644 E6.44057
G1 X160.608 Y136.602 E6.4711
G1 X160.091 Y136.543 E6.4884
G1 X159.182 Y136.375 E6.51915
G1 X158.69 Y136.249 E6.53604
G1 X157.817 Y135.963 E6.5666
G1 X157.329 Y135.765 E6.58411
G1 X156.383 Y135.302 E6.61914
G1 X152.452 Y133.032 E6.77012
G1 X151.303 Y134.134 E6.82307
G1 X149.512 Y135.657 E6.90127
G1 X147.624 Y137.075 E6.9798
G1 X145.635 Y138.39 E7.05911
G1 X143.588 Y139.572 E7.13773
G1 X141.469 Y140.628 E7.21647
G1 X139.285 Y141.56 E7.29545
G1 X137.049 Y142.356 E7.37439
G1 X135.55 Y142.79 E7.42629
G1 X135.549 Y147.357 E7.57819
G1 X135.478 Y148.381 E7.61233
G1 X135.408 Y148.89 E7.62942
G1 X135.221 Y149.791 E7.66003
G1 X135.08 Y150.292 E7.67734
G1 X134.771 Y151.161 E7.70802
G1 X134.566 Y151.635 E7.72519
G1 X134.143 Y152.452 E7.75579
G1 X133.875 Y152.893 E7.77296
G1 X133.344 Y153.647 E7.80363
G1 X133.013 Y154.054 E7.82108
G1 X132.384 Y154.727 E7.85172
G1 X132.01 Y155.077 E7.86875
G1 X131.294 Y155.661 E7.89948
G1 X130.863 Y155.965 E7.91703
G1 X130.077 Y156.442 E7.94761
G1 X129.622 Y156.678 E7.96465
G1 X128.776 Y157.046 E7.99534
G1 X128.284 Y157.22 E8.0127
G1 X127.398 Y157.468 E8.0433
G1 X126.888 Y157.574 E8.06062
G1 X125.973 Y157.699 E8.09134
G1 X125.459 Y157.734 E8.10847
G1 X124.541 Y157.734 E8.13901
G1 X124.027 Y157.699 E8.15614
G1 X123.112 Y157.574 E8.18686
G1 X122.602 Y157.468 E8.20418
G1 X121.716 Y157.22 E8.23478
G1 X121.224 Y157.046 E8.25214
G1 X120.378 Y156.678 E8.28282
G1 X119.92 Y156.44 E8.29999
G1 X119.134 Y155.962 E8.33059
G1 X118.709 Y155.662 E8.34789
G1 X117.993 Y155.079 E8.3786
G1 X117.616 Y154.727 E8.39576
G1 X116.987 Y154.054 E8.4264
G1 X116.656 Y153.647 E8.44384
G1 X116.125 Y152.893 E8.47452
G1 X115.857 Y152.452 E8.49168
G1 X115.434 Y151.635 E8.52228
G1 X115.229 Y151.161 E8.53946
G1 X114.92 Y150.292 E8.57013
G1 X114.779 Y149.791 E8.58744
G1 X114.592 Y148.89 E8.61805
G1 X114.522 Y148.378 E8.63524
G1 X114.45 Y147.33 E8.67018
G1 X114.45 Y142.791 E8.82114
G1 X112.952 Y142.357 E8.87302
G1 X110.716 Y141.561 E8.95196
G1 X108.532 Y140.629 E9.03094
G1 X106.413 Y139.573 E9.10968
G1 X104.366 Y138.391 E9.1883
G1 X102.377 Y137.076 E9.2676
G1 X100.47 Y135.644 E9.34692
G1 X98.666 Y134.107 E9.42575
G1 X97.547 Y133.032 E9.47736
G1 X93.617 Y135.302 E9.62831
G1 X92.671 Y135.765 E9.66334
G1 X92.183 Y135.963 E9.68086
G1 X91.31 Y136.249 E9.71141
G1 X90.818 Y136.375 E9.7283
G1 X89.909 Y136.543 E9.75905
G1 X89.392 Y136.602 E9.77636
G1 X88.475 Y136.644 E9.80689
G1 X87.959 Y136.633 E9.82405
G1 X87.04 Y136.55 E9.85474
G1 X86.523 Y136.467 E9.87216
G1 X85.627 Y136.259 E9.90275
G1 X85.127 Y136.106 E9.92014
G1 X84.268 Y135.777 E9.95074
G1 X83.807 Y135.564 E9.96763
G1 X82.995 Y135.121 E9.99839
G1 X82.554 Y134.839 E10.0158
G1 X81.814 Y134.291 E10.04643
G1 X81.419 Y133.955 E10.06368
G1 X80.76 Y133.311 E10.09432
G1 X80.414 Y132.923 E10.11162
G1 X79.849 Y132.195 E10.14227
G1 X79.559 Y131.763 E10.15957
G1 X79.1 Y130.967 E10.19013
G1 X78.873 Y130.504 E10.20728
G1 X78.524 Y129.648 E10.23803
G1 X78.362 Y129.158 E10.25519
G1 X78.134 Y128.27 E10.28569
G1 X78.039 Y127.753 E10.30317
G1 X77.935 Y126.836 E10.33387
G1 X77.912 Y126.321 E10.35101
G1 X77.933 Y125.4 E10.38165
G1 X77.98 Y124.886 E10.39882
G1 X78.126 Y123.974 E10.42954
G1 X78.243 Y123.467 E10.44684
G1 X78.511 Y122.588 E10.47741
G1 X78.696 Y122.103 E10.49467
G1 X79.082 Y121.267 E10.5253
G1 X79.332 Y120.811 E10.5426
G1 X79.83 Y120.033 E10.57332
G1 X80.138 Y119.616 E10.59056
G1 X80.734 Y118.917 E10.62112
G1 X81.094 Y118.55 E10.63821
G1 X81.781 Y117.936 E10.66886
G1 X82.193 Y117.615 E10.68623
G1 X83.064 Y117.029 E10.72115
G1 X86.997 Y114.758 E10.8722
G1 X86.62 Y113.223 E10.92477
G1 X86.194 Y110.888 E11.00372
G1 X85.908 Y108.536 E11.08252
G1 X85.766 Y106.169 E11.16139
G1 X85.766 Y103.806 E11.23998
G1 X85.907 Y101.461 E11.31812
G1 X86.196 Y99.095 E11.3974
G1 X86.618 Y96.778 E11.47573
G1 X86.997 Y95.241 E11.52838
G1 X83.064 Y92.971 E11.67942
G1 X82.193 Y92.385 E11.71433
G1 X81.781 Y92.064 E11.7317
G1 X81.094 Y91.45 E11.76235
G1 X80.734 Y91.083 E11.77945
G1 X80.138 Y90.384 E11.81
G1 X79.83 Y89.967 E11.82724
G1 X79.332 Y89.189 E11.85797
G1 X79.082 Y88.733 E11.87526
G1 X78.696 Y87.897 E11.90589
G1 X78.511 Y87.412 E11.92316
G1 X78.243 Y86.533 E11.95372
G1 X78.126 Y86.028 E11.97096
G1 X77.98 Y85.119 E12.00158
G1 X77.933 Y84.603 E12.01881
G1 X77.912 Y83.681 E12.04949
G1 X77.935 Y83.167 E12.0666
G1 X78.039 Y82.248 E12.09736
G1 X78.135 Y81.726 E12.11502
G1 X78.364 Y80.838 E12.14552
G1 X78.522 Y80.359 E12.16229
G1 X78.869 Y79.503 E12.19301
G1 X79.101 Y79.03 E12.21054
G1 X79.561 Y78.234 E12.24111
G1 X79.849 Y77.805 E12.2583
G1 X80.414 Y77.077 E12.28895
G1 X80.76 Y76.689 E12.30624
G0 F3600 X80.872 Y77.14
G1 F1800 X81.862 Y76.172 E12.35229
G1 X82.984 Y75.341 E12.39873
G1 X84.192 Y74.681 E12.44452
G1 X85.496 Y74.18 E12.49098
G1 X86.841 Y73.871 E12.53688
G1 X88.22 Y73.745 E12.58293
G1 X89.607 Y73.809 E12.62912
G1 X90.972 Y74.061 E12.67528
G1 X92.277 Y74.489 E12.72096
G1 X93.431 Y75.053 E12.76368
G1 X97.606 Y77.465 E12.92405
G1 X98.88 Y76.243 E12.98277
G1 X100.741 Y74.654 E13.06416
G1 X102.698 Y73.19 E13.14545
G1 X104.485 Y72.009 E13.21669
G1 X106.608 Y70.777 E13.29833
G1 X108.612 Y69.778 E13.3728
G1 X110.857 Y68.814 E13.45407
G1 X113.075 Y68.025 E13.53237
G1 X114.85 Y67.51 E13.59384
G1 X114.851 Y62.657 E13.75525
G1 X114.937 Y61.418 E13.79656
G1 X115.219 Y60.058 E13.84275
G1 X115.681 Y58.76 E13.88858
G1 X116.322 Y57.522 E13.93495
G1 X117.118 Y56.391 E13.98095
G1 X118.064 Y55.379 E14.02702
G1 X119.143 Y54.499 E14.07333
G1 X120.325 Y53.782 E14.11931
G1 X121.595 Y53.229 E14.16538
G1 X122.938 Y52.853 E14.21177
G1 X124.308 Y52.666 E14.25776
G1 X125.692 Y52.666 E14.30379
G1 X127.062 Y52.853 E14.34978
G1 X128.404 Y53.229 E14.39613
G1 X129.669 Y53.779 E14.44201
G1 X130.858 Y54.502 E14.48829
G1 X131.934 Y55.377 E14.53442
G1 X132.882 Y56.391 E14.58059
G1 X133.68 Y57.524 E14.62668
G1 X134.313 Y58.746 E14.67246
G1 X134.781 Y60.059 E14.71882
G1 X135.063 Y61.416 E14.76492
G1 X135.15 Y62.682 E14.80712
G1 X135.15 Y67.51 E14.9677
G1 X136.923 Y68.023 E15.02909
G1 X139.143 Y68.813 E15.10747
G1 X141.387 Y69.777 E15.1887
G1 X143.391 Y70.776 E15.26317
G1 X145.514 Y72.008 E15.34481
G1 X147.301 Y73.189 E15.41606
G1 X149.282 Y74.671 E15.49834
G1 X151.062 Y76.187 E15.57611
G1 X152.393 Y77.465 E15.63748
G1 X156.569 Y75.053 E15.79788
G1 X157.723 Y74.489 E15.8406
G1 X159.028 Y74.061 E15.88628
G1 X160.392 Y73.809 E15.93241
G1 X161.776 Y73.745 E15.97849
G1 X163.16 Y73.87 E16.02471
G1 X164.513 Y74.184 E16.07091
G1 X165.801 Y74.677 E16.11678
G1 X167.016 Y75.341 E16.16283
G1 X168.138 Y76.172 E16.20927
G1 X169.125 Y77.136 E16.25516
G1 X169.975 Y78.23 E16.30124
G1 X170.67 Y79.436 E16.34753
G1 X171.193 Y80.719 E16.39361
G1 X171.536 Y82.056 E16.43952
G1 X171.693 Y83.44 E16.48585
G1 X171.662 Y84.82 E16.53176
G1 X171.442 Y86.195 E16.57807
G1 X171.038 Y87.519 E16.62412
G1 X170.456 Y88.779 E16.67028
G1 X169.711 Y89.944 E16.71627
G1 X168.81 Y91 E16.76244
G1 X167.777 Y91.923 E16.80852
G1 X166.72 Y92.634 E16.85089
G1 X162.543 Y95.045 E17.0113
G1 X162.99 Y96.865 E17.07363
G1 X163.41 Y99.161 E17.15126
G1 X163.694 Y101.502 E17.22969
G1 X163.834 Y103.838 E17.30753
G1 X163.834 Y106.186 E17.38562
G1 X163.695 Y108.5 E17.46273
G1 X163.408 Y110.851 E17.5415
G1 X162.992 Y113.136 E17.61875
G1 X162.543 Y114.954 E17.68103
G1 X166.721 Y117.367 E17.8415
G1 X167.773 Y118.074 E17.88366
G1 X168.814 Y119.004 E17.93009
G1 X169.708 Y120.052 E17.97591
G1 X170.456 Y121.221 E18.02207
G1 X171.038 Y122.481 E18.06823
G1 X171.442 Y123.804 E18.11424
G1 X171.662 Y125.174 E18.16039
G1 X171.693 Y126.557 E18.2064
G1 X171.536 Y127.945 E18.25286
G1 X171.191 Y129.282 E18.29878
G1 X170.671 Y130.566 E18.34486
G1 X169.976 Y131.768 E18.39104
G1 X169.128 Y132.86 E18.43702
G1 X168.138 Y133.828 E18.48308
G1 X167.017 Y134.659 E18.52949
G1 X165.804 Y135.321 E18.57545
G1 X164.506 Y135.819 E18.62169
G1 X163.159 Y136.129 E18.66766
G1 X161.78 Y136.255 E18.71372
G1 X160.393 Y136.191 E18.7599
G1 X159.028 Y135.939 E18.80607
G1 X157.723 Y135.511 E18.85175
G1 X156.569 Y134.947 E18.89447
G1 X152.394 Y132.535 E19.05484
G1 X151.12 Y133.757 E19.11355
G1 X149.259 Y135.346 E19.19494
G1 X147.302 Y136.81 E19.27623
G1 X145.515 Y137.991 E19.34747
G1 X143.392 Y139.223 E19.42911
G1 X141.388 Y140.222 E19.50359
G1 X139.143 Y141.186 E19.58485
G1 X136.925 Y141.975 E19.66315
G1 X135.15 Y142.49 E19.72462
G1 X135.149 Y147.343 E19.88603
G1 X135.063 Y148.582 E19.92734
G1 X134.781 Y149.942 E19.97354
G1 X134.319 Y151.24 E20.01936
G1 X133.678 Y152.478 E20.06573
G1 X132.882 Y153.609 E20.11173
G1 X131.936 Y154.621 E20.1578
G1 X130.857 Y155.501 E20.20411
G1 X129.675 Y156.218 E20.2501
G1 X128.405 Y156.771 E20.29617
G1 X127.062 Y157.147 E20.34255
G1 X125.692 Y157.334 E20.38854
G1 X124.308 Y157.334 E20.43457
G1 X122.938 Y157.147 E20.48056
G1 X121.595 Y156.771 E20.52695
G1 X120.325 Y156.218 E20.57302
G1 X119.14 Y155.498 E20.61914
G1 X118.067 Y154.624 E20.66517
G1 X117.118 Y153.609 E20.71138
G1 X116.322 Y152.478 E20.75738
G1 X115.681 Y151.24 E20.80375
G1 X115.219 Y149.942 E20.84958
G1 X114.937 Y148.582 E20.89577
G1 X114.85 Y147.318 E20.93791
G1 X114.85 Y142.49 E21.09849
G1 X113.077 Y141.977 E21.15988
G1 X110.857 Y141.187 E21.23825
G1 X108.613 Y140.223 E21.31949
G1 X106.609 Y139.224 E21.39396
G1 X104.486 Y137.992 E21.4756
G1 X102.619 Y136.758 E21.55004
G1 X100.721 Y135.332 E21.629
G1 X98.937 Y133.812 E21.70695
G1 X97.607 Y132.535 E21.76827
G1 X93.431 Y134.947 E21.92867
G1 X92.277 Y135.511 E21.97139
G1 X90.972 Y135.939 E22.01707
G1 X89.608 Y136.191 E22.06321
G1 X88.224 Y136.255 E22.10929
G1 X86.839 Y136.13 E22.15554
G1 X85.49 Y135.816 E22.20161
G1 X84.197 Y135.321 E22.24766
G1 X82.984 Y134.659 E22.29362
G1 X81.862 Y133.828 E22.34006
G1 X80.871 Y132.86 E22.38613
G1 X80.026 Y131.77 E22.432
G1 X79.33 Y130.565 E22.47829
G1 X78.807 Y129.281 E22.5244
G1 X78.464 Y127.944 E22.57031
G1 X78.307 Y126.56 E22.61664
G1 X78.338 Y125.18 E22.66255
G1 X78.558 Y123.805 E22.70886
G1 X78.962 Y122.481 E22.7549
G1 X79.544 Y121.221 E22.80106
G1 X80.289 Y120.056 E22.84706
G1 X81.19 Y119 E22.89323
G1 X82.223 Y118.077 E22.9393
