;FLAVOR:Marlin
;TIME:4223
;Filament used: 3.15768m
;Layer height: 0.2
;MINX:109.448
;MINY:89.428
;MINZ:0.2
;MAXX:140.583
;MAXY:120.569
;MAXZ:39.2
;Generated with Cura_SteamEngine 4.13.1
M82 ;absolute extrusion mode
G21 ; set units to millimeters
G90 ; use absolute positioning
M82 ; absolute extrusion mode
M104 S210 ; set extruder temp
M140 S60 ; set bed temp
M190 S60 ; wait for bed temp
M109 S210 ; wait for extruder temp
G28 W ; home all without mesh bed level
G80 ; mesh bed leveling
G92 E0.0 ; reset extruder distance position
G1 Y-3.0 F1000.0 ; go outside print area
G1 X60.0 E9.0 F1000.0 ; intro line
G1 X100.0 E21.5 F1000.0 ; intro line
G92 E0.0 ; reset extruder distance position
G92 E0
G92 E0
G1 F2100 E-0.8
;LAYER_COUNT:196
;LAYER:0
M107
G0 F3600 X112.916 Y95.189 Z0.2
;TYPE:SKIRT
G1 F2100 E0
G1 F1800 X113.745 Y94.248 E0.04171
G1 X114.018 Y93.968 E0.05472
G1 X114.879 Y93.173 E0.0937
G1 X115.177 Y92.925 E0.10659
G1 X116.172 Y92.179 E0.14795
G1 X116.493 Y91.963 E0.16082
G1 X117.475 Y91.372 E0.19894
G1 X117.816 Y91.19 E0.2118
G1 X118.978 Y90.643 E0.25451
G1 X119.337 Y90.496 E0.26742
G1 X120.436 Y90.11 E0.30616
G1 X120.836 Y89.993 E0.32002
G1 X122.068 Y89.707 E0.36209
G1 X122.43 Y89.642 E0.37432
G1 X123.536 Y89.496 E0.41142
G1 X123.855 Y89.467 E0.42208
G1 X124.558 Y89.435 E0.44548
G1 X125.332 Y89.428 E0.47123
G1 X125.625 Y89.439 E0.48098
G1 X126.854 Y89.534 E0.52198
G1 X127.234 Y89.583 E0.53472
G1 X128.256 Y89.767 E0.56926
G1 X128.84 Y89.906 E0.58923
G1 X129.885 Y90.209 E0.62542
G1 X130.259 Y90.339 E0.63858
G1 X131.429 Y90.815 E0.6806
G1 X131.788 Y90.984 E0.69379
G1 X132.849 Y91.551 E0.73381
G1 X133.169 Y91.743 E0.74622
G1 X134.209 Y92.438 E0.78782
G1 X134.532 Y92.679 E0.80122
G1 X135.394 Y93.398 E0.83856
G1 X135.701 Y93.677 E0.85236
G1 X136.577 Y94.573 E0.89403
G1 X137.036 Y95.125 E0.91791
G1 X137.581 Y95.808 E0.94697
G1 X137.827 Y96.154 E0.96109
G1 X138.471 Y97.177 E1.0013
G1 X138.65 Y97.494 E1.01341
G1 X139.181 Y98.55 E1.05272
G1 X139.338 Y98.907 E1.06569
G1 X139.791 Y100.099 E1.10811
G1 X139.918 Y100.499 E1.12206
G1 X140.199 Y101.587 E1.15944
G1 X140.273 Y101.942 E1.1715
G1 X140.492 Y103.324 E1.21804
G1 X140.534 Y103.721 E1.23132
G1 X140.578 Y104.563 E1.25936
G1 X140.583 Y105.168 E1.27948
G1 X140.578 Y105.369 E1.28617
G1 X140.526 Y106.351 E1.31888
G1 X140.486 Y106.73 E1.33155
G1 X140.29 Y107.999 E1.37426
G1 X140.209 Y108.39 E1.38754
G1 X139.905 Y109.54 E1.4271
G1 X139.781 Y109.924 E1.44053
G1 X139.325 Y111.119 E1.48307
G1 X139.183 Y111.445 E1.49489
G1 X138.684 Y112.457 E1.53242
G1 X138.465 Y112.843 E1.54718
G1 X137.752 Y113.943 E1.59078
G1 X137.536 Y114.242 E1.60305
G1 X136.799 Y115.168 E1.64241
G1 X136.553 Y115.449 E1.65484
G1 X135.729 Y116.298 E1.69419
G1 X135.442 Y116.564 E1.7072
G1 X134.536 Y117.323 E1.74651
G1 X134.213 Y117.566 E1.75996
G1 X133.226 Y118.228 E1.79948
G1 X132.892 Y118.428 E1.81243
G1 X131.763 Y119.028 E1.85496
G1 X131.41 Y119.193 E1.86792
G1 X130.349 Y119.624 E1.90601
G1 X129.989 Y119.749 E1.91868
G1 X128.738 Y120.116 E1.96204
G1 X128.356 Y120.207 E1.9751
G1 X127.088 Y120.439 E2.01798
G1 X126.723 Y120.484 E2.03021
G1 X125.722 Y120.56 E2.0636
G1 X125.109 Y120.569 E2.08399
G1 X124.57 Y120.553 E2.10192
G1 X124.036 Y120.538 E2.11969
G1 X123.406 Y120.486 E2.14072
G1 X123.268 Y120.471 E2.14533
G1 X122.475 Y120.367 E2.17194
G1 X122.106 Y120.3 E2.18441
G1 X120.957 Y120.032 E2.22365
G1 X120.601 Y119.93 E2.23597
G1 X119.314 Y119.494 E2.28116
G1 X118.923 Y119.337 E2.29518
G1 X117.822 Y118.822 E2.3356
G1 X117.463 Y118.63 E2.34915
G1 X116.507 Y118.051 E2.38632
G1 X116.195 Y117.84 E2.39885
G1 X115.165 Y117.067 E2.44168
G1 X114.845 Y116.798 E2.45558
G1 X113.959 Y115.966 E2.49601
G1 X113.707 Y115.706 E2.50805
G1 X112.919 Y114.81 E2.54774
G1 X112.679 Y114.507 E2.56059
G1 X111.962 Y113.502 E2.60165
G1 X111.741 Y113.154 E2.61537
G1 X111.155 Y112.109 E2.65521
G1 X110.916 Y111.618 E2.67338
G1 X110.524 Y110.733 E2.70557
G1 X110.375 Y110.341 E2.71952
G1 X110.005 Y109.172 E2.7603
G1 X109.974 Y109.052 E2.76442
G1 X109.803 Y108.515 E2.78317
G1 X109.643 Y107.748 E2.80923
G1 X109.467 Y106.014 E2.8672
G1 X109.448 Y105.63 E2.87998
G1 X109.448 Y104.52 E2.9169
G1 X109.465 Y104.159 E2.92892
G1 X109.594 Y102.808 E2.97406
G1 X109.655 Y102.403 E2.98768
G1 X109.882 Y101.3 E3.02514
G1 X109.986 Y100.904 E3.03876
G1 X110.404 Y99.602 E3.08424
G1 X110.542 Y99.238 E3.09719
G1 X110.999 Y98.196 E3.13503
G1 X111.258 Y97.706 E3.15346
G1 X111.451 Y97.397 E3.16558
G1 X111.758 Y96.831 E3.187
G1 X112.001 Y96.44 E3.20231
G1 X112.669 Y95.5 E3.24066
G1 X112.916 Y95.189 E3.25387
G0 F3600 X113.216 Y95.453
G1 F1800 X114.045 Y94.512 E3.29558
G1 X114.289 Y94.262 E3.3072
G1 X115.15 Y93.467 E3.34618
G1 X115.417 Y93.245 E3.35773
G1 X116.412 Y92.499 E3.39909
G1 X116.699 Y92.306 E3.4106
G1 X117.681 Y91.715 E3.44872
G1 X117.986 Y91.552 E3.46022
G1 X119.148 Y91.005 E3.50293
G1 X119.469 Y90.873 E3.51448
G1 X120.568 Y90.487 E3.55322
G1 X120.926 Y90.383 E3.56562
G1 X122.158 Y90.097 E3.60769
G1 X122.482 Y90.038 E3.61864
G1 X123.588 Y89.892 E3.65574
G1 X123.873 Y89.867 E3.66526
G1 X124.567 Y89.835 E3.68837
G1 X125.332 Y89.828 E3.71381
G1 X125.594 Y89.838 E3.72253
G1 X126.823 Y89.933 E3.76353
G1 X127.163 Y89.977 E3.77493
G1 X128.185 Y90.161 E3.80947
G1 X128.729 Y90.29 E3.82807
G1 X129.774 Y90.593 E3.86426
G1 X130.108 Y90.71 E3.87603
G1 X131.278 Y91.186 E3.91804
G1 X131.599 Y91.336 E3.92982
G1 X132.66 Y91.903 E3.96983
G1 X132.947 Y92.075 E3.98096
G1 X133.987 Y92.77 E4.02257
G1 X134.276 Y92.986 E4.03457
G1 X135.138 Y93.705 E4.0719
G1 X135.415 Y93.957 E4.08436
G1 X136.291 Y94.853 E4.12603
G1 X136.726 Y95.378 E4.14871
G1 X137.268 Y96.057 E4.17761
G1 X137.488 Y96.367 E4.19025
G1 X138.132 Y97.39 E4.23046
G1 X138.293 Y97.674 E4.24131
G1 X138.824 Y98.73 E4.28063
G1 X138.964 Y99.049 E4.29221
G1 X139.417 Y100.241 E4.33463
G1 X139.531 Y100.599 E4.34712
G1 X139.812 Y101.687 E4.3845
G1 X139.878 Y102.005 E4.3953
G1 X140.097 Y103.387 E4.44184
G1 X140.134 Y103.742 E4.45371
G1 X140.178 Y104.584 E4.48175
G1 X140.183 Y105.168 E4.50118
G1 X140.178 Y105.348 E4.50717
G1 X140.126 Y106.33 E4.53987
G1 X140.091 Y106.669 E4.55121
G1 X139.895 Y107.938 E4.59392
G1 X139.822 Y108.288 E4.60581
G1 X139.518 Y109.438 E4.64537
G1 X139.408 Y109.781 E4.65735
G1 X138.952 Y110.976 E4.69989
G1 X138.824 Y111.268 E4.7105
G1 X138.325 Y112.28 E4.74803
G1 X138.129 Y112.625 E4.76122
G1 X137.416 Y113.725 E4.80482
G1 X137.223 Y113.993 E4.81581
G1 X136.486 Y114.919 E4.85517
G1 X136.266 Y115.17 E4.86627
G1 X135.442 Y116.019 E4.90562
G1 X135.185 Y116.257 E4.91727
G1 X134.279 Y117.016 E4.95658
G1 X133.99 Y117.234 E4.96862
G1 X133.003 Y117.896 E5.00815
G1 X132.705 Y118.074 E5.0197
G1 X131.576 Y118.674 E5.06222
G1 X131.26 Y118.822 E5.07383
G1 X130.199 Y119.253 E5.11192
G1 X129.876 Y119.366 E5.1233
G1 X128.625 Y119.733 E5.16666
G1 X128.284 Y119.814 E5.17832
G1 X127.027 Y120.044 E5.22082
G1 X126.692 Y120.085 E5.23204
G1 X125.691 Y120.161 E5.26543
G1 X125.122 Y120.169 E5.28436
G1 X124.57 Y120.153 E5.30273
G1 X124.049 Y120.138 E5.32006
G1 X123.443 Y120.088 E5.34029
G1 X123.32 Y120.074 E5.3444
G1 X122.527 Y119.97 E5.37101
G1 X122.197 Y119.91 E5.38216
G1 X121.048 Y119.642 E5.4214
G1 X120.729 Y119.551 E5.43244
G1 X119.442 Y119.115 E5.47763
G1 X119.092 Y118.975 E5.49017
G1 X117.991 Y118.46 E5.5306
G1 X117.671 Y118.288 E5.54268
G1 X116.715 Y117.709 E5.57985
G1 X116.435 Y117.52 E5.59109
G1 X115.405 Y116.747 E5.63392
G1 X115.119 Y116.507 E5.64634
G1 X114.233 Y115.675 E5.68676
G1 X114.007 Y115.441 E5.69758
G1 X113.219 Y114.545 E5.73727
G1 X113.004 Y114.275 E5.74875
G1 X112.287 Y113.27 E5.78981
G1 X112.089 Y112.958 E5.8021
G1 X111.503 Y111.913 E5.84195
G1 X111.281 Y111.456 E5.85885
G1 X110.889 Y110.571 E5.89104
G1 X110.756 Y110.22 E5.90353
G1 X110.386 Y109.051 E5.94431
G1 X110.355 Y108.931 E5.94843
G1 X110.184 Y108.394 E5.96718
G1 X110.041 Y107.707 E5.99052
G1 X109.865 Y105.973 E6.04848
G1 X109.848 Y105.63 E6.05991
G1 X109.848 Y104.52 E6.09683
G1 X109.863 Y104.197 E6.10758
G1 X109.992 Y102.846 E6.15272
G1 X110.047 Y102.484 E6.1649
G1 X110.274 Y101.381 E6.20235
G1 X110.367 Y101.027 E6.21453
G1 X110.785 Y99.725 E6.26001
G1 X110.908 Y99.398 E6.27163
G1 X111.365 Y98.356 E6.30947
G1 X111.8 Y97.593 E6.33868
G1 X112.109 Y97.022 E6.36028
G1 X112.328 Y96.671 E6.37404
G1 X112.996 Y95.731 E6.41239
G1 X113.216 Y95.453 E6.42418
G0 F3600 X113.516 Y95.718
G1 F1800 X114.345 Y94.777 E6.46589
G1 X114.561 Y94.556 E6.47617
G1 X115.422 Y93.761 E6.51515
G1 X115.657 Y93.565 E6.52533
G1 X116.652 Y92.819 E6.56669
G1 X116.905 Y92.649 E6.57683
G1 X117.887 Y92.058 E6.61495
G1 X118.156 Y91.914 E6.6251
G1 X119.318 Y91.367 E6.66781
G1 X119.602 Y91.251 E6.67802
G1 X120.701 Y90.865 E6.71676
G1 X121.017 Y90.773 E6.72771
G1 X122.249 Y90.487 E6.76977
G1 X122.534 Y90.435 E6.77941
G1 X123.64 Y90.289 E6.81651
G1 X123.892 Y90.266 E6.82493
G1 X124.577 Y90.235 E6.84774
G1 X125.332 Y90.228 E6.87285
G1 X125.563 Y90.237 E6.88054
G1 X126.792 Y90.332 E6.92154
G1 X127.093 Y90.37 E6.93163
G1 X128.115 Y90.554 E6.96616
G1 X128.617 Y90.675 E6.98334
G1 X129.662 Y90.978 E7.01953
G1 X129.958 Y91.08 E7.02994
G1 X131.128 Y91.556 E7.07195
G1 X131.411 Y91.689 E7.08235
G1 X132.472 Y92.256 E7.12236
G1 X132.725 Y92.408 E7.13218
G1 X133.765 Y93.103 E7.17378
G1 X134.02 Y93.293 E7.18436
G1 X134.882 Y94.012 E7.2217
G1 X135.129 Y94.237 E7.23281
G1 X136.005 Y95.133 E7.27449
G1 X136.41 Y95.622 E7.2956
G1 X136.956 Y96.307 E7.32474
G1 X137.15 Y96.58 E7.33588
G1 X137.794 Y97.603 E7.37608
G1 X137.935 Y97.853 E7.38563
G1 X138.466 Y98.909 E7.42494
G1 X138.59 Y99.191 E7.43519
G1 X139.043 Y100.383 E7.4776
G1 X139.144 Y100.699 E7.48864
G1 X139.425 Y101.787 E7.52601
G1 X139.483 Y102.067 E7.53552
G1 X139.702 Y103.449 E7.58206
G1 X139.735 Y103.762 E7.59253
G1 X139.779 Y104.604 E7.62057
G1 X139.783 Y105.168 E7.63933
G1 X139.779 Y105.327 E7.64462
G1 X139.727 Y106.309 E7.67733
G1 X139.696 Y106.608 E7.68733
G1 X139.5 Y107.877 E7.73003
G1 X139.435 Y108.186 E7.74054
G1 X139.131 Y109.336 E7.7801
G1 X139.034 Y109.639 E7.79068
G1 X138.578 Y110.834 E7.83322
G1 X138.466 Y111.091 E7.84255
G1 X137.967 Y112.103 E7.88008
G1 X137.793 Y112.408 E7.89175
G1 X137.08 Y113.508 E7.93535
G1 X136.91 Y113.744 E7.94503
G1 X136.173 Y114.67 E7.98439
G1 X135.979 Y114.891 E7.99417
G1 X135.155 Y115.74 E8.03352
G1 X134.929 Y115.951 E8.04381
G1 X134.023 Y116.71 E8.08312
G1 X133.767 Y116.901 E8.09374
G1 X132.78 Y117.563 E8.13327
G1 X132.517 Y117.721 E8.14347
G1 X131.388 Y118.321 E8.186
G1 X131.109 Y118.451 E8.19623
G1 X130.048 Y118.882 E8.23432
G1 X129.764 Y118.982 E8.24434
G1 X128.513 Y119.349 E8.2877
G1 X128.211 Y119.42 E8.29802
G1 X126.965 Y119.649 E8.34015
G1 X126.662 Y119.686 E8.35031
G1 X125.661 Y119.762 E8.3837
G1 X125.134 Y119.77 E8.40123
G1 X124.57 Y119.753 E8.41999
G1 X124.061 Y119.739 E8.43693
G1 X123.481 Y119.69 E8.45629
G1 X123.372 Y119.678 E8.45994
G1 X122.579 Y119.574 E8.48654
G1 X122.288 Y119.521 E8.49638
G1 X121.139 Y119.253 E8.53562
G1 X120.857 Y119.172 E8.54538
G1 X119.57 Y118.736 E8.59057
G1 X119.262 Y118.612 E8.60161
G1 X118.161 Y118.097 E8.64204
G1 X117.878 Y117.946 E8.65271
G1 X116.922 Y117.367 E8.68988
G1 X116.675 Y117.2 E8.6998
G1 X115.645 Y116.427 E8.74263
G1 X115.392 Y116.215 E8.75361
G1 X114.506 Y115.383 E8.79404
G1 X114.307 Y115.177 E8.80356
G1 X113.519 Y114.281 E8.84325
G1 X113.33 Y114.042 E8.85338
G1 X112.613 Y113.037 E8.89444
G1 X112.438 Y112.762 E8.90529
G1 X111.852 Y111.717 E8.94513
G1 X111.647 Y111.294 E8.96077
G1 X111.255 Y110.409 E8.99296
G1 X111.138 Y110.099 E9.00398
G1 X110.768 Y108.93 E9.04477
G1 X110.739 Y108.82 E9.04855
G1 X110.565 Y108.273 E9.06764
G1 X110.439 Y107.667 E9.08823
G1 X110.263 Y105.933 E9.1462
G1 X110.248 Y105.63 E9.15629
G1 X110.248 Y104.52 E9.19321
G1 X110.262 Y104.235 E9.2027
G1 X110.391 Y102.884 E9.24783
G1 X110.439 Y102.564 E9.2586
G1 X110.666 Y101.461 E9.29605
G1 X110.748 Y101.149 E9.30678
G1 X111.166 Y99.847 E9.35226
G1 X111.275 Y99.559 E9.36251
G1 X111.732 Y98.517 E9.40035
G1 X112.142 Y97.801 E9.42779
G1 X112.461 Y97.212 E9.45007
G1 X112.654 Y96.903 E9.46219
G1 X113.322 Y95.963 E9.50054
G1 X113.516 Y95.718 E9.51094
G0 F3600 X113.816 Y95.982
G1 F1800 X114.645 Y95.041 E9.55265
G1 X114.832 Y94.85 E9.56154
G1 X115.693 Y94.055 E9.60052
G1 X115.897 Y93.885 E9.60935
G1 X116.892 Y93.139 E9.65071
G1 X117.111 Y92.991 E9.6595
G1 X118.093 Y92.4 E9.69762
G1 X118.327 Y92.276 E9.70643
G1 X119.489 Y91.729 E9.74915
G1 X119.734 Y91.628 E9.75796
G1 X120.833 Y91.242 E9.7967
G1 X121.107 Y91.162 E9.8062
G1 X122.339 Y90.876 E9.84826
G1 X122.587 Y90.831 E9.85664
G1 X123.693 Y90.685 E9.89375
G1 X123.911 Y90.666 E9.90103
G1 X124.587 Y90.635 E9.92354
G1 X125.332 Y90.628 E9.94832
G1 X125.532 Y90.636 E9.95497
G1 X126.761 Y90.731 E9.99597
G1 X127.022 Y90.764 E10.00472
G1 X128.044 Y90.948 E10.03926
G1 X128.506 Y91.059 E10.05506
G1 X129.551 Y91.362 E10.09125
G1 X129.807 Y91.451 E10.10027
G1 X130.977 Y91.927 E10.14228
G1 X131.222 Y92.042 E10.15128
G1 X132.283 Y92.609 E10.19129
G1 X132.503 Y92.74 E10.19981
G1 X133.543 Y93.435 E10.24141
G1 X133.763 Y93.6 E10.25056
G1 X134.625 Y94.319 E10.28789
G1 X134.843 Y94.516 E10.29766
G1 X135.719 Y95.412 E10.33934
G1 X136.098 Y95.873 E10.35919
G1 X136.643 Y96.556 E10.38825
G1 X136.811 Y96.793 E10.39792
G1 X137.455 Y97.816 E10.43812
G1 X137.578 Y98.033 E10.44642
G1 X138.109 Y99.089 E10.48573
G1 X138.216 Y99.333 E10.49459
G1 X138.669 Y100.525 E10.53701
G1 X138.756 Y100.799 E10.54657
G1 X139.037 Y101.887 E10.58394
G1 X139.088 Y102.13 E10.5922
G1 X139.307 Y103.512 E10.63874
G1 X139.335 Y103.783 E10.6478
G1 X139.379 Y104.625 E10.67584
G1 X139.383 Y105.168 E10.6939
G1 X139.379 Y105.305 E10.69846
G1 X139.327 Y106.287 E10.73117
G1 X139.301 Y106.547 E10.73986
G1 X139.105 Y107.816 E10.78257
G1 X139.049 Y108.083 E10.79164
G1 X138.745 Y109.233 E10.83121
G1 X138.66 Y109.496 E10.8404
G1 X138.204 Y110.691 E10.88294
G1 X138.107 Y110.914 E10.89103
G1 X137.608 Y111.926 E10.92856
G1 X137.458 Y112.19 E10.93866
G1 X136.745 Y113.29 E10.98225
G1 X136.597 Y113.495 E10.99066
G1 X135.86 Y114.421 E11.03003
G1 X135.692 Y114.613 E11.03851
G1 X134.868 Y115.462 E11.07786
G1 X134.672 Y115.644 E11.08676
G1 X133.766 Y116.403 E11.12607
G1 X133.544 Y116.569 E11.13529
G1 X132.557 Y117.231 E11.17482
G1 X132.329 Y117.368 E11.18367
G1 X131.2 Y117.968 E11.22619
G1 X130.959 Y118.081 E11.23504
G1 X129.898 Y118.512 E11.27313
G1 X129.651 Y118.598 E11.28183
G1 X128.4 Y118.965 E11.32519
G1 X128.139 Y119.027 E11.33412
G1 X126.904 Y119.253 E11.37587
G1 X126.632 Y119.288 E11.38499
G1 X125.631 Y119.364 E11.41838
G1 X125.147 Y119.37 E11.43448
G1 X124.57 Y119.353 E11.45368
G1 X123.911 Y119.329 E11.47562
G1 X123.424 Y119.281 E11.49189
G1 X122.631 Y119.177 E11.51849
G1 X122.378 Y119.131 E11.52705
G1 X121.229 Y118.863 E11.56629
G1 X120.986 Y118.794 E11.57469
G1 X119.699 Y118.358 E11.61988
G1 X119.431 Y118.25 E11.62949
G1 X118.33 Y117.735 E11.66992
G1 X118.085 Y117.604 E11.67916
G1 X117.129 Y117.025 E11.71634
G1 X116.915 Y116.881 E11.72492
G1 X115.885 Y116.108 E11.76775
G1 X115.666 Y115.923 E11.77728
G1 X114.78 Y115.091 E11.81771
G1 X114.608 Y114.913 E11.82594
G1 X113.82 Y114.017 E11.86563
G1 X113.655 Y113.81 E11.87443
G1 X112.938 Y112.805 E11.91549
G1 X112.787 Y112.567 E11.92487
G1 X112.201 Y111.522 E11.96472
G1 X112.013 Y111.132 E11.97912
G1 X111.621 Y110.247 E12.01131
G1 X111.519 Y109.979 E12.02085
G1 X111.149 Y108.81 E12.06163
G1 X111.121 Y108.702 E12.06534
G1 X110.946 Y108.152 E12.08454
G1 X110.837 Y107.627 E12.10237
G1 X110.661 Y105.893 E12.16034
G1 X110.648 Y105.63 E12.1691
G1 X110.648 Y104.52 E12.20602
G1 X110.66 Y104.273 E12.21424
G1 X110.789 Y102.922 E12.25938
G1 X110.83 Y102.645 E12.26869
G1 X111.057 Y101.542 E12.30615
G1 X111.128 Y101.271 E12.31547
G1 X111.546 Y99.969 E12.36095
G1 X111.641 Y99.72 E12.36981
G1 X112.098 Y98.678 E12.40766
G1 X112.489 Y98.001 E12.43366
G1 X112.813 Y97.403 E12.45628
G1 X112.98 Y97.135 E12.46678
G1 X113.648 Y96.195 E12.50514
G1 X113.816 Y95.982 E12.51416
G0 F3600 X114.116 Y96.247
G1 F1800 X114.945 Y95.306 E12.55587
G1 X115.104 Y95.144 E12.56342
G1 X115.965 Y94.349 E12.6024
G1 X116.137 Y94.205 E12.60986
G1 X117.132 Y93.459 E12.65122
G1 X117.318 Y93.334 E12.65868
