;FLAVOR:Marlin
;TIME:5178
;Filament used: 8.20312m
;Layer height: 0.3
;MINX:77.955
;MINY:52.316
;MINZ:0.2
;MAXX:172.045
;MAXY:157.684
;MAXZ:10.7
;Generated with Cura_SteamEngine 4.13.1
M82 ;absolute extrusion mode
G21 ; set units to millimeters
G90 ; use absolute positioning
M82 ; absolute extrusion mode
M104 S210 ; set extruder temp
M140 S60 ; set bed temp
M190 S60 ; wait for bed temp
M109 S210 ; wait for extruder temp
G28 W ; home all without mesh bed level
G80 ; mesh bed leveling
G92 E0.0 ; reset extruder distance position
G1 Y-3.0 F1000.0 ; go outside print area
G1 X60.0 E9.0 F1000.0 ; intro line
G1 X100.0 E21.5 F1000.0 ; intro line
G92 E0.0 ; reset extruder distance position
G92 E0
G92 E0
G1 F2100 E-0.8
;LAYER_COUNT:36
;LAYER:0
M107
G0 F3600 X80.8 Y76.718 Z0.2
;TYPE:SKIRT
G1 F2100 E0
G1 F1800 X81.469 Y76.065 E0.03109
G1 X81.858 Y75.733 E0.0481
G1 X82.584 Y75.194 E0.07818
G1 X83.026 Y74.911 E0.09563
G1 X83.84 Y74.466 E0.12649
G1 X84.306 Y74.251 E0.14356
G1 X85.177 Y73.918 E0.17457
G1 X85.682 Y73.764 E0.19213
G1 X86.582 Y73.557 E0.22285
G1 X87.09 Y73.476 E0.23996
G1 X88.003 Y73.393 E0.27045
G1 X88.524 Y73.381 E0.28778
G1 X89.447 Y73.424 E0.31852
G1 X89.966 Y73.484 E0.33589
G1 X90.873 Y73.653 E0.36658
G1 X91.358 Y73.777 E0.38323
G1 X92.217 Y74.058 E0.41329
G1 X92.708 Y74.258 E0.43092
G1 X93.553 Y74.672 E0.46222
G1 X93.781 Y74.793 E0.4708
G1 X97.592 Y76.994 E0.61718
G1 X98.639 Y75.99 E0.66543
G1 X98.809 Y75.837 E0.67303
G1 X100.438 Y74.452 E0.74415
G1 X100.616 Y74.309 E0.75174
G1 X102.325 Y73.025 E0.82284
G1 X102.514 Y72.892 E0.83053
G1 X104.301 Y71.712 E0.90175
G1 X104.496 Y71.592 E0.90937
G1 X106.333 Y70.532 E0.97991
G1 X106.542 Y70.417 E0.98784
G1 X108.456 Y69.464 E1.05896
G1 X108.661 Y69.37 E1.06646
G1 X110.629 Y68.532 E1.1376
G1 X110.84 Y68.449 E1.14514
G1 X112.84 Y67.735 E1.21577
G1 X113.06 Y67.664 E1.22346
G1 X114.45 Y67.261 E1.2716
G1 X114.451 Y62.83 E1.41897
G1 X114.46 Y62.564 E1.42783
G1 X114.524 Y61.656 E1.4581
G1 X114.595 Y61.149 E1.47513
G1 X114.783 Y60.245 E1.50584
G1 X114.925 Y59.74 E1.52329
G1 X115.232 Y58.881 E1.55363
G1 X115.439 Y58.405 E1.57089
G1 X115.869 Y57.579 E1.60186
G1 X116.131 Y57.149 E1.61861
G1 X116.646 Y56.416 E1.64841
G1 X116.979 Y56.006 E1.66598
G1 X117.624 Y55.316 E1.69739
G1 X118 Y54.965 E1.7145
G1 X118.712 Y54.385 E1.74504
G1 X119.141 Y54.082 E1.76251
G1 X119.919 Y53.61 E1.79278
G1 X120.375 Y53.374 E1.80986
G1 X121.226 Y53.004 E1.84072
G1 X121.724 Y52.828 E1.85829
G1 X122.62 Y52.579 E1.88922
G1 X123.122 Y52.475 E1.90627
G1 X124.029 Y52.351 E1.93672
G1 X124.548 Y52.316 E1.95402
G1 X125.472 Y52.317 E1.98475
G1 X125.985 Y52.352 E2.00185
G1 X126.88 Y52.475 E2.0319
G1 X127.39 Y52.582 E2.04923
G1 X128.298 Y52.837 E2.0806
G1 X128.783 Y53.009 E2.09772
G1 X129.62 Y53.372 E2.12806
G1 X130.08 Y53.609 E2.14527
G1 X130.861 Y54.083 E2.17566
G1 X131.286 Y54.383 E2.19296
G1 X131.996 Y54.96 E2.22339
G1 X132.374 Y55.313 E2.24059
G1 X133.01 Y55.993 E2.27156
G1 X133.34 Y56.398 E2.28893
G1 X133.863 Y57.139 E2.3191
G1 X134.131 Y57.58 E2.33626
G1 X134.568 Y58.422 E2.36782
G1 X134.776 Y58.901 E2.38518
G1 X135.081 Y59.76 E2.4155
G1 X135.221 Y60.262 E2.43284
G1 X135.408 Y61.167 E2.46357
G1 X135.478 Y61.676 E2.48066
G1 X135.541 Y62.593 E2.51123
G1 X135.55 Y62.853 E2.51989
G1 X135.55 Y67.26 E2.66646
G1 X136.946 Y67.666 E2.71482
G1 X137.165 Y67.737 E2.72247
G1 X139.19 Y68.461 E2.794
G1 X139.404 Y68.545 E2.80165
G1 X141.377 Y69.388 E2.87301
G1 X141.579 Y69.481 E2.88041
G1 X143.457 Y70.417 E2.9502
G1 X143.667 Y70.532 E2.95816
G1 X145.531 Y71.609 E3.02976
G1 X145.723 Y71.728 E3.03727
G1 X147.488 Y72.893 E3.10761
G1 X147.681 Y73.029 E3.11547
G1 X149.408 Y74.33 E3.18738
G1 X149.582 Y74.469 E3.19479
G1 X151.198 Y75.842 E3.26532
G1 X151.375 Y76.004 E3.2733
G1 X152.407 Y76.996 E3.32091
G1 X156.245 Y74.78 E3.46831
G1 X156.474 Y74.658 E3.47694
G1 X157.291 Y74.258 E3.5072
G1 X157.782 Y74.059 E3.52482
G1 X158.642 Y73.778 E3.55491
G1 X159.123 Y73.655 E3.57142
G1 X160.031 Y73.485 E3.60215
G1 X160.556 Y73.424 E3.61973
G1 X161.492 Y73.381 E3.65089
G1 X162.015 Y73.393 E3.66829
G1 X162.915 Y73.476 E3.69835
G1 X163.422 Y73.558 E3.71543
G1 X164.335 Y73.769 E3.7466
G1 X164.841 Y73.924 E3.7642
G1 X165.695 Y74.252 E3.79463
G1 X166.151 Y74.462 E3.81133
G1 X166.966 Y74.906 E3.8422
G1 X167.41 Y75.189 E3.85971
G1 X168.139 Y75.729 E3.88988
G1 X168.535 Y76.068 E3.90722
G1 X169.201 Y76.72 E3.93822
G1 X169.547 Y77.107 E3.95548
G1 X170.115 Y77.84 E3.98633
G1 X170.406 Y78.276 E4.00376
G1 X170.862 Y79.07 E4.03422
G1 X171.084 Y79.523 E4.05099
G1 X171.427 Y80.361 E4.08111
G1 X171.591 Y80.858 E4.09852
G1 X171.823 Y81.765 E4.12966
G1 X171.918 Y82.28 E4.14707
G1 X172.022 Y83.199 E4.17784
G1 X172.045 Y83.717 E4.19508
G1 X172.023 Y84.639 E4.22576
G1 X171.975 Y85.156 E4.24303
G1 X171.828 Y86.063 E4.27359
G1 X171.713 Y86.56 E4.29055
G1 X171.451 Y87.422 E4.32052
G1 X171.268 Y87.905 E4.3377
G1 X170.879 Y88.751 E4.36867
G1 X170.628 Y89.209 E4.38604
G1 X170.136 Y89.979 E4.41643
G1 X169.826 Y90.398 E4.43377
G1 X169.214 Y91.116 E4.46514
G1 X168.854 Y91.484 E4.48227
G1 X168.185 Y92.082 E4.51211
G1 X167.775 Y92.401 E4.52939
G1 X166.992 Y92.928 E4.56078
G1 X166.77 Y93.067 E4.56949
G1 X162.958 Y95.267 E4.71588
G1 X163.306 Y96.687 E4.76451
G1 X163.353 Y96.909 E4.77205
G1 X163.736 Y99.009 E4.84305
G1 X163.77 Y99.234 E4.85062
G1 X164.027 Y101.355 E4.92168
G1 X164.048 Y101.583 E4.9293
G1 X164.177 Y103.718 E5.00044
G1 X164.184 Y103.947 E5.00806
G1 X164.184 Y106.076 E5.07887
G1 X164.177 Y106.305 E5.08649
G1 X164.05 Y108.41 E5.15663
G1 X164.029 Y108.642 E5.16438
G1 X163.766 Y110.796 E5.23655
G1 X163.732 Y111.017 E5.24399
G1 X163.348 Y113.121 E5.31512
G1 X163.3 Y113.347 E5.32281
G1 X162.959 Y114.733 E5.37028
G1 X166.774 Y116.936 E5.5168
G1 X166.995 Y117.074 E5.52547
G1 X167.771 Y117.596 E5.55658
G1 X168.181 Y117.915 E5.57385
G1 X168.864 Y118.525 E5.60431
G1 X169.231 Y118.901 E5.62179
G1 X169.829 Y119.606 E5.65254
G1 X170.131 Y120.015 E5.66945
G1 X170.626 Y120.788 E5.69998
G1 X170.879 Y121.25 E5.71749
G1 X171.267 Y122.094 E5.74839
G1 X171.45 Y122.578 E5.7656
G1 X171.716 Y123.455 E5.79608
G1 X171.832 Y123.958 E5.81325
G1 X171.977 Y124.865 E5.8438
G1 X172.024 Y125.383 E5.8611
G1 X172.044 Y126.305 E5.89177
G1 X172.021 Y126.816 E5.90879
G1 X171.918 Y127.722 E5.93911
G1 X171.823 Y128.238 E5.95657
G1 X171.591 Y129.142 E5.98761
G1 X171.428 Y129.635 E6.00488
G1 X171.079 Y130.489 E6.03556
G1 X170.854 Y130.948 E6.05256
G1 X170.404 Y131.729 E6.08254
G1 X170.118 Y132.156 E6.09964
G1 X169.553 Y132.887 E6.13037
G1 X169.2 Y133.282 E6.14798
G1 X168.531 Y133.935 E6.17908
G1 X168.142 Y134.267 E6.19609
G1 X167.416 Y134.806 E6.22616
G1 X166.974 Y135.089 E6.24362
G1 X166.16 Y135.534 E6.27447
G1 X165.694 Y135.749 E6.29154
G1 X164.823 Y136.082 E6.32256
G1 X164.318 Y136.236 E6.34012
G1 X163.418 Y136.443 E6.37083
G1 X162.91 Y136.524 E6.38794
G1 X161.997 Y136.607 E6.41843
G1 X161.476 Y136.619 E6.43577
G1 X160.553 Y136.576 E6.4665
G1 X160.034 Y136.516 E6.48388
G1 X159.127 Y136.347 E6.51456
G1 X158.642 Y136.223 E6.53121
G1 X157.783 Y135.942 E6.56127
G1 X157.292 Y135.742 E6.57891
G1 X156.447 Y135.328 E6.6102
G1 X156.219 Y135.207 E6.61879
G1 X152.408 Y133.006 E6.76516
G1 X151.361 Y134.01 E6.81341
G1 X151.191 Y134.163 E6.82102
G1 X149.562 Y135.548 E6.89213
G1 X149.384 Y135.691 E6.89973
G1 X147.679 Y136.972 E6.97066
G1 X147.49 Y137.105 E6.97835
G1 X145.702 Y138.286 E7.04962
G1 X145.508 Y138.406 E7.0572
G1 X143.67 Y139.467 E7.12779
G1 X143.46 Y139.582 E7.13575
G1 X141.544 Y140.536 E7.20694
G1 X141.339 Y140.63 E7.21444
G1 X139.372 Y141.468 E7.28556
G1 X139.16 Y141.551 E7.29313
G1 X137.159 Y142.265 E7.36379
G1 X136.94 Y142.336 E7.37145
G1 X135.55 Y142.739 E7.41958
G1 X135.549 Y147.17 E7.56696
G1 X135.54 Y147.436 E7.57581
G1 X135.476 Y148.344 E7.60609
G1 X135.405 Y148.851 E7.62312
G1 X135.217 Y149.755 E7.65383
G1 X135.075 Y150.26 E7.67127
G1 X134.768 Y151.119 E7.70161
G1 X134.561 Y151.595 E7.71888
G1 X134.131 Y152.421 E7.74985
G1 X133.869 Y152.851 E7.7666
G1 X133.354 Y153.584 E7.79639
G1 X133.021 Y153.994 E7.81396
G1 X132.376 Y154.684 E7.84538
G1 X132 Y155.035 E7.86248
G1 X131.288 Y155.615 E7.89303
G1 X130.859 Y155.918 E7.9105
G1 X130.081 Y156.39 E7.94076
G1 X129.625 Y156.626 E7.95784
G1 X128.774 Y156.996 E7.9887
G1 X128.276 Y157.172 E8.00627
G1 X127.38 Y157.421 E8.0372
G1 X126.878 Y157.525 E8.05425
G1 X125.971 Y157.649 E8.0847
G1 X125.452 Y157.684 E8.102
G1 X124.528 Y157.683 E8.13273
G1 X124.015 Y157.648 E8.14984
G1 X123.12 Y157.525 E8.17988
G1 X122.61 Y157.418 E8.19722
G1 X121.702 Y157.163 E8.22858
G1 X121.217 Y156.991 E8.2457
G1 X120.378 Y156.627 E8.27612
G1 X119.918 Y156.389 E8.29334
G1 X119.139 Y155.916 E8.32366
G1 X118.714 Y155.616 E8.34096
G1 X118.002 Y155.037 E8.37148
G1 X117.621 Y154.682 E8.3888
G1 X116.977 Y153.992 E8.42019
G1 X116.647 Y153.586 E8.4376
G1 X116.132 Y152.854 E8.46736
G1 X115.866 Y152.416 E8.48441
G1 X115.431 Y151.577 E8.51584
G1 X115.224 Y151.099 E8.53317
G1 X114.919 Y150.24 E8.56348
G1 X114.778 Y149.737 E8.58086
G1 X114.591 Y148.831 E8.61163
G1 X114.522 Y148.324 E8.62865
G1 X114.459 Y147.408 E8.65918
G1 X114.45 Y147.147 E8.66787
G1 X114.45 Y142.74 E8.81445
G1 X113.054 Y142.334 E8.8628
G1 X112.835 Y142.263 E8.87046
G1 X110.81 Y141.539 E8.94199
G1 X110.596 Y141.455 E8.94963
G1 X108.623 Y140.612 E9.021
G1 X108.421 Y140.519 E9.02839
G1 X106.543 Y139.583 E9.09818
G1 X106.333 Y139.468 E9.10615
G1 X104.466 Y138.389 E9.17787
G1 X104.274 Y138.27 E9.18538
G1 X102.509 Y137.105 E9.25572
G1 X102.315 Y136.969 E9.2636
G1 X100.59 Y135.669 E9.33544
G1 X100.416 Y135.53 E9.34285
G1 X98.798 Y134.155 E9.41347
G1 X98.622 Y133.993 E9.42143
G1 X97.593 Y133.004 E9.4689
G1 X93.755 Y135.22 E9.6163
G1 X93.526 Y135.342 E9.62493
G1 X92.709 Y135.742 E9.65518
G1 X92.218 Y135.941 E9.67281
G1 X91.358 Y136.222 E9.7029
G1 X90.877 Y136.345 E9.71941
G1 X89.969 Y136.515 E9.75013
G1 X89.444 Y136.576 E9.76771
G1 X88.508 Y136.619 E9.79888
G1 X87.985 Y136.607 E9.81628
G1 X87.085 Y136.524 E9.84634
G1 X86.578 Y136.442 E9.86342
G1 X85.665 Y136.231 E9.89459
G1 X85.159 Y136.076 E9.91219
G1 X84.305 Y135.748 E9.94262
G1 X83.849 Y135.538 E9.95931
G1 X83.034 Y135.094 E9.99018
G1 X82.59 Y134.811 E10.0077
G1 X81.861 Y134.271 E10.03787
G1 X81.465 Y133.932 E10.05521
G1 X80.797 Y133.278 E10.0863
G1 X80.45 Y132.889 E10.10364
G1 X79.884 Y132.158 E10.13439
G1 X79.594 Y131.724 E10.15175
G1 X79.138 Y130.93 E10.1822
G1 X78.914 Y130.471 E10.19919
G1 X78.567 Y129.619 E10.22979
G1 X78.404 Y129.126 E10.24706
G1 X78.176 Y128.233 E10.27771
G1 X78.082 Y127.72 E10.29506
G1 X77.978 Y126.801 E10.32582
G1 X77.955 Y126.283 E10.34307
G1 X77.977 Y125.361 E10.37374
G1 X78.025 Y124.844 E10.39101
G1 X78.172 Y123.937 E10.42157
G1 X78.287 Y123.44 E10.43854
G1 X78.549 Y122.578 E10.4685
G1 X78.732 Y122.095 E10.48568
G1 X79.121 Y121.249 E10.51665
G1 X79.372 Y120.791 E10.53402
G1 X79.864 Y120.021 E10.56441
G1 X80.174 Y119.602 E10.58175
G1 X80.786 Y118.884 E10.61313
G1 X81.146 Y118.516 E10.63025
G1 X81.815 Y117.918 E10.6601
G1 X82.226 Y117.598 E10.67742
G1 X83.011 Y117.07 E10.70889
G1 X83.232 Y116.932 E10.71755
G1 X87.042 Y114.733 E10.86386
G1 X86.694 Y113.313 E10.91249
G1 X86.646 Y113.09 E10.92008
G1 X86.263 Y110.987 E10.99118
G1 X86.23 Y110.763 E10.99871
G1 X85.972 Y108.633 E11.07007
G1 X85.951 Y108.405 E11.07768
G1 X85.823 Y106.282 E11.14842
G1 X85.816 Y106.053 E11.15604
G1 X85.816 Y103.924 E11.22685
G1 X85.823 Y103.695 E11.23447
G1 X85.95 Y101.59 E11.30461
G1 X85.971 Y101.359 E11.31233
G1 X86.234 Y99.202 E11.3846
G1 X86.268 Y98.979 E11.3921
G1 X86.652 Y96.878 E11.46314
G1 X86.701 Y96.651 E11.47087
G1 X87.042 Y95.267 E11.51827
G1 X83.224 Y93.063 E11.6649
G1 X83.001 Y92.924 E11.67364
G1 X82.226 Y92.402 E11.70472
G1 X81.818 Y92.084 E11.72192
G1 X81.135 Y91.474 E11.75238
G1 X80.768 Y91.098 E11.76986
G1 X80.171 Y90.394 E11.80056
G1 X79.869 Y89.985 E11.81747
G1 X79.374 Y89.212 E11.848
G1 X79.121 Y88.751 E11.86549
G1 X78.732 Y87.905 E11.89646
G1 X78.548 Y87.418 E11.91377
G1 X78.283 Y86.543 E11.94418
G1 X78.168 Y86.042 E11.96128
G1 X78.023 Y85.135 E11.99183
G1 X77.976 Y84.617 E12.00913
G1 X77.956 Y83.695 E12.0398
G1 X77.979 Y83.184 E12.05681
G1 X78.082 Y82.277 E12.08718
G1 X78.178 Y81.76 E12.10466
G1 X78.41 Y80.857 E12.13567
G1 X78.572 Y80.365 E12.1529
G1 X78.921 Y79.511 E12.18359
G1 X79.146 Y79.052 E12.20059
G1 X79.596 Y78.271 E12.23057
G1 X79.882 Y77.844 E12.24766
G1 X80.447 Y77.113 E12.27839
G1 X80.8 Y76.718 E12.29601
G0 F3600 X81.079 Y77.004
G1 F1800 X81.748 Y76.351 E12.3271
G1 X82.096 Y76.054 E12.34232
G1 X82.822 Y75.515 E12.37239
G1 X83.218 Y75.262 E12.38802
G1 X84.032 Y74.817 E12.41888
G1 X84.449 Y74.624 E12.43416
G1 X85.32 Y74.291 E12.46518
G1 X85.772 Y74.154 E12.48089
G1 X86.672 Y73.947 E12.5116
G1 X87.126 Y73.874 E12.5269
G1 X88.039 Y73.791 E12.55739
G1 X88.505 Y73.781 E12.57289
G1 X89.428 Y73.824 E12.60362
G1 X89.893 Y73.878 E12.61919
G1 X90.8 Y74.047 E12.64988
G1 X91.234 Y74.158 E12.66478
G1 X92.093 Y74.439 E12.69484
G1 X92.532 Y74.617 E12.71059
G1 X93.377 Y75.031 E12.74189
G1 X93.581 Y75.14 E12.74958
G1 X97.653 Y77.491 E12.90597
G1 X98.916 Y76.279 E12.96419
G1 X99.068 Y76.142 E12.971
G1 X100.697 Y74.757 E13.04211
G1 X100.857 Y74.629 E13.04893
G1 X102.566 Y73.345 E13.12003
G1 X102.734 Y73.226 E13.12687
G1 X104.521 Y72.046 E13.1981
G1 X104.696 Y71.938 E13.20494
G1 X106.533 Y70.878 E13.27548
G1 X106.721 Y70.775 E13.28261
G1 X108.635 Y69.822 E13.35372
G1 X108.818 Y69.738 E13.36042
G1 X110.786 Y68.9 E13.43156
G1 X110.975 Y68.826 E13.43831
G1 X112.975 Y68.112 E13.50895
G1 X113.172 Y68.048 E13.51584
G1 X114.85 Y67.562 E13.57394
G1 X114.851 Y62.831 E13.73129
G1 X114.859 Y62.592 E13.73925
G1 X114.923 Y61.684 E13.76952
G1 X114.986 Y61.231 E13.78473
G1 X115.174 Y60.327 E13.81545
G1 X115.301 Y59.875 E13.83106
G1 X115.608 Y59.016 E13.8614
G1 X115.794 Y58.59 E13.87686
G1 X116.224 Y57.764 E13.90783
G1 X116.458 Y57.379 E13.92282
G1 X116.973 Y56.646 E13.95261
G1 X117.271 Y56.279 E13.96834
G1 X117.916 Y55.589 E13.99975
G1 X118.253 Y55.275 E14.01507
G1 X118.965 Y54.695 E14.04562
G1 X119.348 Y54.424 E14.06122
G1 X120.126 Y53.952 E14.09149
G1 X120.534 Y53.741 E14.10677
G1 X121.385 Y53.371 E14.13763
G1 X121.831 Y53.213 E14.15337
G1 X122.727 Y52.964 E14.1843
G1 X123.176 Y52.871 E14.19955
G1 X124.083 Y52.747 E14.23
G1 X124.548 Y52.716 E14.2455
G1 X125.472 Y52.717 E14.27623
G1 X125.931 Y52.749 E14.29153
G1 X126.826 Y52.872 E14.32158
G1 X127.282 Y52.967 E14.33707
G1 X128.19 Y53.222 E14.36844
G1 X128.624 Y53.376 E14.38376
G1 X129.461 Y53.739 E14.4141
G1 X129.872 Y53.951 E14.42948
G1 X130.653 Y54.425 E14.45987
G1 X131.033 Y54.693 E14.47533
G1 X131.743 Y55.27 E14.50576
G1 X132.082 Y55.587 E14.5212
G1 X132.718 Y56.267 E14.55217
G1 X133.013 Y56.628 E14.56767
G1 X133.536 Y57.369 E14.59784
G1 X133.776 Y57.764 E14.61321
G1 X134.213 Y58.606 E14.64477
G1 X134.399 Y59.034 E14.66029
G1 X134.704 Y59.893 E14.69061
G1 X134.83 Y60.343 E14.70615
G1 X135.017 Y61.248 E14.73688
G1 X135.079 Y61.703 E14.75216
G1 X135.142 Y62.62 E14.78273
G1 X135.15 Y62.853 E14.79048
G1 X135.15 Y67.56 E14.94704
G1 X136.835 Y68.05 E15.0054
G1 X137.031 Y68.113 E15.01225
G1 X139.056 Y68.837 E15.08378
G1 X139.247 Y68.912 E15.0906
G1 X141.22 Y69.755 E15.16196
G1 X141.401 Y69.839 E15.1686
G1 X143.279 Y70.775 E15.23839
G1 X143.467 Y70.878 E15.24552
G1 X145.331 Y71.955 E15.31712
G1 X145.503 Y72.061 E15.32384
G1 X147.268 Y73.226 E15.39418
G1 X147.441 Y73.348 E15.40122
G1 X149.168 Y74.649 E15.47314
G1 X149.323 Y74.774 E15.47976
G1 X150.939 Y76.147 E15.55029
G1 X151.098 Y76.293 E15.55747
G1 X152.346 Y77.492 E15.61503
G1 X156.445 Y75.126 E15.77244
G1 X156.65 Y75.017 E15.78017
G1 X157.467 Y74.617 E15.81042
G1 X157.906 Y74.439 E15.82618
G1 X158.766 Y74.158 E15.85627
G1 X159.196 Y74.048 E15.87103
G1 X160.104 Y73.878 E15.90176
G1 X160.574 Y73.824 E15.91749
G1 X161.51 Y73.781 E15.94866
G1 X161.978 Y73.791 E15.96423
G1 X162.878 Y73.874 E15.99429
G1 X163.332 Y73.947 E16.00958
G1 X164.245 Y74.158 E16.04075
G1 X164.698 Y74.297 E16.05651
G1 X165.552 Y74.625 E16.08694
G1 X165.96 Y74.813 E16.10188
G1 X166.775 Y75.257 E16.13275
G1 X167.172 Y75.511 E16.14842
G1 X167.901 Y76.051 E16.1786
G1 X168.255 Y76.353 E16.19407
