;FLAVOR:Marlin
;TIME:4062
;Filament used: 5.68058m
;Layer height: 0.3
;MINX:106.709
;MINY:86.704
;MINZ:0.2
;MAXX:143.295
;MAXY:123.297
;MAXZ:58.7
;Generated with Cura_SteamEngine 5.2.1
M82 ;absolute extrusion mode
G21 ; set units to millimeters
G90 ; use absolute positioning
M82 ; absolute extrusion mode
M104 S210.0 ; set extruder temp
M140 S60 ; set bed temp
M190 S60 ; wait for bed temp
M109 S210.0 ; wait for extruder temp
G28 W ; home all without mesh bed level
G80 ; mesh bed leveling
G92 E0.0 ; reset extruder distance position
G1 Y-3.0 F1000.0 ; go outside print area
G1 X60.0 E9.0 F1000.0 ; intro line
G1 X100.0 E21.5 F1000.0 ; intro line
G92 E0.0 ; reset extruder distance position
G92 E0
G92 E0
G1 F2100 E-0.8
;LAYER_COUNT:196
;LAYER:0
M107
G0 F3600 X119.806 Y101.089 Z0.2
;TYPE:SKIRT
G1 F2100 E0
G1 F1800 X119.245 Y101.975 E0.03488
G1 X118.834 Y102.937 E0.06967
G1 X118.584 Y103.955 E0.10454
G1 X118.501 Y104.989 E0.13904
G1 X118.584 Y106.044 E0.17424
G1 X118.831 Y107.051 E0.20872
G1 X119.247 Y108.028 E0.24404
G1 X119.796 Y108.896 E0.2782
G1 X120.5 Y109.694 E0.31359
G1 X121.312 Y110.358 E0.34848
G1 X122.216 Y110.879 E0.38319
G1 X123.187 Y111.248 E0.41773
G1 X124.207 Y111.459 E0.45238
G1 X125.263 Y111.503 E0.48753
G1 X126.302 Y111.377 E0.52234
G1 X127.311 Y111.087 E0.55726
G1 X128.266 Y110.634 E0.59242
G1 X129.121 Y110.043 E0.62699
G1 X129.872 Y109.322 E0.66161
G1 X130.501 Y108.488 E0.69636
G1 X130.99 Y107.562 E0.73118
G1 X131.323 Y106.568 E0.76605
G1 X131.494 Y105.539 E0.80075
G1 X131.495 Y104.48 E0.83597
G1 X131.325 Y103.439 E0.87105
G1 X130.995 Y102.453 E0.90563
G1 X130.508 Y101.521 E0.94061
G1 X129.88 Y100.684 E0.97541
G1 X129.122 Y99.958 E1.01032
G1 X128.268 Y99.367 E1.04486
G1 X127.322 Y98.918 E1.07969
G1 X126.31 Y98.623 E1.11475
G1 X125.275 Y98.497 E1.14943
G1 X124.217 Y98.54 E1.18465
G1 X123.203 Y98.747 E1.21907
G1 X122.212 Y99.122 E1.25431
G1 X121.322 Y99.636 E1.2885
G1 X120.499 Y100.306 E1.32379
G1 X119.806 Y101.089 E1.35857
G0 F3600 X120.129 Y101.329
G1 F1800 X119.599 Y102.164 E1.39146
G1 X119.216 Y103.061 E1.4239
G1 X118.98 Y104.022 E1.45682
G1 X118.902 Y104.996 E1.48932
G1 X118.979 Y105.978 E1.52208
G1 X119.211 Y106.922 E1.55441
G1 X119.602 Y107.841 E1.58763
G1 X120.118 Y108.658 E1.61977
G1 X120.777 Y109.403 E1.65285
G1 X121.538 Y110.026 E1.68556
G1 X122.391 Y110.517 E1.71829
G1 X123.297 Y110.862 E1.75054
G1 X124.262 Y111.061 E1.78331
G1 X125.243 Y111.103 E1.81597
G1 X126.217 Y110.985 E1.8486
G1 X127.174 Y110.71 E1.88172
G1 X128.063 Y110.288 E1.91445
G1 X128.866 Y109.732 E1.94693
G1 X129.574 Y109.054 E1.97954
G1 X130.161 Y108.276 E2.01195
G1 X130.623 Y107.4 E2.04489
G1 X130.932 Y106.475 E2.07733
G1 X131.094 Y105.503 E2.11011
G1 X131.095 Y104.507 E2.14323
G1 X130.937 Y103.539 E2.17585
G1 X130.626 Y102.608 E2.2085
G1 X130.17 Y101.737 E2.2412
G1 X129.58 Y100.952 E2.27386
G1 X128.868 Y100.269 E2.30668
G1 X128.063 Y99.712 E2.33924
G1 X127.182 Y99.294 E2.37167
G1 X126.23 Y99.017 E2.40465
G1 X125.255 Y98.897 E2.43732
G1 X124.27 Y98.938 E2.47011
G1 X123.312 Y99.133 E2.50263
G1 X122.391 Y99.482 E2.53538
G1 X121.542 Y99.972 E2.56799
G1 X120.78 Y100.593 E2.60068
G1 X120.129 Y101.329 E2.63336
G0 F3600 X120.448 Y101.571
G1 F1800 X119.956 Y102.346 E2.6639
G1 X119.595 Y103.192 E2.69449
G1 X119.375 Y104.087 E2.72514
G1 X119.303 Y104.99 E2.75527
G1 X119.375 Y105.913 E2.78606
G1 X119.593 Y106.797 E2.81635
G1 X119.955 Y107.65 E2.84717
G1 X120.444 Y108.424 E2.87762
G1 X121.052 Y109.112 E2.90816
G1 X121.764 Y109.694 E2.93874
G1 X122.566 Y110.156 E2.96953
G1 X123.408 Y110.476 E2.99949
G1 X124.31 Y110.663 E3.03012
G1 X125.231 Y110.702 E3.06078
G1 X126.14 Y110.591 E3.09124
G1 X127.027 Y110.336 E3.12194
G1 X127.865 Y109.938 E3.15279
G1 X128.613 Y109.421 E3.18304
G1 X129.27 Y108.792 E3.21329
G1 X129.824 Y108.057 E3.2439
G1 X130.252 Y107.246 E3.2744
G1 X130.545 Y106.37 E3.30512
G1 X130.694 Y105.473 E3.33537
G1 X130.695 Y104.541 E3.36637
G1 X130.547 Y103.637 E3.39683
G1 X130.255 Y102.761 E3.42755
G1 X129.831 Y101.952 E3.45792
G1 X129.279 Y101.216 E3.48852
G1 X128.617 Y100.582 E3.51901
G1 X127.859 Y100.058 E3.54966
G1 X127.041 Y99.67 E3.57977
G1 X126.149 Y99.41 E3.61067
G1 X125.241 Y99.299 E3.6411
G1 X124.316 Y99.336 E3.67189
G1 X123.424 Y99.519 E3.70218
G1 X122.561 Y99.845 E3.73286
G1 X121.777 Y100.298 E3.76297
G1 X121.052 Y100.888 E3.79406
G1 X120.448 Y101.571 E3.82439
G0 F3600 X120.768 Y101.814
G1 F1800 X120.312 Y102.533 E3.85271
G1 X119.975 Y103.321 E3.88121
G1 X119.772 Y104.147 E3.9095
G1 X119.704 Y104.991 E3.93767
G1 X119.772 Y105.852 E3.96639
G1 X119.973 Y106.67 E3.99441
G1 X120.311 Y107.465 E4.02314
G1 X120.762 Y108.179 E4.05123
G1 X121.334 Y108.827 E4.07998
G1 X121.993 Y109.365 E4.10827
G1 X122.732 Y109.791 E4.13664
G1 X123.525 Y110.092 E4.16485
G1 X124.353 Y110.264 E4.19298
G1 X125.218 Y110.3 E4.22178
G1 X126.061 Y110.198 E4.25002
G1 X126.884 Y109.961 E4.2785
G1 X127.662 Y109.592 E4.30714
G1 X128.359 Y109.11 E4.33533
G1 X128.972 Y108.523 E4.36356
G1 X129.487 Y107.84 E4.39201
G1 X129.883 Y107.09 E4.42022
G1 X130.154 Y106.278 E4.44869
G1 X130.294 Y105.437 E4.47705
G1 X130.295 Y104.574 E4.50575
G1 X130.157 Y103.731 E4.53416
G1 X129.888 Y102.924 E4.56245
G1 X129.489 Y102.162 E4.59106
G1 X128.979 Y101.484 E4.61928
G1 X128.36 Y100.891 E4.64779
G1 X127.662 Y100.407 E4.67604
G1 X126.896 Y100.044 E4.70423
G1 X126.067 Y99.803 E4.73295
G1 X125.227 Y99.7 E4.7611
G1 X124.364 Y99.735 E4.78982
G1 X123.535 Y99.904 E4.81796
G1 X122.731 Y100.209 E4.84656
G1 X122.004 Y100.629 E4.87449
G1 X121.334 Y101.174 E4.90322
G1 X120.768 Y101.814 E4.93163
G0 F3600 X121.099 Y102.042
G1 F1800 X120.675 Y102.707 E4.95786
G1 X120.363 Y103.432 E4.98411
G1 X120.172 Y104.198 E5.01037
G1 X120.107 Y104.976 E5.03634
G1 X120.172 Y105.802 E5.0639
G1 X120.361 Y106.56 E5.08988
G1 X120.675 Y107.292 E5.11637
G1 X121.075 Y107.925 E5.14128
G1 X121.623 Y108.546 E5.16882
G1 X122.209 Y109.025 E5.194
G1 X122.921 Y109.435 E5.22132
G1 X123.621 Y109.701 E5.24623
G1 X124.424 Y109.867 E5.2735
G1 X125.213 Y109.898 E5.29976
G1 X125.965 Y109.807 E5.32496
G1 X126.76 Y109.578 E5.35248
G1 X127.473 Y109.237 E5.37876
G1 X128.095 Y108.807 E5.40391
G1 X128.682 Y108.243 E5.43099
G1 X129.137 Y107.64 E5.45611
G1 X129.52 Y106.914 E5.48341
G1 X129.76 Y106.197 E5.50856
G1 X129.894 Y105.387 E5.53587
G1 X129.895 Y104.622 E5.56131
G1 X129.763 Y103.812 E5.58861
G1 X129.523 Y103.094 E5.61379
G1 X129.142 Y102.367 E5.64109
G1 X128.688 Y101.762 E5.66625
G1 X128.095 Y101.194 E5.69356
G1 X127.446 Y100.747 E5.71977
G1 X126.769 Y100.426 E5.74469
G1 X125.973 Y100.194 E5.77226
G1 X125.221 Y100.102 E5.79746
G1 X124.432 Y100.132 E5.82372
G1 X123.629 Y100.296 E5.85098
G1 X122.921 Y100.564 E5.87616
G1 X122.243 Y100.953 E5.90216
G1 X121.601 Y101.475 E5.92968
G1 X121.099 Y102.042 E5.95487
G1 F2100 E5.15487
G0 F3600 X111.663 Y95.647
G1 F2100 E5.95487
G1 F1800 X112.43 Y94.631 E5.99721
G1 X113.226 Y93.734 E6.0371
G1 X114.147 Y92.848 E6.0796
G1 X115.103 Y92.053 E6.12096
G1 X116.093 Y91.35 E6.16134
G1 X117.152 Y90.721 E6.20231
G1 X118.29 Y90.154 E6.2446
G1 X119.507 Y89.653 E6.28837
G1 X120.624 Y89.301 E6.32732
G1 X121.859 Y89.008 E6.36954
G1 X123.114 Y88.814 E6.41178
G1 X124.278 Y88.716 E6.45063
G1 X125.569 Y88.71 E6.49357
G1 X126.807 Y88.802 E6.53486
G1 X128.044 Y88.983 E6.57644
G1 X129.271 Y89.269 E6.61834
G1 X130.447 Y89.633 E6.65929
G1 X131.57 Y90.078 E6.69946
G1 X132.725 Y90.641 E6.7422
G1 X133.842 Y91.3 E6.78533
G1 X134.892 Y92.042 E6.8281
G1 X135.871 Y92.845 E6.87021
G1 X136.77 Y93.711 E6.91173
G1 X137.552 Y94.588 E6.95081
G1 X138.34 Y95.613 E6.99381
G1 X139.006 Y96.645 E7.03466
G1 X139.597 Y97.72 E7.07546
G1 X140.139 Y98.928 E7.1195
G1 X140.543 Y100.06 E7.15948
G1 X140.842 Y101.142 E7.19681
G1 X141.132 Y102.62 E7.24691
G1 X141.262 Y103.767 E7.2853
G1 X141.309 Y104.842 E7.32109
G1 X141.263 Y106.224 E7.36708
G1 X141.112 Y107.532 E7.41088
G1 X140.884 Y108.695 E7.45029
G1 X140.556 Y109.912 E7.49222
G1 X140.134 Y111.073 E7.5333
G1 X139.606 Y112.257 E7.57642
G1 X139.02 Y113.332 E7.61714
G1 X138.371 Y114.343 E7.6571
G1 X137.608 Y115.344 E7.69896
G1 X136.736 Y116.321 E7.74252
G1 X135.835 Y117.19 E7.78415
G1 X134.911 Y117.949 E7.82393
G1 X133.857 Y118.689 E7.86676
G1 X132.729 Y119.352 E7.91028
G1 X131.689 Y119.871 E7.94894
G1 X130.536 Y120.337 E7.9903
G1 X129.336 Y120.723 E8.03222
G1 X128.149 Y121.001 E8.07277
G1 X126.94 Y121.184 E8.11344
G1 X125.611 Y121.289 E8.15778
G1 X124.318 Y121.29 E8.20079
G1 X123.256 Y121.209 E8.23621
G1 X121.826 Y120.984 E8.28436
G1 X120.715 Y120.726 E8.3223
G1 X119.42 Y120.319 E8.36744
G1 X118.343 Y119.877 E8.40616
G1 X117.168 Y119.285 E8.44993
G1 X116.115 Y118.657 E8.4907
G1 X115.092 Y117.935 E8.53235
G1 X114.149 Y117.154 E8.57307
G1 X113.239 Y116.276 E8.61513
G1 X112.407 Y115.337 E8.65686
G1 X111.67 Y114.372 E8.69725
G1 X110.986 Y113.303 E8.73946
G1 X110.386 Y112.21 E8.78093
G1 X109.895 Y111.094 E8.82148
G1 X109.449 Y109.86 E8.86512
G1 X109.136 Y108.721 E8.90441
G1 X108.913 Y107.57 E8.9434
G1 X108.757 Y106.217 E8.9887
G1 X108.713 Y104.986 E9.02967
G1 X108.756 Y103.769 E9.07017
G1 X108.925 Y102.321 E9.11866
G1 X109.113 Y101.368 E9.15097
G1 X109.469 Y100.072 E9.19567
G1 X109.875 Y98.941 E9.23564
G1 X110.392 Y97.794 E9.27748
G1 X111.002 Y96.667 E9.32011
G1 X111.663 Y95.647 E9.36053
G0 F3600 X111.33 Y95.425
G1 F1800 X112.124 Y94.373 E9.40437
G1 X112.932 Y93.462 E9.44487
G1 X113.875 Y92.554 E9.48841
G1 X114.87 Y91.728 E9.53142
G1 X115.873 Y91.015 E9.57235
G1 X116.969 Y90.364 E9.61475
G1 X118.12 Y89.791 E9.65751
G1 X119.37 Y89.276 E9.70248
G1 X120.509 Y88.917 E9.7422
G1 X121.781 Y88.615 E9.78568
G1 X123.078 Y88.416 E9.82933
G1 X124.255 Y88.316 E9.86861
G1 X125.584 Y88.31 E9.91282
G1 X126.853 Y88.405 E9.95514
G1 X128.108 Y88.588 E9.99733
G1 X129.386 Y88.886 E10.04097
G1 X130.567 Y89.252 E10.0821
G1 X131.735 Y89.714 E10.12387
G1 X132.915 Y90.289 E10.16753
G1 X134.054 Y90.961 E10.21152
G1 X135.154 Y91.739 E10.25633
G1 X136.139 Y92.547 E10.2987
G1 X137.058 Y93.431 E10.34111
G1 X137.853 Y94.324 E10.38088
G1 X138.667 Y95.382 E10.42528
G1 X139.348 Y96.437 E10.46704
G1 X139.958 Y97.546 E10.50914
G1 X140.507 Y98.771 E10.55379
G1 X140.928 Y99.949 E10.5954
G1 X141.229 Y101.04 E10.63304
G1 X141.53 Y102.572 E10.68497
G1 X141.66 Y103.719 E10.72336
G1 X141.709 Y104.856 E10.76121
G1 X141.663 Y106.247 E10.8075
G1 X141.507 Y107.591 E10.8525
G1 X141.272 Y108.79 E10.89314
G1 X140.94 Y110.027 E10.93574
G1 X140.502 Y111.229 E10.97829
G1 X139.965 Y112.433 E11.02214
G1 X139.36 Y113.544 E11.06422
G1 X138.698 Y114.574 E11.10494
G1 X137.925 Y115.589 E11.14737
G1 X137.023 Y116.6 E11.19244
G1 X136.103 Y117.487 E11.23494
G1 X135.155 Y118.266 E11.27575
G1 X134.068 Y119.029 E11.31992
G1 X132.92 Y119.704 E11.36422
G1 X131.854 Y120.236 E11.40384
G1 X130.682 Y120.709 E11.44588
G1 X129.43 Y121.112 E11.48962
G1 X128.224 Y121.395 E11.53083
G1 X127.004 Y121.579 E11.57186
G1 X125.617 Y121.689 E11.61814
G1 X124.302 Y121.69 E11.66188
G1 X123.211 Y121.607 E11.69827
G1 X121.746 Y121.376 E11.7476
G1 X120.608 Y121.112 E11.78645
G1 X119.288 Y120.697 E11.83247
G1 X118.179 Y120.242 E11.87234
G1 X116.978 Y119.637 E11.91707
G1 X115.897 Y118.993 E11.95892
G1 X114.846 Y118.25 E12.00173
G1 X113.885 Y117.455 E12.04321
G1 X112.948 Y116.551 E12.08652
G1 X112.098 Y115.591 E12.12916
G1 X111.345 Y114.606 E12.1704
G1 X110.646 Y113.514 E12.21353
G1 X110.024 Y112.38 E12.25654
G1 X109.523 Y111.243 E12.29787
G1 X109.065 Y109.976 E12.34268
G1 X108.746 Y108.812 E12.38282
G1 X108.519 Y107.639 E12.42256
G1 X108.357 Y106.24 E12.4694
G1 X108.313 Y104.986 E12.51113
G1 X108.357 Y103.746 E12.5524
G1 X108.53 Y102.262 E12.60209
G1 X108.726 Y101.266 E12.63586
G1 X109.084 Y99.961 E12.68087
G1 X109.508 Y98.778 E12.72266
G1 X110.032 Y97.617 E12.76503
G1 X110.658 Y96.462 E12.80872
G1 X111.33 Y95.425 E12.84982
G0 F3600 X111.011 Y95.182
G1 F1800 X111.805 Y94.13 E12.89366
G1 X112.656 Y93.171 E12.9363
G1 X113.603 Y92.26 E12.98001
G1 X114.622 Y91.413 E13.02408
G1 X115.652 Y90.681 E13.06611
G1 X116.782 Y90.01 E13.10982
G1 X117.94 Y89.434 E13.15284
G1 X119.238 Y88.899 E13.19953
G1 X120.406 Y88.531 E13.24026
G1 X121.716 Y88.22 E13.28504
G1 X123.027 Y88.018 E13.32916
G1 X124.232 Y87.916 E13.36938
G1 X125.599 Y87.91 E13.41485
G1 X126.896 Y88.007 E13.45811
G1 X128.187 Y88.195 E13.5015
G1 X129.482 Y88.497 E13.54573
G1 X130.707 Y88.876 E13.58838
G1 X131.896 Y89.347 E13.63091
G1 X133.111 Y89.939 E13.67587
G1 X134.266 Y90.621 E13.72048
G1 X135.393 Y91.417 E13.76637
G1 X136.401 Y92.244 E13.80974
G1 X137.342 Y93.15 E13.85318
G1 X138.161 Y94.069 E13.89413
G1 X138.998 Y95.157 E13.93978
G1 X139.696 Y96.239 E13.98261
G1 X140.314 Y97.363 E14.02527
G1 X140.879 Y98.621 E14.07114
G1 X141.307 Y99.822 E14.11354
G1 X141.62 Y100.954 E14.15261
G1 X141.923 Y102.499 E14.20497
G1 X142.06 Y103.7 E14.24518
G1 X142.11 Y104.852 E14.28353
G1 X142.062 Y106.282 E14.33112
G1 X141.904 Y107.651 E14.37695
G1 X141.665 Y108.866 E14.41814
G1 X141.319 Y110.155 E14.46253
G1 X140.871 Y111.386 E14.5061
G1 X140.33 Y112.598 E14.55024
G1 X139.706 Y113.744 E14.59365
G1 X139.021 Y114.812 E14.63585
G1 X138.234 Y115.844 E14.67901
G1 X137.311 Y116.878 E14.72511
G1 X136.367 Y117.788 E14.76872
G1 X135.397 Y118.585 E14.81048
G1 X134.287 Y119.364 E14.85558
G1 X133.11 Y120.056 E14.90099
G1 X132.014 Y120.603 E14.94173
G1 X130.82 Y121.085 E14.98456
G1 X129.544 Y121.496 E15.02915
G1 X128.299 Y121.787 E15.07167
G1 X127.039 Y121.978 E15.11406
G1 X125.636 Y122.089 E15.16087
G1 X124.285 Y122.09 E15.2058
G1 X123.168 Y122.005 E15.24306
G1 X121.664 Y121.768 E15.2937
G1 X120.512 Y121.501 E15.33303
G1 X119.15 Y121.073 E15.38052
G1 X118.011 Y120.605 E15.42147
G1 X116.777 Y119.983 E15.46744
G1 X115.686 Y119.333 E15.50968
G1 X114.602 Y118.567 E15.55382
G1 X113.614 Y117.749 E15.59649
G1 X112.666 Y116.835 E15.64028
G1 X111.79 Y115.846 E15.68423
G1 X111.011 Y114.827 E15.72689
G1 X110.301 Y113.717 E15.77071
G1 X109.664 Y112.556 E15.81476
G1 X109.148 Y111.385 E15.85732
G1 X108.685 Y110.103 E15.90265
G1 X108.359 Y108.916 E15.9436
G1 X108.121 Y107.683 E15.98536
G1 X107.958 Y106.275 E16.03251
G1 X107.912 Y104.986 E16.07541
G1 X107.957 Y103.711 E16.11784
G1 X108.133 Y102.202 E16.16837
G1 X108.335 Y101.177 E16.20312
G1 X108.702 Y99.838 E16.24929
G1 X109.132 Y98.643 E16.29153
G1 X109.681 Y97.424 E16.336
G1 X110.31 Y96.263 E16.37992
G1 X111.011 Y95.182 E16.42277
G0 F3600 X110.679 Y94.958
G1 F1800 X111.499 Y93.872 E16.46803
G1 X112.362 Y92.899 E16.51129
G1 X113.345 Y91.954 E16.55664
G1 X114.368 Y91.104 E16.60088
G1 X115.443 Y90.34 E16.64474
G1 X116.582 Y89.663 E16.68881
G1 X117.777 Y89.069 E16.7332
G1 X119.109 Y88.52 E16.78112
G1 X120.29 Y88.147 E16.82231
G1 X121.636 Y87.828 E16.86832
G1 X122.975 Y87.622 E16.91338
G1 X124.222 Y87.516 E16.955
G1 X125.615 Y87.51 E17.00133
G1 X126.927 Y87.608 E17.04509
G1 X128.276 Y87.805 E17.09044
G1 X129.578 Y88.108 E17.1349
G1 X130.842 Y88.5 E17.17891
G1 X132.061 Y88.983 E17.22252
G1 X133.291 Y89.582 E17.26803
G1 X134.494 Y90.292 E17.31449
G1 X135.624 Y91.09 E17.3605
G1 X136.676 Y91.953 E17.40576
G1 X137.633 Y92.874 E17.44993
G1 X138.468 Y93.812 E17.4917
G1 X139.324 Y94.926 E17.53843
G1 X140.037 Y96.03 E17.58214
G1 X140.673 Y97.185 E17.62599
G1 X141.252 Y98.476 E17.67305
G1 X141.689 Y99.702 E17.71634
G1 X142.009 Y100.857 E17.75621
G1 X142.321 Y102.451 E17.81023
G1 X142.459 Y103.666 E17.8509
G1 X142.51 Y104.835 E17.88982
G1 X142.461 Y106.317 E17.93914
G1 X142.299 Y107.71 E17.98578
G1 X142.051 Y108.975 E18.02865
G1 X141.704 Y110.266 E18.07312
G1 X141.244 Y111.53 E18.11786
G1 X140.687 Y112.779 E18.16334
G1 X140.048 Y113.952 E18.20777
G1 X139.353 Y115.034 E18.25054
G1 X138.538 Y116.104 E18.29528
G1 X137.598 Y117.158 E18.34225
G1 X136.636 Y118.085 E18.38668
G1 X135.641 Y118.902 E18.4295
G1 X134.499 Y119.704 E18.47592
G1 X133.302 Y120.408 E18.52211
G1 X132.184 Y120.965 E18.56365
G1 X130.949 Y121.464 E18.60795
G1 X129.65 Y121.883 E18.65335
G1 X128.376 Y122.181 E18.69687
G1 X127.086 Y122.376 E18.74026
G1 X125.656 Y122.489 E18.78797
G1 X124.267 Y122.49 E18.83417
G1 X123.126 Y122.404 E18.87222
G1 X121.592 Y122.161 E18.92388
G1 X120.396 Y121.884 E18.96471
G1 X119.018 Y121.451 E19.01276
G1 X117.847 Y120.971 E19.05485
