;FLAVOR:Marlin
;TIME:4173
;Filament used: 5.76581m
;Layer height: 0.3
;MINX:103.107
;MINY:83.109
;MINZ:0.2
;MAXX:146.912
;MAXY:126.89
;MAXZ:58.7
;Generated with Cura_SteamEngine 5.2.1
M82 ;absolute extrusion mode
G21 ; set units to millimeters
G90 ; use absolute positioning
M82 ; absolute extrusion mode
M104 S210.0 ; set extruder temp
M140 S60 ; set bed temp
M190 S60 ; wait for bed temp
M109 S210.0 ; wait for extruder temp
G28 W ; home all without mesh bed level
G80 ; mesh bed leveling
G92 E0.0 ; reset extruder distance position
G1 Y-3.0 F1000.0 ; go outside print area
G1 X60.0 E9.0 F1000.0 ; intro line
G1 X100.0 E21.5 F1000.0 ; intro line
G92 E0.0 ; reset extruder distance position
G92 E0
G92 E0
G1 F2100 E-0.8
;LAYER_COUNT:196
;LAYER:0
M107
G0 F3600 X108.088 Y91.094 Z0.2
;TYPE:SKIRT
G1 F2100 E0
G1 F1800 X109.202 Y89.827 E0.05611
G1 X110.387 Y88.689 E0.11076
G1 X111.678 Y87.623 E0.16644
G1 X113.123 Y86.598 E0.22537
G1 X114.473 Y85.788 E0.27773
G1 X115.952 Y85.051 E0.33269
G1 X117.524 Y84.416 E0.38908
G1 X119.151 Y83.899 E0.44586
G1 X120.8 Y83.505 E0.50225
G1 X122.393 Y83.259 E0.55586
G1 X124.06 Y83.117 E0.61151
G1 X125.749 Y83.109 E0.66768
G1 X127.429 Y83.234 E0.72372
G1 X129.092 Y83.474 E0.7796
G1 X130.695 Y83.85 E0.83436
G1 X132.336 Y84.358 E0.8915
G1 X133.819 Y84.952 E0.94463
G1 X135.394 Y85.726 E1.003
G1 X136.915 Y86.609 E1.0615
G1 X138.261 Y87.557 E1.11626
G1 X139.604 Y88.668 E1.17423
G1 X140.79 Y89.807 E1.22892
G1 X141.868 Y91.016 E1.28279
G1 X142.938 Y92.415 E1.34137
G1 X143.811 Y93.767 E1.3949
G1 X144.622 Y95.25 E1.45112
G1 X145.3 Y96.758 E1.50611
G1 X145.886 Y98.374 E1.56329
G1 X146.323 Y99.983 E1.61874
G1 X146.659 Y101.675 E1.67611
G1 X146.844 Y103.3 E1.73051
G1 X146.912 Y104.824 E1.78125
G1 X146.852 Y106.621 E1.84105
G1 X146.639 Y108.458 E1.90256
G1 X146.346 Y109.953 E1.95323
G1 X145.907 Y111.574 E2.00909
G1 X145.322 Y113.184 E2.06606
G1 X144.647 Y114.703 E2.12135
G1 X143.831 Y116.194 E2.17788
G1 X142.939 Y117.584 E2.23281
G1 X141.928 Y118.903 E2.28809
G1 X140.782 Y120.197 E2.34558
G1 X139.558 Y121.376 E2.4021
G1 X138.305 Y122.404 E2.45601
G1 X136.905 Y123.393 E2.51302
G1 X135.366 Y124.297 E2.57238
G1 X133.966 Y124.991 E2.62435
G1 X132.472 Y125.599 E2.678
G1 X130.835 Y126.121 E2.73515
G1 X129.196 Y126.506 E2.79115
G1 X127.603 Y126.748 E2.84474
G1 X125.827 Y126.889 E2.90399
G1 X124.111 Y126.89 E2.96107
G1 X122.59 Y126.773 E3.01181
G1 X120.797 Y126.496 E3.07215
G1 X119.236 Y126.134 E3.12545
G1 X117.519 Y125.592 E3.18533
G1 X115.969 Y124.953 E3.24109
G1 X114.466 Y124.201 E3.29699
G1 X113.057 Y123.361 E3.35155
G1 X111.712 Y122.404 E3.40646
G1 X110.402 Y121.323 E3.46294
G1 X109.21 Y120.171 E3.51808
G1 X108.063 Y118.872 E3.57572
G1 X107.084 Y117.592 E3.62932
G1 X106.172 Y116.182 E3.68517
G1 X105.356 Y114.664 E3.74249
G1 X104.689 Y113.17 E3.79691
G1 X104.131 Y111.629 E3.85142
G1 X103.668 Y109.945 E3.90951
G1 X103.366 Y108.392 E3.96213
G1 X103.166 Y106.665 E4.01995
G1 X103.107 Y105 E4.07536
G1 X103.166 Y103.323 E4.13117
G1 X103.371 Y101.564 E4.19008
G1 X103.677 Y100.006 E4.24288
G1 X104.105 Y98.434 E4.29707
G1 X104.682 Y96.824 E4.35396
G1 X105.376 Y95.284 E4.41014
G1 X106.16 Y93.843 E4.4647
G1 X107.082 Y92.416 E4.52121
G1 X108.088 Y91.094 E4.57646
G0 F3600 X108.398 Y91.348
G1 F1800 X109.485 Y90.11 E4.63126
G1 X110.65 Y88.992 E4.68496
G1 X111.933 Y87.932 E4.74031
G1 X113.336 Y86.937 E4.79752
G1 X114.669 Y86.137 E4.84923
G1 X116.113 Y85.417 E4.90289
G1 X117.661 Y84.793 E4.95841
G1 X119.26 Y84.284 E5.01422
G1 X120.88 Y83.897 E5.06962
G1 X122.444 Y83.655 E5.12225
G1 X124.072 Y83.517 E5.1766
G1 X125.735 Y83.509 E5.23191
G1 X127.385 Y83.632 E5.28694
G1 X129.013 Y83.867 E5.34165
G1 X130.599 Y84.239 E5.39583
G1 X132.192 Y84.732 E5.45129
G1 X133.662 Y85.321 E5.50396
G1 X135.206 Y86.08 E5.56119
G1 X136.696 Y86.945 E5.61849
G1 X138.023 Y87.879 E5.67246
G1 X139.341 Y88.969 E5.72935
G1 X140.491 Y90.073 E5.78237
G1 X141.565 Y91.279 E5.83608
G1 X142.612 Y92.647 E5.89338
G1 X143.467 Y93.971 E5.9458
G1 X144.263 Y95.428 E6.00102
G1 X144.929 Y96.908 E6.055
G1 X145.505 Y98.497 E6.11122
G1 X145.934 Y100.079 E6.16573
G1 X146.264 Y101.737 E6.22196
G1 X146.446 Y103.333 E6.27539
G1 X146.512 Y104.816 E6.32476
G1 X146.452 Y106.587 E6.3837
G1 X146.242 Y108.4 E6.4444
G1 X145.954 Y109.868 E6.49416
G1 X145.525 Y111.455 E6.54884
G1 X144.949 Y113.041 E6.60496
G1 X144.292 Y114.517 E6.65869
G1 X143.488 Y115.988 E6.71445
G1 X142.61 Y117.356 E6.76852
G1 X141.615 Y118.654 E6.82291
G1 X140.505 Y119.907 E6.87859
G1 X139.29 Y121.078 E6.93471
G1 X138.058 Y122.089 E6.98772
G1 X136.687 Y123.057 E7.04354
G1 X135.175 Y123.945 E7.10186
G1 X133.805 Y124.624 E7.15272
G1 X132.326 Y125.226 E7.20583
G1 X130.726 Y125.736 E7.26168
G1 X129.134 Y126.111 E7.31608
G1 X127.552 Y126.351 E7.3693
G1 X125.808 Y126.489 E7.42749
G1 X124.13 Y126.49 E7.4833
G1 X122.629 Y126.375 E7.53337
G1 X120.884 Y126.105 E7.5921
G1 X119.333 Y125.745 E7.64506
G1 X117.653 Y125.215 E7.70365
G1 X116.139 Y124.591 E7.75811
G1 X114.656 Y123.849 E7.81327
G1 X113.282 Y123.03 E7.86647
G1 X111.952 Y122.084 E7.92075
G1 X110.666 Y121.022 E7.97623
G1 X109.5 Y119.895 E8.03016
G1 X108.378 Y118.625 E8.08653
G1 X107.41 Y117.359 E8.13953
G1 X106.514 Y115.975 E8.19437
G1 X105.716 Y114.491 E8.25041
G1 X105.06 Y113.021 E8.30395
G1 X104.514 Y111.513 E8.35729
G1 X104.055 Y109.843 E8.4149
G1 X103.764 Y108.346 E8.46562
G1 X103.566 Y106.63 E8.52307
G1 X103.508 Y104.999 E8.57735
G1 X103.566 Y103.358 E8.63197
G1 X103.768 Y101.623 E8.69006
G1 X104.069 Y100.091 E8.74199
G1 X104.489 Y98.548 E8.79518
G1 X105.054 Y96.971 E8.8509
G1 X105.727 Y95.477 E8.9054
G1 X106.508 Y94.042 E8.95973
G1 X107.412 Y92.642 E9.01516
G1 X108.398 Y91.348 E9.06927
G0 F3600 X108.706 Y91.603
G1 F1800 X109.781 Y90.38 E9.12343
G1 X110.919 Y89.287 E9.17591
G1 X112.172 Y88.252 E9.22996
G1 X113.554 Y87.272 E9.28631
G1 X114.854 Y86.492 E9.33674
G1 X116.278 Y85.782 E9.38966
G1 X117.803 Y85.167 E9.44435
G1 X119.364 Y84.671 E9.49883
G1 X120.96 Y84.289 E9.55341
G1 X122.481 Y84.054 E9.6046
G1 X124.095 Y83.917 E9.65847
G1 X125.719 Y83.909 E9.71249
G1 X127.342 Y84.03 E9.76662
G1 X128.945 Y84.261 E9.82049
G1 X130.486 Y84.622 E9.87313
G1 X132.062 Y85.11 E9.928
G1 X133.499 Y85.686 E9.97949
G1 X135.02 Y86.434 E10.03587
G1 X136.48 Y87.281 E10.09201
G1 X137.78 Y88.197 E10.1449
G1 X139.07 Y89.264 E10.20058
G1 X140.203 Y90.352 E10.25283
G1 X141.263 Y91.541 E10.30581
G1 X142.282 Y92.872 E10.36156
G1 X143.125 Y94.18 E10.41332
G1 X143.901 Y95.599 E10.46711
G1 X144.559 Y97.062 E10.52046
G1 X145.124 Y98.618 E10.57552
G1 X145.541 Y100.158 E10.62859
G1 X145.87 Y101.811 E10.68465
G1 X146.046 Y103.355 E10.73633
G1 X146.111 Y104.82 E10.78511
G1 X146.053 Y106.563 E10.84311
G1 X145.847 Y108.34 E10.90261
G1 X145.566 Y109.773 E10.95118
G1 X145.144 Y111.329 E11.0048
G1 X144.58 Y112.885 E11.05985
G1 X143.929 Y114.347 E11.11308
G1 X143.139 Y115.791 E11.16782
G1 X142.288 Y117.119 E11.22028
G1 X141.306 Y118.398 E11.27392
G1 X140.217 Y119.629 E11.32858
G1 X139.02 Y120.782 E11.38386
G1 X137.813 Y121.772 E11.43578
G1 X136.475 Y122.717 E11.49026
G1 X134.978 Y123.596 E11.548
G1 X133.639 Y124.26 E11.59771
G1 X132.202 Y124.845 E11.64932
G1 X130.618 Y125.35 E11.70461
G1 X129.043 Y125.72 E11.75842
G1 X127.503 Y125.954 E11.81023
G1 X125.802 Y126.089 E11.86699
G1 X124.147 Y126.09 E11.92203
G1 X122.669 Y125.977 E11.97133
G1 X120.967 Y125.713 E12.02862
G1 X119.441 Y125.359 E12.08072
G1 X117.785 Y124.837 E12.13847
G1 X116.308 Y124.228 E12.19161
G1 X114.85 Y123.499 E12.24583
G1 X113.496 Y122.691 E12.29827
G1 X112.202 Y121.77 E12.3511
G1 X110.93 Y120.72 E12.40596
G1 X109.783 Y119.612 E12.459
G1 X108.693 Y118.378 E12.51376
G1 X107.735 Y117.126 E12.56619
G1 X106.859 Y115.77 E12.61989
G1 X106.074 Y114.311 E12.67499
G1 X105.433 Y112.877 E12.72723
G1 X104.892 Y111.382 E12.78011
G1 X104.447 Y109.764 E12.83593
G1 X104.158 Y108.276 E12.88634
G1 X103.965 Y106.607 E12.94222
G1 X103.908 Y104.999 E12.99574
G1 X103.965 Y103.381 E13.04959
G1 X104.163 Y101.683 E13.10645
G1 X104.457 Y100.19 E13.15706
G1 X104.869 Y98.674 E13.20931
G1 X105.427 Y97.117 E13.26432
G1 X106.089 Y95.648 E13.31791
G1 X106.849 Y94.25 E13.37084
G1 X107.738 Y92.874 E13.42532
G1 X108.706 Y91.603 E13.47846
G0 F3600 X109.016 Y91.856
G1 F1800 X110.064 Y90.662 E13.5313
G1 X111.19 Y89.582 E13.58319
G1 X112.41 Y88.574 E13.63583
G1 X113.776 Y87.606 E13.69151
G1 X115.049 Y86.841 E13.74091
G1 X116.442 Y86.147 E13.79267
G1 X117.939 Y85.543 E13.84636
G1 X119.469 Y85.057 E13.89976
G1 X121.041 Y84.681 E13.95352
G1 X122.532 Y84.451 E14.00369
G1 X124.106 Y84.316 E14.05624
G1 X125.704 Y84.31 E14.10939
G1 X127.297 Y84.427 E14.16251
G1 X128.879 Y84.656 E14.21568
G1 X130.377 Y85.007 E14.26685
G1 X131.932 Y85.489 E14.321
G1 X133.327 Y86.047 E14.37097
G1 X134.832 Y86.788 E14.42677
G1 X136.266 Y87.62 E14.48191
G1 X137.528 Y88.508 E14.53323
G1 X138.814 Y89.572 E14.58875
G1 X139.916 Y90.631 E14.63958
G1 X140.948 Y91.788 E14.69115
G1 X141.955 Y93.105 E14.74629
G1 X142.781 Y94.383 E14.7969
G1 X143.54 Y95.773 E14.84957
G1 X144.19 Y97.218 E14.90227
G1 X144.742 Y98.741 E14.95615
G1 X145.153 Y100.254 E15.0083
G1 X145.473 Y101.863 E15.06286
G1 X145.647 Y103.388 E15.11391
G1 X145.711 Y104.838 E15.16219
G1 X145.655 Y106.528 E15.21843
G1 X145.453 Y108.268 E15.27669
G1 X145.174 Y109.689 E15.32486
G1 X144.762 Y111.211 E15.3773
G1 X144.206 Y112.742 E15.43147
G1 X143.575 Y114.16 E15.4831
G1 X142.796 Y115.585 E15.53711
G1 X141.956 Y116.895 E15.58887
G1 X140.94 Y118.209 E15.64411
G1 X139.928 Y119.352 E15.69489
G1 X138.758 Y120.479 E15.74892
G1 X137.565 Y121.458 E15.80025
G1 X136.261 Y122.38 E15.85337
G1 X134.783 Y123.247 E15.91036
G1 X133.489 Y123.889 E15.95841
G1 X132.06 Y124.471 E16.00972
G1 X130.505 Y124.966 E16.064
G1 X128.967 Y125.328 E16.11655
G1 X127.467 Y125.555 E16.16701
G1 X125.783 Y125.689 E16.2232
G1 X124.164 Y125.69 E16.27705
G1 X122.721 Y125.579 E16.32518
G1 X121.024 Y125.317 E16.38229
G1 X119.548 Y124.974 E16.43269
G1 X117.932 Y124.465 E16.48905
G1 X116.461 Y123.858 E16.54197
G1 X115.055 Y123.155 E16.59426
G1 X113.704 Y122.349 E16.64658
G1 X112.444 Y121.453 E16.698
G1 X111.199 Y120.425 E16.7517
G1 X110.078 Y119.341 E16.80357
G1 X108.994 Y118.114 E16.85803
G1 X108.066 Y116.902 E16.9088
G1 X107.201 Y115.563 E16.96182
G1 X106.439 Y114.148 E17.01527
G1 X105.801 Y112.716 E17.06741
G1 X105.276 Y111.267 E17.11867
G1 X104.837 Y109.673 E17.17366
G1 X104.553 Y108.208 E17.22329
G1 X104.365 Y106.584 E17.27767
G1 X104.309 Y104.999 E17.33042
G1 X104.365 Y103.404 E17.3835
G1 X104.557 Y101.757 E17.43865
G1 X104.849 Y100.272 E17.48899
G1 X105.25 Y98.799 E17.53977
G1 X105.798 Y97.268 E17.59385
G1 X106.449 Y95.826 E17.64647
G1 X107.196 Y94.45 E17.69855
G1 X108.069 Y93.1 E17.75202
G1 X109.016 Y91.856 E17.80402
G0 F3600 X109.374 Y92.055
G1 F1800 X110.354 Y90.939 E17.85342
G1 X111.454 Y89.884 E17.90411
G1 X112.659 Y88.888 E17.95611
G1 X113.996 Y87.941 E18.0106
G1 X115.24 Y87.194 E18.05886
G1 X116.61 Y86.51 E18.10979
G1 X118.149 Y85.896 E18.1649
G1 X119.573 Y85.443 E18.21461
G1 X121.113 Y85.075 E18.26727
G1 X122.655 Y84.842 E18.31914
G1 X124.13 Y84.716 E18.36837
G1 X125.689 Y84.71 E18.42023
G1 X127.181 Y84.82 E18.46999
G1 X128.8 Y85.049 E18.52437
G1 X130.349 Y85.417 E18.57732
G1 X131.788 Y85.863 E18.62743
G1 X133.174 Y86.418 E18.67709
G1 X134.574 Y87.106 E18.72897
G1 X136.052 Y87.958 E18.78571
G1 X137.288 Y88.828 E18.83599
G1 X138.596 Y89.918 E18.89262
G1 X139.629 Y90.91 E18.94025
G1 X140.639 Y92.043 E18.99073
G1 X141.626 Y93.332 E19.04473
G1 X142.475 Y94.658 E19.0971
G1 X143.181 Y95.95 E19.14607
G1 X143.821 Y97.372 E19.19793
G1 X144.361 Y98.863 E19.25068
G1 X144.778 Y100.418 E19.30422
G1 X145.078 Y101.926 E19.35536
G1 X145.24 Y103.347 E19.40293
G1 X145.311 Y104.825 E19.45215
G1 X145.255 Y106.493 E19.50766
G1 X145.055 Y108.225 E19.56565
G1 X144.766 Y109.666 E19.61453
G1 X144.382 Y111.086 E19.66345
G1 X143.862 Y112.517 E19.71409
G1 X143.215 Y113.986 E19.76748
G1 X142.49 Y115.311 E19.81772
G1 X141.627 Y116.666 E19.87115
G1 X140.739 Y117.824 E19.91968
G1 X139.636 Y119.078 E19.97523
G1 X138.484 Y120.188 E20.02844
G1 X137.389 Y121.086 E20.07554
G1 X136.046 Y122.041 E20.13035
G1 X134.594 Y122.894 E20.18636
G1 X133.24 Y123.559 E20.23653
G1 X131.93 Y124.092 E20.28357
G1 X130.398 Y124.58 E20.33705
G1 X128.901 Y124.932 E20.3882
G1 X127.417 Y125.158 E20.43813
G1 X125.763 Y125.289 E20.49331
G1 X124.169 Y125.29 E20.54633
G1 X122.775 Y125.183 E20.59283
G1 X121.109 Y124.925 E20.6489
G1 X119.657 Y124.588 E20.69848
G1 X118.051 Y124.082 E20.75448
G1 X116.711 Y123.529 E20.8027
G1 X115.243 Y122.801 E20.8572
G1 X113.928 Y122.018 E20.9081
G1 X112.755 Y121.183 E20.95599
G1 X111.466 Y120.126 E21.01143
G1 X110.365 Y119.062 E21.06236
G1 X109.257 Y117.799 E21.11824
G1 X108.39 Y116.666 E21.16569
G1 X107.551 Y115.368 E21.21709
G1 X106.763 Y113.892 E21.27275
G1 X106.146 Y112.496 E21.32351
G1 X105.659 Y111.15 E21.37112
G1 X105.224 Y109.569 E21.42566
G1 X104.951 Y108.164 E21.47326
G1 X104.762 Y106.534 E21.52784
G1 X104.711 Y104.921 E21.58151
G1 X104.763 Y103.453 E21.63037
G1 X104.955 Y101.804 E21.68559
G1 X105.236 Y100.371 E21.73416
G1 X105.634 Y98.912 E21.78445
G1 X106.17 Y97.415 E21.83734
G1 X106.805 Y96.008 E21.88868
G1 X107.538 Y94.658 E21.93978
G1 X108.395 Y93.332 E21.99229
G1 X109.374 Y92.055 E22.04581
G0 F3600 X109.675 Y92.319
G1 F1800 X110.652 Y91.207 E22.09504
G1 X111.769 Y90.142 E22.14637
G1 X112.955 Y89.168 E22.19742
G1 X114.157 Y88.316 E22.24642
G1 X115.433 Y87.544 E22.29602
G1 X116.77 Y86.878 E22.3457
G1 X118.27 Y86.278 E22.39944
G1 X119.746 Y85.813 E22.45091
G1 X121.192 Y85.467 E22.50036
G1 X122.689 Y85.24 E22.55072
G1 X124.074 Y85.122 E22.59695
G1 X125.605 Y85.11 E22.64787
G1 X127.152 Y85.219 E22.69945
G1 X128.727 Y85.443 E22.75236
G1 X130.108 Y85.766 E22.79954
G1 X131.667 Y86.245 E22.85378
G1 X132.946 Y86.757 E22.8996
G1 X134.507 Y87.523 E22.95744
G1 X135.828 Y88.29 E23.00824
G1 X137.049 Y89.15 E23.05792
G1 X138.319 Y90.207 E23.11287
G1 X139.391 Y91.243 E23.16246
G1 X140.372 Y92.351 E23.21168
G1 X141.255 Y93.505 E23.26001
G1 X142.124 Y94.85 E23.31327
G1 X142.795 Y96.078 E23.35981
G1 X143.421 Y97.457 E23.41018
G1 X143.977 Y98.975 E23.46395
G1 X144.357 Y100.376 E23.51223
G1 X144.682 Y101.989 E23.56696
G1 X144.852 Y103.517 E23.61809
G1 X144.908 Y104.9 E23.66413
G1 X144.856 Y106.47 E23.71637
G1 X144.661 Y108.152 E23.77269
G1 X144.38 Y109.561 E23.82048
G1 X144 Y110.965 E23.86886
G1 X143.439 Y112.498 E23.92315
G1 X142.855 Y113.811 E23.97095
G1 X142.075 Y115.228 E24.02474
G1 X141.305 Y116.428 E24.07217
G1 X140.341 Y117.678 E24.12467
G1 X139.391 Y118.751 E24.17233
G1 X138.231 Y119.877 E24.2261
G1 X137.135 Y120.776 E24.27325
G1 X135.822 Y121.709 E24.32682
G1 X134.462 Y122.508 E24.37929
G1 X133.209 Y123.134 E24.42587
G1 X131.851 Y123.692 E24.47471
G1 X130.299 Y124.192 E24.52894
G1 X128.746 Y124.552 E24.58196
G1 X127.435 Y124.751 E24.62606
G1 X125.743 Y124.889 E24.68253
G1 X124.12 Y124.885 E24.73651
G1 X122.882 Y124.79 E24.77781
G1 X121.252 Y124.543 E24.83264
G1 X119.693 Y124.181 E24.88587
G1 X118.197 Y123.709 E24.93805
G1 X116.864 Y123.159 E24.98601
G1 X115.488 Y122.476 E25.0371
G1 X114.149 Y121.684 E25.08884
G1 X112.884 Y120.778 E25.1406
G1 X111.787 Y119.872 E25.18792
G1 X110.657 Y118.788 E25.24
G1 X109.575 Y117.556 E25.29453
G1 X108.68 Y116.378 E25.34374
G1 X107.893 Y115.161 E25.39194
G1 X107.128 Y113.729 E25.44594
G1 X106.571 Y112.481 E25.4914
G1 X106.018 Y110.951 E25.54551
G1 X105.634 Y109.554 E25.59369
G1 X105.358 Y108.159 E25.64099
G1 X105.162 Y106.515 E25.69606
G1 X105.111 Y104.935 E25.74864
G1 X105.163 Y103.476 E25.79719
G1 X105.349 Y101.873 E25.85087
G1 X105.643 Y100.4 E25.90083
G1 X105.998 Y99.096 E25.94578
G1 X106.569 Y97.504 E26.00203
G1 X107.136 Y96.246 E26.04792
G1 X107.92 Y94.804 E26.10252
G1 X108.685 Y93.62 E26.1494
G1 X109.675 Y92.319 E26.20378
G0 F3600 X109.975 Y92.583
G1 F1800 X110.898 Y91.532 E26.2503
G1 X112.023 Y90.451 E26.30219
G1 X113.186 Y89.495 E26.35226
G1 X114.388 Y88.643 E26.40127
G1 X115.581 Y87.922 E26.44763
G1 X116.988 Y87.221 E26.49991
G1 X118.392 Y86.659 E26.55021
G1 X119.839 Y86.202 E26.60068
G1 X121.327 Y85.851 E26.65153
G1 X122.628 Y85.65 E26.69532
