;FLAVOR:Marlin
;TIME:4018
;Filament used: 5.80134m
;Layer height: 0.3
;MINX:91.199
;MINY:71.204
;MINZ:0.2
;MAXX:158.788
;MAXY:138.8
;MAXZ:11.9
;Generated with Cura_SteamEngine 5.2.1
M82 ;absolute extrusion mode
G21 ; set units to millimeters
G90 ; use absolute positioning
M82 ; absolute extrusion mode
M104 S210.0 ; set extruder temp
M140 S60 ; set bed temp
M190 S60 ; wait for bed temp
M109 S210.0 ; wait for extruder temp
G28 W ; home all without mesh bed level
G80 ; mesh bed leveling
G92 E0.0 ; reset extruder distance position
G1 Y-3.0 F1000.0 ; go outside print area
G1 X60.0 E9.0 F1000.0 ; intro line
G1 X100.0 E21.5 F1000.0 ; intro line
G92 E0.0 ; reset extruder distance position
G92 E0
G92 E0
G1 F2100 E-0.8
;LAYER_COUNT:40
;LAYER:0
M107
G0 F3600 X99.515 Y82.794 Z0.2
;TYPE:SKIRT
G1 F2100 E0
G1 F1800 X100.953 Y81.254 E0.07008
G1 X102.334 Y79.936 E0.13357
G1 X103.943 Y78.553 E0.20414
G1 X105.528 Y77.373 E0.26986
G1 X107.276 Y76.221 E0.33949
G1 X109.034 Y75.209 E0.40696
G1 X110.798 Y74.329 E0.47253
G1 X112.688 Y73.518 E0.54093
G1 X114.628 Y72.836 E0.60933
G1 X116.543 Y72.277 E0.67568
G1 X118.362 Y71.866 E0.7377
G1 X120.424 Y71.511 E0.80729
G1 X122.596 Y71.294 E0.87989
G1 X124.503 Y71.204 E0.94339
G1 X126.645 Y71.232 E1.01464
G1 X128.408 Y71.368 E1.07345
G1 X130.619 Y71.671 E1.14768
G1 X132.567 Y72.063 E1.21377
G1 X134.505 Y72.567 E1.28037
G1 X136.401 Y73.187 E1.34672
G1 X138.374 Y73.957 E1.41716
G1 X140.135 Y74.779 E1.4818
G1 X141.858 Y75.706 E1.54687
G1 X143.624 Y76.8 E1.61597
G1 X145.286 Y77.97 E1.68357
G1 X146.883 Y79.238 E1.75139
G1 X148.36 Y80.565 E1.81743
G1 X149.792 Y82.02 E1.88533
G1 X151.129 Y83.549 E1.95289
G1 X152.332 Y85.106 E2.01833
G1 X153.502 Y86.827 E2.08755
G1 X154.536 Y88.57 E2.15495
G1 X155.445 Y90.317 E2.22045
G1 X156.287 Y92.208 E2.2893
G1 X156.969 Y94.036 E2.35419
G1 X157.596 Y96.049 E2.42432
G1 X158.021 Y97.792 E2.48399
G1 X158.428 Y99.952 E2.5571
G1 X158.674 Y102.023 E2.62646
G1 X158.788 Y103.956 E2.69087
G1 X158.788 Y105.995 E2.75868
G1 X158.664 Y108.076 E2.82802
G1 X158.432 Y109.968 E2.89142
G1 X158.049 Y112.07 E2.96248
G1 X157.585 Y113.984 E3.02799
G1 X157.012 Y115.85 E3.09291
G1 X156.276 Y117.822 E3.16292
G1 X155.45 Y119.682 E3.23061
G1 X154.472 Y121.541 E3.30047
G1 X153.498 Y123.183 E3.36397
G1 X152.312 Y124.92 E3.43393
G1 X151.088 Y126.499 E3.50038
G1 X149.778 Y128 E3.56664
G1 X148.352 Y129.442 E3.63409
G1 X146.854 Y130.788 E3.70107
G1 X145.283 Y132.043 E3.76795
G1 X143.616 Y133.216 E3.83575
G1 X141.867 Y134.292 E3.90404
G1 X140.089 Y135.249 E3.9712
G1 X138.301 Y136.075 E4.03671
G1 X136.364 Y136.834 E4.10591
G1 X134.431 Y137.463 E4.17352
G1 X132.621 Y137.93 E4.23569
G1 X130.614 Y138.331 E4.30376
G1 X128.35 Y138.64 E4.37976
G1 X126.67 Y138.769 E4.4358
G1 X124.504 Y138.8 E4.50785
G1 X122.403 Y138.695 E4.57782
G1 X120.56 Y138.509 E4.63943
G1 X118.544 Y138.183 E4.70735
G1 X116.46 Y137.705 E4.77846
G1 X114.58 Y137.152 E4.84364
G1 X112.642 Y136.459 E4.9121
G1 X110.797 Y135.672 E4.97881
G1 X108.975 Y134.759 E5.04659
G1 X107.273 Y133.778 E5.11193
G1 X105.547 Y132.643 E5.18064
G1 X103.913 Y131.415 E5.24862
G1 X102.391 Y130.13 E5.31488
G1 X100.894 Y128.693 E5.38389
G1 X99.577 Y127.28 E5.44814
G1 X98.217 Y125.623 E5.51944
G1 X97.057 Y124.02 E5.58525
G1 X95.991 Y122.345 E5.65128
G1 X94.95 Y120.473 E5.72253
G1 X94.158 Y118.834 E5.78307
G1 X93.344 Y116.853 E5.8543
G1 X92.716 Y114.978 E5.92007
G1 X92.178 Y113.069 E5.98604
G1 X91.745 Y111.024 E6.05556
G1 X91.418 Y108.84 E6.12901
G1 X91.269 Y107.135 E6.18594
G1 X91.199 Y104.973 E6.25788
G1 X91.261 Y102.916 E6.32633
G1 X91.418 Y101.139 E6.38567
G1 X91.761 Y98.856 E6.46245
G1 X92.154 Y96.999 E6.52558
G1 X92.711 Y94.998 E6.59467
G1 X93.315 Y93.25 E6.65618
G1 X94.1 Y91.316 E6.7256
G1 X95.007 Y89.415 E6.79566
G1 X95.977 Y87.684 E6.86165
G1 X97.097 Y85.924 E6.93104
G1 X98.376 Y84.188 E7.00276
G1 X99.515 Y82.794 E7.06263
G0 F3600 X99.814 Y83.061
G1 F1800 X101.307 Y81.469 E7.13522
G1 X102.61 Y80.226 E7.19512
G1 X104.194 Y78.865 E7.26458
G1 X105.836 Y77.649 E7.33253
G1 X107.49 Y76.559 E7.39842
G1 X109.217 Y75.564 E7.46471
G1 X111.06 Y74.651 E7.53312
G1 X112.83 Y73.892 E7.59717
G1 X114.74 Y73.22 E7.66452
G1 X116.636 Y72.667 E7.7302
G1 X118.632 Y72.221 E7.79823
G1 X120.484 Y71.908 E7.8607
G1 X122.428 Y71.708 E7.9257
G1 X124.512 Y71.604 E7.9951
G1 X126.63 Y71.631 E8.06555
G1 X128.466 Y71.779 E8.12681
G1 X130.552 Y72.065 E8.19684
G1 X132.466 Y72.45 E8.26178
G1 X134.401 Y72.953 E8.32828
G1 X136.361 Y73.6 E8.39693
G1 X138.213 Y74.323 E8.46305
G1 X139.863 Y75.093 E8.52361
G1 X141.664 Y76.057 E8.59155
G1 X143.401 Y77.133 E8.65951
G1 X144.965 Y78.234 E8.72313
G1 X146.639 Y79.555 E8.79405
G1 X148.074 Y80.845 E8.85823
G1 X149.431 Y82.224 E8.92258
G1 X150.814 Y83.797 E8.99225
G1 X152.011 Y85.347 E9.05738
G1 X153.166 Y87.045 E9.12569
G1 X154.137 Y88.681 E9.18896
G1 X155.09 Y90.501 E9.25729
G1 X155.912 Y92.345 E9.32444
G1 X156.594 Y94.176 E9.38943
G1 X157.21 Y96.154 E9.45833
G1 X157.672 Y98.072 E9.52395
G1 X158.033 Y100.016 E9.58971
G1 X158.276 Y102.061 E9.65821
G1 X158.388 Y103.962 E9.72155
G1 X158.388 Y105.989 E9.78896
G1 X158.266 Y108.036 E9.85717
G1 X158.036 Y109.913 E9.92006
G1 X157.676 Y111.887 E9.9868
G1 X157.202 Y113.864 E10.05442
G1 X156.629 Y115.732 E10.11941
G1 X155.864 Y117.766 E10.19169
G1 X155.094 Y119.5 E10.25479
G1 X154.128 Y121.337 E10.32382
G1 X153.156 Y122.975 E10.38717
G1 X151.993 Y124.679 E10.45579
G1 X150.839 Y126.167 E10.51842
G1 X149.483 Y127.73 E10.58724
G1 X147.998 Y129.223 E10.65728
G1 X146.673 Y130.413 E10.71651
G1 X145.036 Y131.728 E10.78635
G1 X143.394 Y132.883 E10.85312
G1 X141.75 Y133.895 E10.91733
G1 X139.927 Y134.882 E10.98628
G1 X138.138 Y135.709 E11.05183
G1 X136.231 Y136.456 E11.11995
G1 X134.319 Y137.078 E11.18683
G1 X132.418 Y137.569 E11.25213
G1 X130.45 Y137.95 E11.3188
G1 X128.412 Y138.228 E11.38721
G1 X126.655 Y138.369 E11.44584
G1 X124.5 Y138.4 E11.51752
G1 X122.239 Y138.282 E11.59283
G1 X120.705 Y138.122 E11.64412
G1 X118.624 Y137.79 E11.71421
G1 X116.565 Y137.319 E11.78447
G1 X114.794 Y136.798 E11.84587
G1 X112.781 Y136.084 E11.9169
G1 X110.874 Y135.264 E11.98595
G1 X109.252 Y134.451 E12.04629
G1 X107.579 Y133.493 E12.11041
G1 X105.768 Y132.308 E12.1824
G1 X104.093 Y131.044 E12.25219
G1 X102.669 Y129.841 E12.31419
G1 X101.249 Y128.479 E12.37963
G1 X99.873 Y127.011 E12.44656
G1 X98.469 Y125.29 E12.52043
G1 X97.452 Y123.886 E12.57809
G1 X96.333 Y122.138 E12.64712
G1 X95.352 Y120.372 E12.71431
G1 X94.521 Y118.663 E12.77752
G1 X93.717 Y116.71 E12.84776
G1 X93.095 Y114.851 E12.91296
G1 X92.567 Y112.975 E12.97778
G1 X92.137 Y110.948 E13.0467
G1 X91.816 Y108.807 E13.11871
G1 X91.656 Y106.905 E13.18219
G1 X91.602 Y105.07 E13.24325
G1 X91.661 Y102.933 E13.31435
G1 X91.813 Y101.203 E13.37212
G1 X92.155 Y98.93 E13.44857
G1 X92.547 Y97.078 E13.51153
G1 X93.091 Y95.125 E13.57896
G1 X93.693 Y93.381 E13.64032
G1 X94.433 Y91.559 E13.70573
G1 X95.359 Y89.604 E13.77768
G1 X96.369 Y87.813 E13.84607
G1 X97.429 Y86.147 E13.91174
G1 X98.575 Y84.583 E13.97623
G1 X99.814 Y83.061 E14.04151
G0 F3600 X100.113 Y83.327
G1 F1800 X101.583 Y81.758 E14.11302
G1 X102.886 Y80.515 E14.17291
G1 X104.433 Y79.186 E14.24075
G1 X106.056 Y77.983 E14.30794
G1 X107.777 Y76.855 E14.37638
G1 X109.332 Y75.96 E14.43605
G1 X111.06 Y75.092 E14.50037
G1 X112.977 Y74.264 E14.56982
G1 X114.852 Y73.604 E14.63594
G1 X116.738 Y73.053 E14.70129
G1 X118.699 Y72.615 E14.76812
G1 X120.534 Y72.305 E14.83002
G1 X122.634 Y72.093 E14.90022
G1 X124.425 Y72.008 E14.95985
G1 X126.606 Y72.031 E15.0324
G1 X128.411 Y72.176 E15.09262
G1 X130.579 Y72.478 E15.16543
G1 X132.193 Y72.798 E15.22016
G1 X134.283 Y73.337 E15.29194
G1 X136.215 Y73.973 E15.35959
G1 X138.058 Y74.692 E15.42539
G1 X139.694 Y75.456 E15.48545
G1 X141.459 Y76.4 E15.55202
G1 X143.255 Y77.519 E15.6224
G1 X144.873 Y78.664 E15.68833
G1 X146.369 Y79.851 E15.75185
G1 X147.868 Y81.205 E15.81903
G1 X149.146 Y82.504 E15.87964
G1 X150.503 Y84.048 E15.94801
G1 X151.635 Y85.514 E16.00961
G1 X152.829 Y87.26 E16.07996
G1 X153.793 Y88.885 E16.14281
G1 X154.684 Y90.588 E16.20673
G1 X155.543 Y92.502 E16.27651
G1 X156.275 Y94.48 E16.34666
G1 X156.846 Y96.349 E16.41166
G1 X157.244 Y97.981 E16.46753
G1 X157.637 Y100.076 E16.53843
G1 X157.883 Y102.185 E16.60905
G1 X157.983 Y103.884 E16.66565
G1 X157.983 Y106.066 E16.73823
G1 X157.868 Y107.995 E16.8025
G1 X157.651 Y109.768 E16.86191
G1 X157.247 Y111.984 E16.93683
G1 X156.836 Y113.679 E16.99484
G1 X156.222 Y115.68 E17.06445
G1 X155.567 Y117.435 E17.12676
G1 X154.729 Y119.336 E17.19586
G1 X153.863 Y120.992 E17.25801
G1 X152.816 Y122.764 E17.32647
G1 X151.674 Y124.437 E17.39384
G1 X150.413 Y126.055 E17.46207
G1 X149.185 Y127.463 E17.52421
G1 X147.731 Y128.925 E17.59279
G1 X146.274 Y130.227 E17.65778
G1 X144.866 Y131.352 E17.71772
G1 X143.184 Y132.543 E17.78627
G1 X141.39 Y133.641 E17.85623
G1 X139.82 Y134.486 E17.91553
G1 X137.9 Y135.373 E17.98587
G1 X136.011 Y136.108 E18.05329
G1 X134.208 Y136.694 E18.11635
G1 X132.251 Y137.194 E18.18353
G1 X130.569 Y137.525 E18.24054
G1 X128.183 Y137.85 E18.32063
G1 X126.541 Y137.971 E18.3754
G1 X124.515 Y137.999 E18.44279
G1 X122.281 Y137.884 E18.51719
G1 X120.579 Y137.702 E18.57412
G1 X118.708 Y137.4 E18.63716
G1 X116.582 Y136.907 E18.70974
G1 X114.742 Y136.361 E18.77358
G1 X112.846 Y135.677 E18.84062
G1 X111.221 Y134.984 E18.89938
G1 X109.432 Y134.093 E18.96585
G1 X107.779 Y133.146 E19.02921
G1 X105.991 Y131.977 E19.10026
G1 X104.485 Y130.845 E19.16292
G1 X102.929 Y129.538 E19.23051
G1 X101.408 Y128.072 E19.30077
G1 X100.181 Y126.756 E19.36062
G1 X98.793 Y125.055 E19.43364
G1 X97.776 Y123.651 E19.4913
G1 X96.73 Y122.017 E19.55583
G1 X95.623 Y120.025 E19.63163
G1 X94.849 Y118.412 E19.69113
G1 X94.095 Y116.579 E19.75705
G1 X93.474 Y114.724 E19.82212
G1 X92.956 Y112.881 E19.88579
G1 X92.551 Y110.973 E19.95066
G1 X92.212 Y108.748 E20.02552
G1 X92.056 Y106.893 E20.08744
G1 X92.002 Y104.88 E20.15441
G1 X92.057 Y103.05 E20.21531
G1 X92.225 Y101.152 E20.27868
G1 X92.535 Y99.089 E20.34807
G1 X92.932 Y97.19 E20.41259
G1 X93.504 Y95.152 E20.483
G1 X94.071 Y93.511 E20.54074
G1 X94.803 Y91.71 E20.6054
G1 X95.714 Y89.789 E20.67612
G1 X96.622 Y88.17 E20.73786
G1 X97.759 Y86.374 E20.80856
G1 X98.995 Y84.694 E20.87793
G1 X100.113 Y83.327 E20.93666
G0 F3600 X100.417 Y83.587
G1 F1800 X101.859 Y82.048 E21.00681
G1 X103.267 Y80.71 E21.07141
G1 X104.761 Y79.439 E21.13665
G1 X106.154 Y78.402 E21.19441
G1 X107.843 Y77.284 E21.26178
G1 X109.668 Y76.234 E21.33181
G1 X111.375 Y75.386 E21.3952
G1 X113.047 Y74.669 E21.45571
G1 X114.964 Y73.988 E21.52337
G1 X116.766 Y73.462 E21.58581
G1 X118.766 Y73.009 E21.65402
G1 X120.505 Y72.715 E21.71268
G1 X122.653 Y72.493 E21.7845
G1 X124.601 Y72.405 E21.84936
G1 X126.509 Y72.43 E21.91282
G1 X128.357 Y72.572 E21.97447
G1 X130.349 Y72.845 E22.04134
G1 X132.116 Y73.191 E22.10123
G1 X134.095 Y73.701 E22.1692
G1 X136.07 Y74.346 E22.2383
G1 X137.976 Y75.095 E22.30642
G1 X139.656 Y75.884 E22.36815
G1 X141.328 Y76.789 E22.43138
G1 X143.025 Y77.846 E22.49788
G1 X144.624 Y78.977 E22.56302
G1 X146.174 Y80.213 E22.62896
G1 X147.467 Y81.375 E22.68678
G1 X148.964 Y82.896 E22.75776
G1 X150.143 Y84.244 E22.81732
G1 X151.319 Y85.759 E22.88111
G1 X152.443 Y87.403 E22.94735
G1 X153.52 Y89.216 E23.01749
G1 X154.33 Y90.773 E23.07586
G1 X155.138 Y92.576 E23.14158
G1 X155.893 Y94.598 E23.21336
G1 X156.416 Y96.294 E23.27239
G1 X156.855 Y98.076 E23.33344
G1 X157.252 Y100.223 E23.40606
G1 X157.484 Y102.208 E23.47253
G1 X157.584 Y103.907 E23.52913
G1 X157.588 Y105.888 E23.59502
G1 X157.46 Y108.039 E23.66669
G1 X157.231 Y109.87 E23.72806
G1 X156.858 Y111.89 E23.79639
G1 X156.406 Y113.735 E23.85957
G1 X155.897 Y115.394 E23.91728
G1 X155.192 Y117.295 E23.98472
G1 X154.331 Y119.233 E24.05525
G1 X153.508 Y120.807 E24.11433
G1 X152.434 Y122.614 E24.18424
G1 X151.302 Y124.264 E24.2508
G1 X150.206 Y125.677 E24.31027
G1 X148.839 Y127.243 E24.37941
G1 X147.575 Y128.521 E24.4392
G1 X146.024 Y129.914 E24.50853
G1 X144.616 Y131.039 E24.56848
G1 X142.894 Y132.251 E24.63851
G1 X141.331 Y133.213 E24.69956
G1 X139.488 Y134.204 E24.76916
G1 X137.754 Y135.001 E24.83263
G1 X135.887 Y135.728 E24.89927
G1 X134.174 Y136.285 E24.95918
G1 X132.321 Y136.768 E25.02287
G1 X130.492 Y137.132 E25.08489
G1 X128.303 Y137.435 E25.1584
G1 X126.535 Y137.571 E25.21737
G1 X124.433 Y137.595 E25.28729
G1 X122.463 Y137.497 E25.35289
G1 X120.643 Y137.307 E25.41376
G1 X118.861 Y137.019 E25.47379
G1 X116.695 Y136.523 E25.5477
G1 X114.877 Y135.984 E25.61077
G1 X113.003 Y135.309 E25.67702
G1 X111.378 Y134.616 E25.73578
G1 X109.478 Y133.664 E25.80646
G1 X107.979 Y132.8 E25.86401
G1 X106.16 Y131.603 E25.93643
G1 X104.725 Y130.525 E25.99612
G1 X103.137 Y129.182 E26.0653
G1 X101.701 Y127.799 E26.13161
G1 X100.534 Y126.547 E26.18853
G1 X99.117 Y124.82 E26.26284
G1 X98.012 Y123.287 E26.32569
G1 X97.067 Y121.802 E26.38423
G1 X96.051 Y119.983 E26.45353
G1 X95.219 Y118.26 E26.51717
G1 X94.503 Y116.519 E26.57978
G1 X93.854 Y114.597 E26.64725
G1 X93.328 Y112.704 E26.7126
G1 X92.915 Y110.735 E26.77951
G1 X92.604 Y108.626 E26.85042
G1 X92.456 Y106.881 E26.90866
G1 X92.402 Y104.892 E26.97484
G1 X92.457 Y103.062 E27.03574
G1 X92.602 Y101.37 E27.09222
G1 X92.958 Y98.997 E27.17203
G1 X93.304 Y97.362 E27.22761
G1 X93.835 Y95.435 E27.29409
G1 X94.501 Y93.506 E27.36197
G1 X95.233 Y91.727 E27.42595
G1 X96.114 Y89.892 E27.49365
G1 X97.044 Y88.242 E27.55665
G1 X98.041 Y86.675 E27.61842
G1 X99.305 Y84.947 E27.68963
G1 X100.417 Y83.587 E27.74806
G0 F3600 X100.767 Y83.798
G1 F1800 X102.135 Y82.337 E27.81463
G1 X103.438 Y81.094 E27.87453
G1 X105 Y79.76 E27.94285
G1 X106.393 Y78.723 E28.00061
G1 X108.063 Y77.618 E28.06721
G1 X109.732 Y76.653 E28.13133
G1 X111.533 Y75.754 E28.19828
G1 X113.205 Y75.037 E28.25879
G1 X115.077 Y74.372 E28.32486
G1 X117.01 Y73.812 E28.3918
G1 X118.714 Y73.427 E28.4499
G1 X120.571 Y73.11 E28.51256
G1 X122.672 Y72.892 E28.58282
G1 X124.463 Y72.807 E28.64245
G1 X126.504 Y72.83 E28.71034
G1 X128.303 Y72.968 E28.77035
G1 X130.295 Y73.241 E28.83722
G1 X132.038 Y73.583 E28.8963
G1 X134.124 Y74.126 E28.968
G1 X135.924 Y74.718 E29.03102
G1 X137.675 Y75.401 E29.09353
G1 X139.466 Y76.236 E29.15926
G1 X141 Y77.061 E29.21719
G1 X142.795 Y78.173 E29.28742
G1 X144.275 Y79.215 E29.34762
G1 X145.907 Y80.511 E29.41693
G1 X147.2 Y81.673 E29.47475
G1 X148.575 Y83.065 E29.53983
G1 X149.927 Y84.611 E29.60814
G1 X151.002 Y86.003 E29.66664
G1 X152.112 Y87.628 E29.73209
G1 X153.165 Y89.401 E29.80067
G1 X154.033 Y91.078 E29.86348
G1 X154.773 Y92.739 E29.92396
G1 X155.469 Y94.595 E29.98989
G1 X156.033 Y96.412 E30.05317
G1 X156.492 Y98.291 E30.1175
G1 X156.855 Y100.27 E30.18442
G1 X157.073 Y102.101 E30.24575
G1 X157.188 Y104.06 E30.31102
G1 X157.188 Y105.888 E30.37182
G1 X157.063 Y107.991 E30.44189
G1 X156.857 Y109.671 E30.49818
G1 X156.469 Y111.795 E30.57
G1 X156.058 Y113.49 E30.62801
G1 X155.472 Y115.4 E30.69446
G1 X154.767 Y117.279 E30.76121
G1 X154.038 Y118.921 E30.82096
G1 X153.154 Y120.621 E30.88469
G1 X152.104 Y122.388 E30.95305
G1 X151.065 Y123.91 E31.01435
G1 X149.81 Y125.529 E31.08248
G1 X148.554 Y126.962 E31.14586
G1 X147.196 Y128.33 E31.20997
G1 X145.871 Y129.52 E31.2692
G1 X144.366 Y130.727 E31.33337
G1 X142.684 Y131.911 E31.40178
G1 X141.121 Y132.873 E31.46282
G1 X139.441 Y133.781 E31.52634
G1 X137.728 Y134.577 E31.58917
G1 X135.886 Y135.303 E31.65502
G1 X133.92 Y135.942 E31.72377
G1 X132.097 Y136.409 E31.78637
G1 X130.415 Y136.74 E31.84338
G1 X128.249 Y137.039 E31.91611
G1 X126.53 Y137.171 E31.97345
G1 X124.593 Y137.198 E32.03788
G1 X122.364 Y137.088 E32.11211
G1 X120.707 Y136.912 E32.16753
G1 X118.925 Y136.624 E32.22757
G1 X116.808 Y136.14 E32.2998
G1 X115.132 Y135.647 E32.3579
G1 X113.16 Y134.941 E32.42757
G1 X111.535 Y134.248 E32.48633
G1 X109.79 Y133.378 E32.55118
G1 X108.178 Y132.453 E32.61299
G1 X106.513 Y131.362 E32.6792
G1 X104.868 Y130.127 E32.74762
G1 X103.518 Y128.987 E32.80639
G1 X101.994 Y127.526 E32.8766
G1 X100.735 Y126.169 E32.93817
G1 X99.441 Y124.586 E33.00617
G1 X98.424 Y123.182 E33.06384
G1 X97.338 Y121.475 E33.13113
G1 X96.401 Y119.789 E33.19528
G1 X95.589 Y118.108 E33.25737
