;FLAVOR:Marlin
;TIME:4957
;Filament used: 7.27798m
;Layer height: 0.3
;MINX:79.42
;MINY:53.804
;MINZ:0.2
;MAXX:170.58
;MAXY:156.191
;MAXZ:10.7
;Generated with Cura_SteamEngine 4.13.1
M82 ;absolute extrusion mode
G21 ; set units to millimeters
G90 ; use absolute positioning
M82 ; absolute extrusion mode
M104 S210.0 ; set extruder temp
M140 S60 ; set bed temp
M190 S60 ; wait for bed temp
M109 S210.0 ; wait for extruder temp
G28 W ; home all without mesh bed level
G80 ; mesh bed leveling
G92 E0.0 ; reset extruder distance position
G1 Y-3.0 F1000.0 ; go outside print area
G1 X60.0 E9.0 F1000.0 ; intro line
G1 X100.0 E21.5 F1000.0 ; intro line
G92 E0.0 ; reset extruder distance position
G92 E0
G92 E0
G1 F2100 E-0.8
;LAYER_COUNT:36
;LAYER:0
M107
G0 F3600 X81.816 Y77.822 Z0.2
;TYPE:SKIRT
G1 F2100 E0
G1 F1800 X82.351 Y77.282 E0.02528
G1 X82.72 Y76.943 E0.04195
G1 X83.129 Y76.626 E0.05916
G1 X83.55 Y76.322 E0.07643
G1 X84.061 Y76.01 E0.09634
G1 X84.613 Y75.722 E0.11705
G1 X84.884 Y75.596 E0.12699
G1 X85.575 Y75.314 E0.15182
G1 X86.149 Y75.102 E0.17217
G1 X88.097 Y74.421 E0.2408
G1 X90.606 Y73.463 E0.33013
G1 X93.18 Y72.398 E0.42278
G1 X95.662 Y71.286 E0.51324
G1 X98.118 Y70.101 E0.60394
G1 X100.568 Y68.834 E0.69567
G1 X102.967 Y67.504 E0.78691
G1 X105.314 Y66.115 E0.87762
G1 X107.621 Y64.662 E0.9683
G1 X109.926 Y63.116 E1.06061
G1 X112.111 Y61.56 E1.14983
G1 X114.329 Y59.882 E1.24233
G1 X116.443 Y58.188 E1.33243
G1 X118.298 Y56.602 E1.41361
G1 X119.124 Y55.911 E1.44942
G1 X119.725 Y55.456 E1.4745
G1 X120.298 Y55.09 E1.49711
G1 X120.881 Y54.766 E1.51929
G1 X121.74 Y54.394 E1.55043
G1 X122.401 Y54.177 E1.57357
G1 X123.01 Y54.017 E1.59451
G1 X123.61 Y53.905 E1.61481
G1 X124.192 Y53.838 E1.6343
G1 X124.894 Y53.804 E1.65767
G1 X125.43 Y53.813 E1.6755
G1 X125.76 Y53.836 E1.68651
G1 X126.389 Y53.912 E1.70758
G1 X127.027 Y54.027 E1.72914
G1 X127.432 Y54.134 E1.74307
G1 X127.958 Y54.291 E1.76133
G1 X128.45 Y54.471 E1.77875
G1 X128.995 Y54.711 E1.79856
G1 X129.678 Y55.078 E1.82435
G1 X130.281 Y55.457 E1.84804
G1 X130.76 Y55.816 E1.86795
G1 X131.717 Y56.621 E1.90954
G1 X132.718 Y57.489 E1.95361
G1 X134.863 Y59.248 E2.04587
G1 X137.026 Y60.921 E2.13682
G1 X139.205 Y62.512 E2.22656
G1 X141.467 Y64.065 E2.31782
G1 X143.804 Y65.575 E2.41036
G1 X146.105 Y66.97 E2.49986
G1 X148.504 Y68.334 E2.59164
G1 X150.926 Y69.621 E2.68287
G1 X153.383 Y70.84 E2.77409
G1 X155.87 Y71.987 E2.86518
G1 X158.387 Y73.061 E2.9562
G1 X160.917 Y74.06 E3.04667
G1 X164.017 Y75.172 E3.15621
G1 X164.51 Y75.344 E3.17358
G1 X165.272 Y75.663 E3.20105
G1 X165.907 Y75.995 E3.22489
G1 X166.382 Y76.279 E3.24329
G1 X166.833 Y76.596 E3.26163
G1 X167.33 Y76.981 E3.28254
G1 X167.757 Y77.379 E3.30195
G1 X168.257 Y77.897 E3.3259
G1 X168.561 Y78.265 E3.34177
G1 X168.898 Y78.712 E3.36039
G1 X169.267 Y79.286 E3.38309
G1 X169.562 Y79.809 E3.40306
G1 X169.817 Y80.354 E3.42307
G1 X170.044 Y80.924 E3.44348
G1 X170.227 Y81.505 E3.46374
G1 X170.26 Y81.629 E3.46801
G1 X170.387 Y82.144 E3.48565
G1 X170.503 Y82.869 E3.51007
G1 X170.56 Y83.441 E3.52919
G1 X170.58 Y84.001 E3.54783
G1 X170.564 Y84.678 E3.57035
G1 X170.482 Y85.365 E3.59336
G1 X170.231 Y86.772 E3.6409
G1 X169.997 Y87.982 E3.68189
G1 X169.562 Y90.624 E3.77095
G1 X169.192 Y93.349 E3.86241
G1 X168.9 Y96.088 E3.95403
G1 X168.687 Y98.795 E4.04434
G1 X168.549 Y101.551 E4.13612
G1 X168.49 Y104.252 E4.22598
G1 X168.508 Y107.017 E4.31794
G1 X168.603 Y109.735 E4.4084
G1 X168.776 Y112.482 E4.49995
G1 X169.027 Y115.221 E4.59143
G1 X169.353 Y117.926 E4.68205
G1 X169.755 Y120.625 E4.77281
G1 X170.344 Y123.847 E4.88175
G1 X170.442 Y124.405 E4.90059
G1 X170.527 Y124.976 E4.91979
G1 X170.57 Y125.527 E4.93817
G1 X170.578 Y126.162 E4.95929
G1 X170.515 Y127.017 E4.98781
G1 X170.393 Y127.821 E5.01486
G1 X170.295 Y128.216 E5.02839
G1 X170.16 Y128.725 E5.04591
G1 X169.912 Y129.421 E5.07048
G1 X169.569 Y130.185 E5.09834
G1 X169.283 Y130.689 E5.11761
G1 X168.936 Y131.241 E5.1393
G1 X168.717 Y131.537 E5.15154
G1 X168.344 Y132.005 E5.17145
G1 X167.846 Y132.533 E5.19559
G1 X167.376 Y132.967 E5.21686
G1 X167.229 Y133.09 E5.22324
G1 X166.768 Y133.45 E5.24269
G1 X166.209 Y133.832 E5.26521
G1 X165.633 Y134.156 E5.28719
G1 X165.096 Y134.419 E5.30708
G1 X164.529 Y134.647 E5.32741
G1 X163.731 Y134.939 E5.35567
G1 X161.886 Y135.585 E5.42069
G1 X159.326 Y136.563 E5.51184
G1 X156.802 Y137.609 E5.60271
G1 X154.301 Y138.73 E5.69386
G1 X151.846 Y139.915 E5.78453
G1 X149.397 Y141.184 E5.87627
G1 X146.988 Y142.519 E5.96788
G1 X144.663 Y143.896 E6.05775
G1 X142.321 Y145.374 E6.14986
G1 X140.082 Y146.876 E6.23954
G1 X137.818 Y148.489 E6.33199
G1 X135.644 Y150.136 E6.42271
G1 X133.516 Y151.841 E6.5134
G1 X131.261 Y153.761 E6.61191
G1 X130.979 Y154.004 E6.62429
G1 X130.508 Y154.379 E6.64431
G1 X130.226 Y154.58 E6.65583
G1 X129.711 Y154.905 E6.67608
G1 X129.132 Y155.225 E6.69809
G1 X128.234 Y155.613 E6.73062
G1 X127.725 Y155.785 E6.74849
G1 X127.602 Y155.821 E6.75276
G1 X127.04 Y155.971 E6.7721
G1 X126.304 Y156.101 E6.79696
G1 X125.506 Y156.181 E6.82364
G1 X124.941 Y156.191 E6.84243
G1 X124.301 Y156.169 E6.86373
G1 X123.816 Y156.119 E6.87995
G1 X123.293 Y156.038 E6.89755
G1 X122.781 Y155.927 E6.91497
G1 X122.625 Y155.885 E6.92035
G1 X122.064 Y155.721 E6.93979
G1 X121.338 Y155.439 E6.96569
G1 X120.594 Y155.082 E6.99314
G1 X120.123 Y154.799 E7.01141
G1 X119.669 Y154.508 E7.02935
G1 X119.23 Y154.176 E7.04766
G1 X118.427 Y153.503 E7.0825
G1 X116.956 Y152.237 E7.14705
G1 X114.858 Y150.532 E7.23697
G1 X112.661 Y148.845 E7.3291
G1 X110.453 Y147.25 E7.4197
G1 X108.184 Y145.704 E7.51102
G1 X105.889 Y144.235 E7.60165
G1 X103.552 Y142.831 E7.69232
G1 X101.122 Y141.463 E7.78507
G1 X98.75 Y140.214 E7.87424
G1 X96.263 Y138.993 E7.96638
G1 X93.761 Y137.852 E8.05785
G1 X91.276 Y136.802 E8.14757
G1 X88.673 Y135.786 E8.24051
G1 X86.16 Y134.89 E8.32925
G1 X85.637 Y134.711 E8.34763
G1 X85.506 Y134.662 E8.35228
G1 X85.016 Y134.47 E8.36979
G1 X84.685 Y134.319 E8.38189
G1 X84.113 Y134.016 E8.40342
G1 X83.603 Y133.711 E8.42318
G1 X83.273 Y133.48 E8.43658
G1 X82.809 Y133.127 E8.45597
G1 X82.267 Y132.641 E8.48018
G1 X81.873 Y132.245 E8.49876
G1 X81.412 Y131.698 E8.52256
G1 X81.087 Y131.267 E8.54051
G1 X80.733 Y130.709 E8.56249
G1 X80.683 Y130.624 E8.56577
G1 X80.434 Y130.179 E8.58273
G1 X80.209 Y129.705 E8.60018
G1 X80.157 Y129.582 E8.60462
G1 X79.943 Y129.044 E8.62388
G1 X79.757 Y128.447 E8.64468
G1 X79.611 Y127.845 E8.66528
G1 X79.495 Y127.08 E8.69102
G1 X79.436 Y126.483 E8.71097
G1 X79.423 Y125.886 E8.73083
G1 X79.445 Y125.29 E8.75067
G1 X79.503 Y124.731 E8.76936
G1 X79.526 Y124.58 E8.77444
G1 X79.681 Y123.697 E8.80426
G1 X80.072 Y121.634 E8.87409
G1 X80.502 Y118.937 E8.96493
G1 X80.863 Y116.189 E9.05711
G1 X81.139 Y113.491 E9.14732
G1 X81.34 Y110.775 E9.2379
G1 X81.466 Y108.026 E9.32943
G1 X81.513 Y105.275 E9.42094
G1 X81.483 Y102.557 E9.51135
G1 X81.375 Y99.804 E9.60298
G1 X81.189 Y97.061 E9.69442
G1 X80.928 Y94.348 E9.78507
G1 X80.592 Y91.655 E9.87534
G1 X80.171 Y88.917 E9.96748
G1 X79.657 Y86.148 E10.06115
G1 X79.548 Y85.518 E10.08241
G1 X79.47 Y84.999 E10.09987
G1 X79.428 Y84.467 E10.11762
G1 X79.42 Y83.961 E10.13445
G1 X79.44 Y83.447 E10.15156
G1 X79.494 Y82.91 E10.16951
G1 X79.612 Y82.159 E10.19479
G1 X79.749 Y81.603 E10.21384
G1 X79.927 Y81.015 E10.23427
G1 X80.136 Y80.482 E10.25331
G1 X80.423 Y79.841 E10.27667
G1 X80.61 Y79.499 E10.28964
G1 X80.901 Y79.009 E10.30859
G1 X81.349 Y78.381 E10.33425
G1 X81.816 Y77.822 E10.35848
G0 F3600 X84.262 Y80.162
;TYPE:SUPPORT
G1 F1800 X84.313 Y80.108 E10.36095
G1 X84.856 Y79.578 E10.38618
G1 X84.904 Y79.538 E10.38826
G1 X85.522 Y79.079 E10.41387
G1 X86.211 Y78.702 E10.43999
G1 X86.965 Y78.414 E10.46683
G1 X87.738 Y78.237 E10.49321
G1 X88.519 Y78.167 E10.51929
G1 X89.346 Y78.205 E10.54682
G1 X90.122 Y78.348 E10.57307
G1 X90.864 Y78.589 E10.59902
G1 X90.921 Y78.614 E10.60109
G1 X91.488 Y78.891 E10.62208
G1 X91.567 Y78.932 E10.62504
G1 X94.339 Y80.524 E10.73136
G1 X97.702 Y82.47 E10.86059
G1 X97.333 Y82.887 E10.87911
G1 X96.377 Y84.188 E10.9328
G1 X96.106 Y84.49 E10.9463
G1 X94.794 Y86.533 E11.02706
G1 X94.201 Y87.565 E11.06664
G1 X92.58 Y90.372 E11.17445
G1 X92.588 Y90.765 E11.18753
G1 X92.329 Y91.382 E11.20978
G1 X92.142 Y91.796 E11.22489
G1 X91.834 Y92.618 E11.25409
G1 X88.466 Y90.68 E11.38333
G1 X85.738 Y89.101 E11.48817
G1 X85.097 Y88.669 E11.51388
G1 X84.484 Y88.129 E11.54105
G1 X83.949 Y87.5 E11.56851
G1 X83.521 Y86.827 E11.59504
G1 X83.195 Y86.113 E11.62115
G1 X83.139 Y85.921 E11.6278
G1 X82.96 Y85.343 E11.64792
G1 X82.824 Y84.509 E11.67603
G1 X82.814 Y83.768 E11.70068
G1 X82.907 Y82.952 E11.72799
G1 X82.976 Y82.691 E11.73697
G1 X83.098 Y82.2 E11.7538
G1 X83.41 Y81.443 E11.78103
G1 X83.804 Y80.758 E11.80731
G1 X83.84 Y80.707 E11.80939
G1 X84.262 Y80.162 E11.83232
G0 F3600 X86.808 Y82.444
G1 F1800 X86.474 Y82.93 E11.85193
G1 X86.318 Y83.381 E11.8678
G1 X86.214 Y83.905 E11.88557
G1 X86.28 Y84.616 E11.90932
G1 X86.505 Y85.168 E11.92915
G1 X86.772 Y85.568 E11.94514
G1 X87.166 Y85.974 E11.96396
G1 X87.717 Y86.288 E11.98505
G1 X88.262 Y86.439 E12.00386
G1 X88.83 Y86.477 E12.0228
G1 X89.376 Y86.371 E12.0413
G1 X89.878 Y86.155 E12.05947
G1 X90.408 Y85.77 E12.08126
G1 X90.717 Y85.349 E12.09863
G1 X90.989 Y84.875 E12.11681
G1 X91.105 Y84.266 E12.13743
G1 X91.105 Y83.753 E12.15449
G1 X90.967 Y83.167 E12.17451
G1 X90.705 Y82.666 E12.19332
G1 X90.343 Y82.232 E12.21211
G1 X89.901 Y81.907 E12.23036
G1 X89.369 Y81.669 E12.24974
G1 X88.817 Y81.584 E12.26832
G1 X88.289 Y81.598 E12.28589
G1 X87.714 Y81.769 E12.30584
G1 X87.178 Y82.073 E12.32634
G1 X86.808 Y82.444 E12.34376
G0 F3600 X86.454 Y82.677
G1 F1800 X83.145 Y82.677 E12.45382
G0 F3600 X83.127 Y85.344
G1 F1800 X86.43 Y85.344 E12.56368
G0 F3600 X88.011 Y86.535
G1 F1800 X88.011 Y90.232 E12.68664
G0 F3600 X88.782 Y90.678
G1 F1800 X92.426 Y90.678 E12.80784
G0 F3600 X90.678 Y91.767
G1 F1800 X90.678 Y85.671 E13.0106
G0 F3600 X90.904 Y85.344
G1 F1800 X95.367 Y85.344 E13.15904
G0 F3600 X96.012 Y84.355
G1 F1800 X96.012 Y81.677 E13.24811
G0 F3600 X97.304 Y82.677
G1 F1800 X90.891 Y82.677 E13.4614
G0 F3600 X90.678 Y82.384
G1 F1800 X90.678 Y78.697 E13.58403
G0 F3600 X88.011 Y78.372
G1 F1800 X88.011 Y81.514 E13.68854
G0 F3600 X85.344 Y79.41
G1 F1800 X85.344 Y88.642 E13.99559
G0 F3600 X84.593 Y88.011
G1 F1800 X93.759 Y88.011 E14.30046
G0 F3600 X93.345 Y88.729
G1 F1800 X93.345 Y80.138 E14.58619
G0 F3600 X93.124 Y80.01
G1 F1800 X84.643 Y80.01 E14.86827
G0 F3600 X119.138 Y70.084
G1 F1800 X119.131 Y66.292 E14.9944
G1 X119.139 Y63.006 E15.10369
G1 X119.185 Y62.34 E15.12589
G1 X119.352 Y61.477 E15.15513
G1 X119.635 Y60.691 E15.18291
G1 X120.001 Y59.993 E15.20913
G1 X120.448 Y59.362 E15.23485
G1 X121.01 Y58.754 E15.26239
G1 X121.524 Y58.334 E15.28446
G1 X121.638 Y58.249 E15.28919
G1 X122.295 Y57.847 E15.31481
G1 X123.032 Y57.529 E15.34151
G1 X123.837 Y57.304 E15.36931
G1 X124.546 Y57.204 E15.39312
G1 X124.584 Y57.202 E15.39439
G1 X125.375 Y57.202 E15.4207
G1 X125.467 Y57.209 E15.42377
G1 X126.169 Y57.308 E15.44735
G1 X126.982 Y57.537 E15.47544
G1 X127.665 Y57.831 E15.50017
G1 X127.777 Y57.895 E15.50446
G1 X128.373 Y58.256 E15.52764
G1 X128.416 Y58.287 E15.5294
G1 X128.983 Y58.752 E15.55379
G1 X129.561 Y59.365 E15.58181
G1 X129.999 Y59.989 E15.60717
G1 X130.363 Y60.689 E15.63341
G1 X130.641 Y61.462 E15.66073
G1 X130.8 Y62.236 E15.68701
G1 X130.862 Y63.061 E15.71453
G1 X130.868 Y66.161 E15.81764
G1 X130.86 Y70.034 E15.94645
G1 X130.653 Y69.956 E15.95381
G1 X129.053 Y69.839 E16.00717
G1 X128.595 Y69.791 E16.02249
G1 X126.753 Y69.557 E16.08424
G1 X126.102 Y69.617 E16.10599
G1 X125.582 Y69.608 E16.12329
G1 X125.045 Y69.598 E16.14115
G1 X124.245 Y69.612 E16.16776
G1 X124.117 Y69.612 E16.17202
G1 X123.571 Y69.629 E16.19019
G1 X122.047 Y69.629 E16.24088
G1 X121.569 Y69.771 E16.25746
G1 X120.961 Y69.835 E16.27779
G1 X120.324 Y69.902 E16.2991
G1 X119.676 Y70.005 E16.32092
G1 X119.138 Y70.084 E16.33901
G0 F3600 X122.779 Y64.093
G1 F1800 X123.098 Y64.598 E16.35887
G1 X123.574 Y65.055 E16.38082
G1 X124.066 Y65.305 E16.39918
G1 X124.54 Y65.463 E16.41579
G1 X125.146 Y65.494 E16.43598
G1 X125.681 Y65.4 E16.45404
G1 X126.22 Y65.182 E16.47338
G1 X126.694 Y64.817 E16.49328
G1 X127.046 Y64.395 E16.51156
G1 X127.312 Y63.875 E16.53098
G1 X127.435 Y63.311 E16.55018
G1 X127.435 Y62.762 E16.56844
G1 X127.294 Y62.179 E16.58839
G1 X127.043 Y61.707 E16.60617
G1 X126.703 Y61.279 E16.62435
G1 X126.188 Y60.901 E16.6456
G1 X125.689 Y60.703 E16.66346
G1 X125.156 Y60.603 E16.68149
G1 X124.543 Y60.638 E16.70192
G1 X124.023 Y60.811 E16.72014
G1 X123.557 Y61.053 E16.73761
G1 X123.119 Y61.477 E16.75788
G1 X122.798 Y61.968 E16.77739
G1 X122.63 Y62.459 E16.79465
G1 X122.54 Y63.031 E16.81391
G1 X122.617 Y63.583 E16.83245
G1 X122.779 Y64.093 E16.85025
G1 X122.682 Y64.24
G1 X122.682 Y69.469 E17.02417
G0 F3600 X125.349 Y69.443
G1 F1800 X125.349 Y65.621 E17.15129
G0 F3600 X127.424 Y64.008
G1 F1800 X130.704 Y64.008 E17.26038
G0 F3600 X130.683 Y62.807
G1 F1800 X130.683 Y69.797 E17.49287
G0 F3600 X130.701 Y69.342
G1 F1800 X119.296 Y69.342 E17.8722
G0 F3600 X120.015 Y69.79
G1 F1800 X120.015 Y60.309 E18.18754
G0 F3600 X119.57 Y61.341
G1 F1800 X123.029 Y61.341 E18.30259
G0 F3600 X122.682 Y61.854
G1 F1800 X122.682 Y57.854 E18.43563
G0 F3600 X121.361 Y58.674
G1 F1800 X128.635 Y58.674 E18.67756
G0 F3600 X128.016 Y58.227
G1 F1800 X128.016 Y69.556 E19.05436
G0 F3600 X130.707 Y66.675
G1 F1800 X119.291 Y66.675 E19.43406
G0 F3600 X119.297 Y64.008
G1 F1800 X122.584 Y64.008 E19.54339
G0 F3600 X125.349 Y60.476
G1 F1800 X125.349 Y57.362 E19.64696
G0 F3600 X126.958 Y61.341
G1 F1800 X130.429 Y61.341 E19.76241
G0 F3600 X152.301 Y82.472
G1 F1800 X155.592 Y80.563 E19.88895
G1 X158.419 Y78.937 E19.99742
G1 X159.097 Y78.603 E20.02256
G1 X159.846 Y78.353 E20.04882
G1 X160.726 Y78.199 E20.07853
G1 X161.484 Y78.166 E20.10377
G1 X162.236 Y78.236 E20.12889
G1 X163.062 Y78.428 E20.15709
G1 X163.774 Y78.695 E20.18238
G1 X164.487 Y79.085 E20.20941
G1 X165.159 Y79.585 E20.23727
G1 X165.693 Y80.112 E20.26223
G1 X166.188 Y80.747 E20.28901
G1 X166.602 Y81.463 E20.31651
G1 X166.887 Y82.16 E20.34156
G1 X167.095 Y82.957 E20.36896
G1 X167.186 Y83.764 E20.39597
G1 X167.176 Y84.54 E20.42178
G1 X167.047 Y85.324 E20.44821
G1 X166.806 Y86.115 E20.47571
G1 X166.471 Y86.84 E20.50227
G1 X166.051 Y87.504 E20.5284
G1 X165.958 Y87.607 E20.53302
G1 X165.512 Y88.132 E20.55593
G1 X165.423 Y88.208 E20.55982
G1 X164.912 Y88.663 E20.58258
G1 X164.238 Y89.117 E20.60961
G1 X161.521 Y90.688 E20.714
G1 X158.338 Y92.52 E20.83615
G1 X158.169 Y92.631 E20.84287
G1 X158.054 Y92.324 E20.85377
G1 X158.066 Y91.914 E20.86742
G1 X157.304 Y90.432 E20.92284
G1 X157.218 Y90.042 E20.93613
G1 X156.436 Y88.672 E20.98859
G1 X155.762 Y87.501 E21.03353
G1 X155.581 Y87.126 E21.04738
G1 X154.695 Y85.729 E21.1024
G1 X154.493 Y85.439 E21.11416
G1 X154.149 Y84.91 E21.13514
G1 X152.908 Y83.133 E21.20723
G1 X152.301 Y82.472 E21.23708
G0 F3600 X159.2 Y82.8
G1 F1800 X158.961 Y83.382 E21.25801
G1 X158.876 Y83.974 E21.2779
G1 X158.948 Y84.604 E21.29899
G1 X159.126 Y85.09 E21.3162
G1 X159.424 Y85.573 E21.33508
G1 X159.922 Y86.043 E21.35786
G1 X160.362 Y86.262 E21.3742
G1 X160.888 Y86.451 E21.39279
G1 X161.482 Y86.465 E21.41256
G1 X162.049 Y86.377 E21.43164
G1 X162.556 Y86.137 E21.4503
G1 X162.982 Y85.846 E21.46746
G1 X163.366 Y85.387 E21.48736
G1 X163.641 Y84.859 E21.50716
G1 X163.765 Y84.279 E21.52689
G1 X163.765 Y83.757 E21.54425
G1 X163.635 Y83.2 E21.56327
G1 X163.388 Y82.68 E21.58242
G1 X162.943 Y82.164 E21.60508
G1 X162.515 Y81.893 E21.62193
G1 X162.089 Y81.69 E21.63763
G1 X161.492 Y81.581 E21.65781
G1 X160.912 Y81.601 E21.67711
G1 X160.367 Y81.78 E21.69619
G1 X159.892 Y82.027 E21.714
G1 X159.492 Y82.419 E21.73263
G1 X159.2 Y82.8 E21.74859
G1 X159.091 Y82.677
G1 X152.707 Y82.677 E21.96093
G0 F3600 X154.686 Y81.272
G1 F1800 X154.686 Y85.435 E22.09939
G1 X154.623 Y85.344
G1 X159.096 Y85.344 E22.24816
G0 F3600 X160.02 Y86.271
G1 F1800 X160.02 Y91.368 E22.41769
G0 F3600 X161.216 Y90.678
G1 F1800 X157.61 Y90.678 E22.53762
G0 F3600 X157.353 Y89.955
G1 F1800 X157.353 Y79.734 E22.87758
G0 F3600 X156.873 Y80.01
G1 F1800 X165.364 Y80.01 E23.15999
