;FLAVOR:Marlin
;TIME:4395
;Filament used: 3.27429m
;Layer height: 0.2
;MINX:105.448
;MINY:85.428
;MINZ:0.2
;MAXX:144.583
;MAXY:124.571
;MAXZ:39.2
;Generated with Cura_SteamEngine 4.13.1
M82 ;absolute extrusion mode
G21 ; set units to millimeters
G90 ; use absolute positioning
M82 ; absolute extrusion mode
M104 S210 ; set extruder temp
M140 S60 ; set bed temp
M190 S60 ; wait for bed temp
M109 S210 ; wait for extruder temp
G28 W ; home all without mesh bed level
G80 ; mesh bed leveling
G92 E0.0 ; reset extruder distance position
G1 Y-3.0 F1000.0 ; go outside print area
G1 X60.0 E9.0 F1000.0 ; intro line
G1 X100.0 E21.5 F1000.0 ; intro line
G92 E0.0 ; reset extruder distance position
G92 E0
G92 E0
G1 F2100 E-0.8
;LAYER_COUNT:196
;LAYER:0
M107
G0 F3600 X109.916 Y92.542 Z0.2
;TYPE:SKIRT
G1 F2100 E0
G1 F1800 X110.705 Y91.643 E0.03978
G1 X111.258 Y91.073 E0.0662
G1 X112.145 Y90.249 E0.10647
G1 X112.778 Y89.721 E0.13388
G1 X113.77 Y88.978 E0.1751
G1 X114.439 Y88.529 E0.2019
G1 X115.451 Y87.923 E0.24113
G1 X116.151 Y87.551 E0.2675
G1 X117.296 Y87.015 E0.30955
G1 X118.009 Y86.723 E0.33518
G1 X119.03 Y86.363 E0.37118
G1 X119.846 Y86.124 E0.39946
G1 X121.196 Y85.808 E0.44558
G1 X121.952 Y85.67 E0.47114
G1 X123.011 Y85.53 E0.50667
G1 X123.668 Y85.472 E0.5286
G1 X124.462 Y85.436 E0.55504
G1 X125.332 Y85.428 E0.58398
G1 X125.937 Y85.451 E0.60411
G1 X127.159 Y85.546 E0.64488
G1 X127.941 Y85.647 E0.67111
G1 X128.987 Y85.836 E0.70646
G1 X129.575 Y85.965 E0.72648
G1 X129.911 Y86.054 E0.73804
G1 X131.011 Y86.372 E0.77613
G1 X131.786 Y86.641 E0.80341
G1 X132.943 Y87.112 E0.84496
G1 X133.684 Y87.46 E0.87219
G1 X134.754 Y88.033 E0.91256
G1 X135.399 Y88.419 E0.93756
G1 X136.398 Y89.085 E0.97749
G1 X137.066 Y89.584 E1.00523
G1 X137.981 Y90.347 E1.04485
G1 X138.565 Y90.887 E1.07131
G1 X139.462 Y91.805 E1.114
G1 X139.997 Y92.412 E1.14091
G1 X140.722 Y93.327 E1.17974
G1 X141.219 Y94.032 E1.20842
G1 X141.857 Y95.051 E1.24841
G1 X142.21 Y95.676 E1.27229
G1 X142.754 Y96.754 E1.31245
G1 X143.083 Y97.502 E1.33963
G1 X143.523 Y98.662 E1.38089
G1 X143.778 Y99.46 E1.40875
G1 X144.075 Y100.599 E1.4479
G1 X144.231 Y101.347 E1.47332
G1 X144.439 Y102.66 E1.51753
G1 X144.524 Y103.467 E1.54452
G1 X144.572 Y104.373 E1.5747
G1 X144.583 Y105.159 E1.60084
G1 X144.572 Y105.575 E1.61468
G1 X144.518 Y106.585 E1.64832
G1 X144.438 Y107.357 E1.67414
G1 X144.252 Y108.564 E1.71476
G1 X144.085 Y109.367 E1.74204
G1 X143.768 Y110.568 E1.78335
G1 X143.526 Y111.325 E1.80978
G1 X143.081 Y112.507 E1.85179
G1 X142.764 Y113.234 E1.87817
G1 X142.248 Y114.271 E1.91669
G1 X141.802 Y115.051 E1.94658
G1 X141.11 Y116.114 E1.98877
G1 X140.686 Y116.703 E2.0129
G1 X139.938 Y117.647 E2.05296
G1 X139.423 Y118.235 E2.07896
G1 X138.606 Y119.077 E2.11798
G1 X138.013 Y119.627 E2.14488
G1 X137.095 Y120.395 E2.18469
G1 X136.427 Y120.896 E2.21246
G1 X135.43 Y121.563 E2.25236
G1 X134.774 Y121.957 E2.27781
G1 X133.67 Y122.548 E2.31946
G1 X132.905 Y122.906 E2.34755
G1 X131.838 Y123.336 E2.38582
G1 X131.124 Y123.584 E2.41096
G1 X129.87 Y123.953 E2.45443
G1 X129.081 Y124.141 E2.48141
G1 X127.919 Y124.355 E2.52071
G1 X127.629 Y124.403 E2.53048
G1 X127.026 Y124.473 E2.55067
G1 X126.025 Y124.549 E2.58406
G1 X125.434 Y124.571 E2.60373
G1 X124.5 Y124.552 E2.63481
G1 X123.91 Y124.536 E2.65444
G1 X123.407 Y124.504 E2.6712
G1 X122.752 Y124.437 E2.6931
G1 X121.96 Y124.333 E2.71967
G1 X121.201 Y124.194 E2.74533
G1 X120.05 Y123.925 E2.78465
G1 X119.346 Y123.726 E2.80898
G1 X118.048 Y123.291 E2.85451
G1 X117.177 Y122.939 E2.88576
G1 X116.092 Y122.423 E2.92572
G1 X115.435 Y122.071 E2.95051
G1 X114.453 Y121.483 E2.98858
G1 X113.78 Y121.031 E3.01554
G1 X112.776 Y120.278 E3.05728
G1 X112.114 Y119.722 E3.08603
G1 X111.182 Y118.846 E3.12858
G1 X110.67 Y118.317 E3.15306
G1 X109.933 Y117.48 E3.19016
G1 X109.436 Y116.854 E3.21674
G1 X108.715 Y115.843 E3.25804
G1 X108.272 Y115.146 E3.28551
G1 X107.673 Y114.084 E3.32606
G1 X107.353 Y113.451 E3.34965
G1 X107.212 Y113.136 E3.36113
G1 X106.844 Y112.284 E3.392
G1 X106.583 Y111.59 E3.41666
G1 X106.208 Y110.43 E3.45721
G1 X106.151 Y110.218 E3.46451
G1 X105.996 Y109.729 E3.48157
G1 X105.795 Y108.965 E3.50785
G1 X105.673 Y108.184 E3.53414
G1 X105.491 Y106.452 E3.59206
G1 X105.448 Y105.637 E3.61921
G1 X105.448 Y104.521 E3.65633
G1 X105.483 Y103.78 E3.681
G1 X105.614 Y102.407 E3.72687
G1 X105.739 Y101.575 E3.75486
G1 X105.974 Y100.434 E3.7936
G1 X106.188 Y99.619 E3.82163
G1 X106.552 Y98.487 E3.86118
G1 X106.823 Y97.77 E3.88667
G1 X107.319 Y96.627 E3.92811
G1 X107.77 Y95.746 E3.96103
G1 X107.975 Y95.407 E3.97421
G1 X108.254 Y94.899 E3.99348
G1 X108.737 Y94.129 E4.02372
G1 X109.423 Y93.165 E4.06307
G1 X109.916 Y92.542 E4.08949
G0 F3600 X110.216 Y92.806
G1 F1800 X111.005 Y91.907 E4.12928
G1 X111.53 Y91.366 E4.15435
G1 X112.417 Y90.542 E4.19462
G1 X113.018 Y90.041 E4.22064
G1 X114.01 Y89.298 E4.26186
G1 X114.644 Y88.872 E4.28727
G1 X115.656 Y88.266 E4.3265
G1 X116.321 Y87.913 E4.35154
G1 X117.466 Y87.377 E4.39359
G1 X118.142 Y87.1 E4.41789
G1 X119.163 Y86.74 E4.4539
G1 X119.937 Y86.514 E4.48072
G1 X121.287 Y86.198 E4.52683
G1 X122.004 Y86.067 E4.55107
G1 X123.063 Y85.927 E4.5866
G1 X123.687 Y85.871 E4.60744
G1 X124.472 Y85.836 E4.63357
G1 X125.332 Y85.828 E4.66218
G1 X125.906 Y85.85 E4.68128
G1 X127.128 Y85.945 E4.72205
G1 X127.87 Y86.041 E4.74694
G1 X128.916 Y86.23 E4.78229
G1 X129.481 Y86.354 E4.80153
G1 X129.8 Y86.438 E4.8125
G1 X130.9 Y86.756 E4.85058
G1 X131.635 Y87.011 E4.87646
G1 X132.792 Y87.482 E4.91801
G1 X133.495 Y87.813 E4.94385
G1 X134.565 Y88.386 E4.98422
G1 X135.177 Y88.752 E5.00794
G1 X136.176 Y89.418 E5.04787
G1 X136.81 Y89.892 E5.0742
G1 X137.725 Y90.655 E5.11383
G1 X138.279 Y91.166 E5.1389
G1 X139.176 Y92.084 E5.18158
G1 X139.683 Y92.66 E5.20711
G1 X140.408 Y93.575 E5.24593
G1 X140.88 Y94.244 E5.27317
G1 X141.518 Y95.263 E5.31315
G1 X141.852 Y95.856 E5.33579
G1 X142.396 Y96.934 E5.37595
G1 X142.709 Y97.644 E5.40176
G1 X143.149 Y98.804 E5.44302
G1 X143.391 Y99.561 E5.46946
G1 X143.688 Y100.7 E5.50861
G1 X143.836 Y101.409 E5.5327
G1 X144.044 Y102.722 E5.57691
G1 X144.125 Y103.488 E5.60253
G1 X144.173 Y104.394 E5.63271
G1 X144.183 Y105.159 E5.65815
G1 X144.172 Y105.554 E5.67129
G1 X144.118 Y106.564 E5.70494
G1 X144.043 Y107.296 E5.72941
G1 X143.857 Y108.503 E5.77003
G1 X143.698 Y109.265 E5.79592
G1 X143.381 Y110.466 E5.83723
G1 X143.151 Y111.184 E5.86231
G1 X142.706 Y112.366 E5.90432
G1 X142.406 Y113.056 E5.92934
G1 X141.89 Y114.093 E5.96786
G1 X141.467 Y114.833 E5.99621
G1 X140.775 Y115.896 E6.0384
G1 X140.373 Y116.455 E6.0613
G1 X139.625 Y117.399 E6.10136
G1 X139.136 Y117.956 E6.12601
G1 X138.319 Y118.798 E6.16504
G1 X137.756 Y119.321 E6.19059
G1 X136.838 Y120.089 E6.2304
G1 X136.205 Y120.564 E6.25673
G1 X135.208 Y121.231 E6.29662
G1 X134.585 Y121.604 E6.32077
G1 X133.481 Y122.195 E6.36242
G1 X132.755 Y122.535 E6.38909
G1 X131.688 Y122.965 E6.42735
G1 X131.011 Y123.2 E6.45118
G1 X129.757 Y123.569 E6.49466
G1 X129.008 Y123.748 E6.52027
G1 X127.846 Y123.962 E6.55957
G1 X127.568 Y124.008 E6.56894
G1 X126.995 Y124.074 E6.58813
G1 X125.994 Y124.15 E6.62152
G1 X125.434 Y124.171 E6.64016
G1 X124.523 Y124.152 E6.67046
G1 X123.922 Y124.136 E6.69046
G1 X123.06 Y124.069 E6.71922
G1 X122.805 Y124.04 E6.72775
G1 X122.013 Y123.936 E6.75432
G1 X121.292 Y123.805 E6.77869
G1 X120.141 Y123.536 E6.81801
G1 X119.474 Y123.346 E6.84107
G1 X118.176 Y122.911 E6.88661
G1 X117.349 Y122.578 E6.91626
G1 X116.264 Y122.062 E6.95622
G1 X115.64 Y121.728 E6.97976
G1 X114.658 Y121.14 E7.01783
G1 X114.02 Y120.711 E7.0434
G1 X113.016 Y119.958 E7.08514
G1 X112.388 Y119.43 E7.11243
G1 X111.456 Y118.554 E7.15497
G1 X110.97 Y118.052 E7.17821
G1 X110.233 Y117.215 E7.2153
G1 X109.762 Y116.622 E7.24049
G1 X109.041 Y115.611 E7.28179
G1 X108.621 Y114.949 E7.30787
G1 X108.022 Y113.887 E7.34842
G1 X107.718 Y113.287 E7.37079
G1 X107.58 Y112.977 E7.38208
G1 X107.212 Y112.125 E7.41295
G1 X106.964 Y111.467 E7.43633
G1 X106.589 Y110.307 E7.47688
G1 X106.537 Y110.113 E7.48356
G1 X106.377 Y109.608 E7.50118
G1 X106.183 Y108.864 E7.52675
G1 X106.071 Y108.142 E7.55105
G1 X105.889 Y106.41 E7.60898
G1 X105.848 Y105.637 E7.63472
G1 X105.848 Y104.521 E7.67184
G1 X105.881 Y103.818 E7.69525
G1 X106.012 Y102.445 E7.74112
G1 X106.131 Y101.655 E7.7677
G1 X106.366 Y100.514 E7.80644
G1 X106.569 Y99.742 E7.83299
G1 X106.933 Y98.61 E7.87254
G1 X107.19 Y97.929 E7.89675
G1 X107.686 Y96.786 E7.93819
G1 X108.113 Y95.95 E7.96941
G1 X108.325 Y95.601 E7.983
G1 X108.605 Y95.091 E8.00235
G1 X109.063 Y94.36 E8.03104
G1 X109.749 Y93.396 E8.07039
G1 X110.216 Y92.806 E8.09542
G0 F3600 X110.517 Y93.07
G1 F1800 X111.306 Y92.171 E8.1352
G1 X111.803 Y91.659 E8.15893
G1 X112.69 Y90.835 E8.1992
G1 X113.258 Y90.361 E8.22381
G1 X114.25 Y89.618 E8.26503
G1 X114.85 Y89.215 E8.28907
G1 X115.862 Y88.609 E8.3283
G1 X116.49 Y88.275 E8.35196
G1 X117.635 Y87.739 E8.39401
G1 X118.275 Y87.477 E8.41701
G1 X119.296 Y87.117 E8.45302
G1 X120.029 Y86.903 E8.47841
G1 X121.379 Y86.587 E8.52453
G1 X122.057 Y86.463 E8.54745
G1 X123.116 Y86.323 E8.58298
G1 X123.705 Y86.271 E8.60265
G1 X124.481 Y86.236 E8.62849
G1 X125.332 Y86.228 E8.65679
G1 X125.875 Y86.249 E8.67486
G1 X127.097 Y86.344 E8.71563
G1 X127.799 Y86.435 E8.73918
G1 X128.845 Y86.624 E8.77453
G1 X129.387 Y86.742 E8.79298
G1 X129.689 Y86.822 E8.80337
G1 X130.789 Y87.14 E8.84145
G1 X131.484 Y87.382 E8.86593
G1 X132.641 Y87.853 E8.90748
G1 X133.307 Y88.165 E8.93194
G1 X134.377 Y88.738 E8.97231
G1 X134.955 Y89.085 E8.99473
G1 X135.954 Y89.751 E9.03467
G1 X136.554 Y90.199 E9.05957
G1 X137.469 Y90.962 E9.0992
G1 X137.993 Y91.446 E9.12292
G1 X138.89 Y92.364 E9.16561
G1 X139.369 Y92.909 E9.18974
G1 X140.094 Y93.824 E9.22857
G1 X140.541 Y94.456 E9.25432
G1 X141.179 Y95.475 E9.29431
G1 X141.495 Y96.036 E9.31572
G1 X142.039 Y97.114 E9.35588
G1 X142.335 Y97.785 E9.38028
G1 X142.775 Y98.945 E9.42154
G1 X143.004 Y99.662 E9.44657
G1 X143.301 Y100.801 E9.48572
G1 X143.441 Y101.472 E9.50852
G1 X143.649 Y102.785 E9.55274
G1 X143.725 Y103.51 E9.57698
G1 X143.773 Y104.416 E9.60716
G1 X143.783 Y105.159 E9.63187
G1 X143.773 Y105.533 E9.64432
G1 X143.719 Y106.543 E9.67796
G1 X143.647 Y107.235 E9.7011
G1 X143.461 Y108.442 E9.74172
G1 X143.311 Y109.162 E9.76618
G1 X142.994 Y110.363 E9.80749
G1 X142.777 Y111.043 E9.83123
G1 X142.332 Y112.225 E9.87324
G1 X142.048 Y112.877 E9.89689
G1 X141.532 Y113.914 E9.93542
G1 X141.131 Y114.615 E9.96228
G1 X140.439 Y115.678 E10.00447
G1 X140.059 Y116.206 E10.0261
G1 X139.311 Y117.15 E10.06616
G1 X138.849 Y117.678 E10.0895
G1 X138.032 Y118.52 E10.12852
G1 X137.5 Y119.014 E10.15266
G1 X136.582 Y119.782 E10.19247
G1 X135.982 Y120.231 E10.2174
G1 X134.985 Y120.898 E10.2573
G1 X134.397 Y121.251 E10.28011
G1 X133.293 Y121.842 E10.32176
G1 X132.606 Y122.164 E10.34699
G1 X131.539 Y122.594 E10.38525
G1 X130.898 Y122.816 E10.40781
G1 X129.644 Y123.185 E10.45129
G1 X128.936 Y123.354 E10.4755
G1 X127.774 Y123.568 E10.5148
G1 X127.507 Y123.612 E10.5238
G1 X126.965 Y123.675 E10.54195
G1 X125.964 Y123.751 E10.57534
G1 X125.434 Y123.771 E10.59298
G1 X125.009 Y123.768 E10.60711
G1 X124.498 Y123.752 E10.62412
G1 X123.935 Y123.737 E10.64285
G1 X123.098 Y123.671 E10.67077
G1 X122.857 Y123.643 E10.67884
G1 X122.065 Y123.539 E10.70541
G1 X121.383 Y123.415 E10.72847
G1 X120.232 Y123.146 E10.76778
G1 X119.601 Y122.967 E10.7896
G1 X118.303 Y122.532 E10.83513
G1 X117.521 Y122.217 E10.86317
G1 X116.436 Y121.701 E10.90313
G1 X115.846 Y121.385 E10.92539
G1 X114.864 Y120.797 E10.96346
G1 X114.26 Y120.391 E10.98766
G1 X113.256 Y119.638 E11.02941
G1 X112.662 Y119.139 E11.05521
G1 X111.73 Y118.263 E11.09775
G1 X111.27 Y117.788 E11.11974
G1 X110.533 Y116.951 E11.15684
G1 X110.088 Y116.389 E11.18068
G1 X109.367 Y115.378 E11.22198
G1 X108.969 Y114.753 E11.24662
G1 X108.37 Y113.691 E11.28718
G1 X108.083 Y113.123 E11.30834
G1 X107.947 Y112.819 E11.31942
G1 X107.579 Y111.967 E11.35029
G1 X107.344 Y111.344 E11.37243
G1 X106.969 Y110.184 E11.41298
G1 X106.918 Y109.992 E11.41959
G1 X106.758 Y109.487 E11.43721
G1 X106.57 Y108.763 E11.46209
G1 X106.468 Y108.101 E11.48437
G1 X106.286 Y106.369 E11.54229
G1 X106.248 Y105.637 E11.56667
G1 X106.248 Y104.521 E11.60379
G1 X106.28 Y103.856 E11.62593
G1 X106.411 Y102.483 E11.6718
G1 X106.523 Y101.736 E11.69693
G1 X106.758 Y100.595 E11.73567
G1 X106.95 Y99.864 E11.76081
G1 X107.314 Y98.732 E11.80036
G1 X107.557 Y98.088 E11.82325
G1 X108.053 Y96.945 E11.8647
G1 X108.457 Y96.154 E11.89424
G1 X108.666 Y95.81 E11.90763
G1 X108.955 Y95.283 E11.92762
G1 X109.389 Y94.592 E11.95476
G1 X110.075 Y93.628 E11.99411
G1 X110.517 Y93.07 E12.01778
G0 F3600 X110.817 Y93.333
G1 F1800 X111.606 Y92.434 E12.05757
G1 X112.075 Y91.953 E12.07991
G1 X112.962 Y91.129 E12.12018
G1 X113.497 Y90.681 E12.14339
G1 X114.489 Y89.938 E12.18461
G1 X115.055 Y89.559 E12.20727
G1 X116.067 Y88.953 E12.2465
G1 X116.66 Y88.638 E12.26883
G1 X117.805 Y88.102 E12.31088
G1 X118.408 Y87.855 E12.33255
G1 X119.429 Y87.495 E12.36856
G1 X120.12 Y87.293 E12.39251
G1 X121.47 Y86.977 E12.43862
G1 X122.109 Y86.86 E12.46023
G1 X123.168 Y86.72 E12.49576
G1 X123.724 Y86.67 E12.51432
G1 X124.343 Y86.641 E12.53494
G1 X124.898 Y86.628 E12.5534
G1 X125.332 Y86.628 E12.56783
G1 X125.844 Y86.648 E12.58488
G1 X127.066 Y86.743 E12.62564
G1 X127.728 Y86.828 E12.64784
G1 X128.774 Y87.017 E12.6832
G1 X129.294 Y87.131 E12.7009
G1 X129.578 Y87.207 E12.71068
G1 X130.678 Y87.525 E12.74876
G1 X131.333 Y87.752 E12.77182
G1 X132.49 Y88.223 E12.81337
G1 X133.118 Y88.518 E12.83645
G1 X134.188 Y89.091 E12.87682
G1 X134.733 Y89.417 E12.89794
G1 X135.732 Y90.083 E12.93787
G1 X136.298 Y90.506 E12.96137
G1 X137.213 Y91.269 E13.001
G1 X137.707 Y91.725 E13.02336
G1 X138.604 Y92.643 E13.06605
G1 X139.056 Y93.157 E13.08881
G1 X139.781 Y94.072 E13.12764
G1 X140.202 Y94.669 E13.15194
G1 X140.84 Y95.688 E13.19193
G1 X141.138 Y96.217 E13.21212
G1 X141.682 Y97.295 E13.25228
G1 X141.961 Y97.927 E13.27526
G1 X142.401 Y99.087 E13.31652
G1 X142.616 Y99.763 E13.34012
G1 X142.913 Y100.902 E13.37927
G1 X143.046 Y101.534 E13.40075
G1 X143.254 Y102.847 E13.44496
G1 X143.326 Y103.531 E13.46784
G1 X143.374 Y104.437 E13.49802
G1 X143.383 Y105.159 E13.52203
G1 X143.374 Y105.511 E13.53374
G1 X143.32 Y106.521 E13.56738
G1 X143.252 Y107.174 E13.58922
G1 X143.066 Y108.381 E13.62984
G1 X142.924 Y109.06 E13.65291
G1 X142.607 Y110.261 E13.69422
G1 X142.403 Y110.902 E13.7166
G1 X141.958 Y112.084 E13.7586
G1 X141.69 Y112.699 E13.78092
G1 X141.174 Y113.736 E13.81944
G1 X140.796 Y114.397 E13.84477
G1 X140.104 Y115.46 E13.88695
G1 X139.746 Y115.958 E13.90735
G1 X138.998 Y116.902 E13.94741
G1 X138.562 Y117.399 E13.9694
G1 X137.745 Y118.241 E14.00842
G1 X137.243 Y118.707 E14.03121
G1 X136.325 Y119.475 E14.07101
G1 X135.76 Y119.899 E14.09451
G1 X134.763 Y120.566 E14.13441
G1 X134.208 Y120.899 E14.15593
G1 X133.104 Y121.49 E14.19758
G1 X132.456 Y121.793 E14.22138
G1 X131.389 Y122.223 E14.25964
G1 X130.785 Y122.433 E14.28091
G1 X129.531 Y122.802 E14.32438
G1 X128.863 Y122.961 E14.34722
G1 X127.701 Y123.175 E14.38652
G1 X127.445 Y123.217 E14.39515
G1 X126.935 Y123.276 E14.41222
G1 X125.934 Y123.352 E14.44561
G1 X125.434 Y123.371 E14.46226
G1 X125.021 Y123.368 E14.47599
G1 X124.517 Y123.352 E14.49276
G1 X123.947 Y123.337 E14.51173
G1 X123.137 Y123.273 E14.53875
G1 X122.909 Y123.247 E14.54639
G1 X122.117 Y123.143 E14.57295
G1 X121.474 Y123.026 E14.59469
G1 X120.323 Y122.757 E14.63401
G1 X119.728 Y122.588 E14.65458
G1 X118.43 Y122.153 E14.70011
G1 X117.692 Y121.855 E14.72658
G1 X116.607 Y121.339 E14.76654
G1 X116.051 Y121.042 E14.78751
G1 X115.069 Y120.454 E14.82558
G1 X114.5 Y120.071 E14.84839
G1 X113.496 Y119.318 E14.89013
G1 X112.936 Y118.847 E14.91447
G1 X112.004 Y117.971 E14.95701
G1 X111.571 Y117.524 E14.97771
G1 X110.834 Y116.687 E15.0148
G1 X110.413 Y116.157 E15.03731
G1 X109.692 Y115.146 E15.07861
G1 X109.317 Y114.556 E15.10187
G1 X108.718 Y113.494 E15.14242
G1 X108.448 Y112.959 E15.16235
G1 X108.314 Y112.66 E15.17325
G1 X107.946 Y111.808 E15.20412
G1 X107.725 Y111.221 E15.22498
G1 X107.35 Y110.061 E15.26553
G1 X107.303 Y109.883 E15.27165
G1 X107.139 Y109.366 E15.28969
G1 X106.958 Y108.663 E15.31383
